-----BEGIN PGP MESSAGE-----

jA0ECQMIAAd2kwmxlln/0uoBSqD9jrtnMt3uX8wjg3ZE4gO6L/ElOOyeY0taY9zs
OYTKfgW56CI8QAzeqKJRMNbjRhE2x1UQCxGsPXo/wmeicEFToe8Xvm7ksHOHgFvT
mPC35wm4vqky7pQ14quTnEqAgkh4AW7hGbiVLfsEzJkmlcjVnDq6gvBri2SHMbOa
mty1bY0Vi+KuNvr4vJIZIv9LKmYaagjbHJjcr9hqjgPlQYTuO8v41YYDnBVy7kqN
bb1798mGrm0DiGZkljyUnzOq+IzK29hPDqyzczRkQQ3y0fq3N3GxPMh5paRNcH9e
SVR+ye4zPmVLF+ioFaMxMTxiwONyAGMkJpnTcRfzyUBYa0J4Tt5EABzD0bU2Jp8J
PikwsPtJ5Gur1wz8tWyh+npYYq1qxW1U0IWWBp9i/8Jru7ijStNbVMwczgC9uHVV
NhlFnGK8zHI2oQH7YcOhG3eoJljAkEqSjwdul1cAhFDZbdnX/u/3DaVaQX0PHtYL
LewrZRKvXZkAd7/l1/j+whjRD30SFgKdyj+j2QOon1Pa6Y3m9GjdEzXi4O29yQNg
Nis8YARgc2jkGhuFowrm7g2n+i1icbIt/RbQiQ8V9C5VaTq2ow8avWuhgzCj4r58
qXXd7846LUYSq8popTfsoF32PSoH43vNEoqq0oztzpwp+JNivO/SX0SH8XJOxtfT
coT85jaK+HMqOpO87RbrJTsvF1Og1jrPlnzL5lapC+T2HIE1kw1f6+DUvU8k3x6w
+2nLXp+g1538Y8uNF/N7M64cLMp/4RYmQcXgGM26tu63iGX+HaJv07DAnzLoJbix
9TxXMJy7WlmWWyRrptb8S447INyDcOCTR9zvNJaOOx1epuVkC1Bcpn74Kdeone0Z
c+5ieV7ToGOxiB5f2gh3PF4kipwZ/ZARspwisWga6fTMzFIgPgZN5Fimde8t/lFT
fDHqxvG3AefOuaomB/Epj97Bllzhcghuky+RpvT3uxKz/90vZyLPI5EYpTDd06SS
dKc8YY8G+9gQl9MOF+FQjmzwetoIUj13xZsCKfDuMCJXNEYfISPBY1YfS61Rp3sg
Jr/vBy+3MVqSOj8h0pznScvITy31ZC2d+5Bq4A55Mts7YtReVk7MtGOHUuZ0fIDI
yUMocFjPmArpfwBh2LBTJcBI6xUoHtCAZK6XoUB3jZvhavcrc41uXMVDS/eKYYA8
pM+vyVHN161yn0MW3hXqQMrT4dFeI7Hnuc4Q4r2gbJNsDiQYUF1a0N2/C/KjrWy+
ivRKipQag7nCt5vQ8pkW7ARLT7vQLZjezU8M98//WVgcjrMzI1/kNsKz/5OT56+w
RV5z2/iMwyBqzkOG0XGf3gCSuXt4sYmQcVdtn5623LrN6u1PnYy5qKiqHspKFZiD
gea7d4UElL5W5M0nab2qqnuAASfx3/WnhY2l6MxouQMSxZ4VPpjSAA3KSoTES20D
PeDSS5zOxK2IKl4QN0EL7k4EEJHMSsGUv5FUq6zyq75qrsVblPlbSQYUW4xou/I3
RrtmyXnHEwG1MymljRIPI+qsCc9sCGbZ9+wNb7Gajw/25HJ3TAqjAOLvzHStOjDi
DVq1xZqxMbsCUIP0zNaut5sX8pvTrkeDGcXpuge9gk4vupy2r7Pix87iDydrvl3Q
+FbIWTIcsj+Bfg9M/K2K+ORfpG8pZwRxB0v/+pMnPJa7OZ4lCQlouZA9XmNrF2oO
Qu47iAS2Jl3uyovOW/QDYsTQjMKthpN8dbmxJSsytKUy/lN5hAEMx+07Lee88GaR
cS/H3T5EFxcHQT08JOSIx2SNVybIfgkYeA5+DSP5zQy4iw/+JNNS6ZzupYAKgO4w
bnyshMDyhIlWe9YSMYnpFImPe7VEFrN1eJyLSHufRUoIc2qYH9l781vpFMvD5FIO
wWm9TZHpxWJL3fMBuPKoqGPwwpIdku6Eu+zkZPqA2iPNrnLuBN+48hXxTQ8LRxjk
eL5KRtUs/pYHYyrW1ZfoZeBpKhSBcwLjV8SC+Ury3xqdqNwdy6tYjn57ZdLnJnqD
tAgiEQGhxkjVHtJ4PEYqvn1TaKPkffOKsAcivpYJYmRsuFB0vbJkfkv44kHX5MJ8
ORMuZFzz0WHG/drI3fMp1fj2kXAQ/PYjR4c6OOS5TWYU+vWV4dIXGi8EFeVYr3Dp
zhKVclHeDJ6enrxnggcVeH84gdPCjtCMMrUcM/vBEoghVlBRwX/HU6ZMFIFhKY0g
4KhfnHKcrcciFsGvJ74ZjnGI+rOVxzbh3PAQB1MLZRGKJiiFIIp57/uEXuprBBsv
GHnniSY9PLXQy1Dgxi5LXtjatS3CywgsyAB4ckfFPT8p6Q+ag1/1V3Os9gcWwSp7
kBsQhx/oTp689RVNdJCbQKV0141vtgM3H1BnBsQ3RYKPl3Hbi2N8l528nfyhJi67
vMENVdYV4Zfj3OASiioodhy+B/Yx9g8SEeom5d0ViH1VR/EFiujO9yubD0qUFxgl
GajAfwVd+V/nfCTMBO6hZVLj0lwdTS/b3Y6UkhJZyX7hUNdhzjrdub6HkZ+vMHrY
8xjzmJVMdE/5A0NSLjGXWmHaLHIMJjf5+mL9+7dLaA0Rz8Qa5Mqx378+5Tm6q71J
sj6EAkdblDDYOKpEjJQP7UifPFEI+bSnSPxWxWmXvo87rYdR2/HeAxHzJcwOYhnX
RCnLt3QOmQFATWat9THVqhXt/SxI4fRDTOait3w97VC3dedsmelHaS0dDRAryDzg
ITXs9qhPrw9jAfxy59jYs+8Xx3muoP3vcy/e/PnIESmJ2EifFkWV9syyjy8TzxvM
+G2Urvb7owwfmYGje9SKdpj1RZNMJXTkDIOFGEJ01Oyt1iVvnuGRpuDTclVA4FY6
/Q2+2velRgyjnaxqfWl3zdKkISr7pbD28Q62YVyKk/9wrpR1TL2emg+S6a+aUhNG
omDp07mHLPASFvordwl0Ugo7otRvBwZhOJv6kw7cR5De4wMpxI2ZMyrksGujtuH+
2ngPM3d6Guai/UQPd8KyMEnTDoPELGxY4Ij9n4Uf6ScjBcL1lVnp40lzXLK++hrj
Lb78qJfux89mBoRdFNDth/o8259C05XjvKwfJ6YWtNXrdiWHgyY6E/fMFrWQhDbO
34Un+sc/cByNNns0o90t1HYoKWM2IAKg5IsDObiDPVaNU3w6vGBXJEE6TNUhfFn1
la9wrq4zpOcigDkHaSfdg7uvHiwzWIMwBAJQVvGEHUHgyPF5AQxP0NKH7+yjhXVg
2fNf6/yaf5SL/0lge1wnaC6kyUb2Xb2TgXsgpugyx95S9qm7BRkK2YJ9LMqbnnRd
0NirFC4huuawbNl+XNFJWdCNFDW5wmTSOjjSlF2fDdNwJjIKEvDdAr++ARt75013
5rp6ZtylRZyE6N9SAR/i0Nt06iFC7T3QaUo8Sj2q1JGxPtKMi2nfis9mYV4d4aLI
eIUejjU+Xup2zQ/NAUjGaV47AXQi2mXuzF76qwFw9BKiYCLNBX1epcN3Jn+nyJRn
QAe+zK/LqT1LPfdTiMN/6tB3fPMMC3+DFntKLm2IWFvjEV30/X8pZhiERXfN7zX5
RFcW+4dv861mThZ+ys5JtuqmOUPSLhFNpxuKEUlpyskHghbxXkLSqvM8bXVcWLBE
mr9uDg0JGsqIehDI8e08RlM//vvHA2Gk9HrKh9qNELl9BtSq7S+E+peqnVF+aidT
zWhr4q405Bl5ABulIBXmJGKh+ZhtLJSNIvi8xODVZYRIBOTeqwKZEvYckrBbyrU9
sbt/P7wtQ0sw7p6jW1CpW9v6V2oPquCaRXAbIEmthsS+rYsGIcXTk0p+VsK/oJQe
NeWc1LNRydiBxA4pLvLUk7gFOSZynu7ohoWb9tF3h+PQ8jk76Q34tMJW5Efako77
L+9o24vVpk9IGzG4Fbw/Fmz9vz/Bj6cIRPQxP+Dx4grtFIlC3q7+HM8VcG6ApEAn
FInz3nVP0SE6XVI1jfexiqU9F7Xlqn4dsZhpHfY1/KcPTh3yHdokKtQta+N6HEpd
75CyHfdtOyCvQTCmT4NsVUUl8ZP3QgyfxKhWhvdTJZbc/By8xhTj5JrNKBNiQw6g
Zg3yKqjfmSOUU5KFYGv8OrfHitainNqAZySuXSyzGug/+HEmVS4GkOgiLWOv8Hwm
nA1sXYj02KZKJh0FjdbDOEmKlIfzO++BnnsoDdi4fmYygjhbXjmE5cXtbfsGp1iF
9FLZKtJ/9I7e3owkaglVcU5iu2w8bQVVcZaDvJ6hfbzfThuELe077jmdPLKXtm3X
0ysjLU7mUCXJigw25fo1KxdGf5YZGQep1GChhEbzvelaQk1WXE7k3Era82vZJJbd
ajRDTKLnUGTViA1M1sdw2FElO1eDThGF7ymcsIWV/X7BXQSUb98vfm0PMokT9Dqn
pRP6DzCZxFMiabmPfSJ1AtqZ1K/FCPOQrkuBdjGNbz8UVcabRSrRmYoiTX0/9vcr
slPDZET9C5m9sTiTtaEcxn3JMDaCI+NhAfUsYt/c3z8Gbzo0zYckE8tiLr47ZcDn
ML559Yx4UAVrVINcIbIXDuBcVyiEIimAmO6XnFfWtOwzDjrHXsTKwVP6ENb5132h
0LyrODBqv6Itnp5cHKN9T36KEjlBUtNmtrlSVU7VDuKDwcIPRgL1j3gWWD7NZoiE
xsUsounr+RQ6aP+GFQE/T+nsZi62hpShxu8aJul/SgjFtxrtA+87YORgHqpixZx8
9GXktJwlpScuFU2RK1nOZgISSwoPV5Sj/S+Xg9GHZ2xqrJInvLEgk2m6ZHcPh8tV
duJafmlzxojopxBnnwhynRvx/Yh1XVDeR3UXnXWvQr3f5vAFge0huOKEQylL3lxG
5U0AASz3g2efE6Qp8DFF5zVJ9GICX0E0DJnCFoiTwqtf+OEzSVWTsmyiQveTOgs+
CvAFCCF0klDHFadjMKsw3urek0amF3zH4UPuGCa//PbaFJxV9qCu26vw/y0TZ/k2
7hkQyZ2OiSoAKYH7nI6jvs5Uo1oyQmUCelKpWkvIx1ia9gPtmeOXOzJlrQ5eNYjO
9NTCVlHbJ7cnI/E6da40JXHxoJtsXpIsv87ZaHWcHM0Xr3cK0fIbHoM49+i+lib2
2iAEheyF8pjnznv6g9mfZTfkRItsxTaGd1/LQKvl6Z1gWSrnTIUZm8xj7Qc4UpXY
zMvVsplXkxPB2d3wO2z1ekeKVg5RA/tVmZqBpZ348+nYB4U2DGL/kvAx+b8DBWOH
WbxojLEXDVHDge77k2lIF08mwNmpaopFGgTzvfV+ovB5CXAfBZOgjZHlPJyelRvu
b2w631ncGJuVGD6bh6rtpPldMpjucQEobASlu92LYlEEj1cVcL26U2DBbgnBkBr+
Crk7Hk+qxvyTBvwqzqPey1lmWqH7MSZlMGpAzJGUlLZmH6tqFWVA7SACqufk6Dta
yhgtGrtI5JMIYJ4EmWM7KJ8lMFa4XrWa/yu+pV+MOv3UEJRCMxhTHSskasLJn2Gc
hmU77Duy+t6GZM0GhsGlkt6EOIEkSTXVdy35QRWBEjwPbyoze/lhIO46RLELw/J4
uFdZoIdEuQF0IZiNG4Z01HoCk56Z0GX4ilKLvoKLI6czvJtLZBn2EjIxqMEBww1D
cXMWurZIIG8ic4flzZoAZ5LgKO3N/qizsrOcMh++yvmyQ8+jCNrfeFJ49hawgSph
1CVrJvlrWA8yvby64+XThCUl5exCvmlGOHnGnf/Er62Q3Oen0evYGY9nb0Rvtp5J
sBMsekypl9w31F93Ap/zCF/dTgMX7XfX8c4Iy4CjZRLgGxk2a5Lvp9KOA4+h4B5I
aCnepvyNpcsnGt2bKDY+z4qTKCcde2Cm2YRlZn1JHeFkBcX2CCz6UYP/qsKxBz2U
+g5tyfDjFldhA4lJRpNl9bmhoP5z+N4BCyzf8hgLDQNvhPhXrmNX25R+NHscJuH6
1A6F/O5e+UwNGvlJ01lGeZkIJSqqZwwbAVXHk+IkBqyFjRVKa/1ffrBzXEBGiC1R
WWafOCNKrMiFRavxQFjq5tfBBhqru+PSChN54XypLgvSvRrMXLFqyLf1eCi4DtAJ
NeIIxsWFsUhgHQKWtjdUgq0IwCM3mDs9LsI3zdh8nYu5eW/x6GeJcEkGSRO/Lkj5
M2NihL81m61bEhJfhD3z1xMbgiRwZAInMe1Kp2zszNGspgUZiSdDWIerN7I3LUHN
mka5SuXnuB3AXzqso6rZaLVMGllKf7Ppq2zPWHTJPLzP9nvxWTI2ZD+H/ABRQpWv
AkBGlsZmZpkm+Zn3ttwoCc/5KZd1pnaWvqDHLcSFhLQMBfwT7F1d334JAaVsZxRA
pzBTFD7kfLq23Co7xMG5rDW4+Y5hBy8m5sEdeKkegiK6JHl+GfJ9PJfAOcYUWjvf
JO9n7Jncst3k3YStAMUqbMn6Uhx6Z6vgBvqDQMEczppf95GZtWfiIhOQ13gJ4aw1
ezHu0EbT6k/vVPGyRtaKJjf1CdE+A4E0S8wUc3C2um+rXvIwdhl9lNeyBLE43qX6
3inziIxGXzdEPv9tPJr6iwGf9c1OmHA5igvXNPU9+f3seKfO5Dapbvs1gn7WJAUJ
MpnrKlska5qG8wzpgXUOp9GYOl3doedAlOFy8KPjQw+rW43MSOY1uGso+OPmLlcH
coLeOm90HPuSnmY7ycOUc9uybtCA/g7PyrXDjtFI9lmHd3PheIBNd1bcF36U95wU
QrXJWdkUhXC6/5O+5MrrqPT0Mkq6t1HyOWNua/uxe9hSNPbc2sQ4+xKzcKxJanEF
LIGbo3/Vg7j/poPc0RoXoS+GyxsqL1luAly7cEOGHxJmE7Zr0m3vlQF+irRFXIZi
eiPJJka+EAeRQ7rqTlEOB0bEEaQeUXNQw6XG4diLAU1IKE8QK26trcMglP5dzrRu
QK45tdOwErHFrM9l3oEW2atJPdXEsLbk4Pne0ChwNHESDmjqc7pLnnNhliwvZxcp
TYWytJnVRjkBRaoh66AtEclYEHfQrp8sV2//1UCtY6AY36LpOiRxNGlwl7Twmz5P
hCApfp6sojYEuaVkKISVYPhgfXTnXWQXqOP/hZrJ2CoKXzbAJjp/s7tJXmDlSRTx
CxOMeAd0LVWLRzRJf3vI4c2V1VVDtfrZ5gVd28TFJQTRn49TZpYSoC/D005GVqsL
j3oL3VY+7QPkub53gH0zIjSd1HQzPqGJEvah15YVAb5aFLpRIkVscvOMe2hdtla3
IAQ6GO7nX6Gm3GFG/f1yZp9TYbnWmoVHTFFyh/lJkYrKteN4NfcxIw3RzMYN05VN
xSQVhDFfP2v/BX9Dl5bQaa6BwyWKqp696ZRr/WzmfrDPDwIXv0FBIEKdsGv4o3DU
qIcPiI5sng80Gfmlvmgkbp9I7rDOMwnis5u3yDgNPSWSfmzOpSpdqfHLoYCN16/J
GT5U5/uEJLePCmxBqSDK1INJoZJRVvgR2DiSm6SMNEtxhT7fSOCgtYeoRLYg4A+X
wLpKuId4frsmR5JRGa9j2YHlJq0XClFStkFwAmIMZpPrFqeZOvFEnyhtWJ9+26MP
KwdCIDbBuugFSMKdZ48mu2mkc7lVVQYcwnWxt7mmtDayLKyKIXpMl5GPR+IwVMta
UIO5NcH2xc+fSobZ3zXpFpKdSy4E+QTbW46/3egCl8wcDP/JHvBzjkQSVtv8WWJl
Kfy5NCSh5/QgNOaQ1qP+FGBqVkXGp8jf9/VcwP46FmScgtQPVq+ezOPQLhvPYs3I
CLeZvujni0JHbik4XQHyqOl4uG8F0ulH6c6HQOy4RhlXGRPdo2zXgiRzSqx/6uc4
qU16QMwAue3IpgBcyXzpavayT/5plzA6n6pwLRptCIAwaYraoqIQJ292OeYcm6vo
qMIAZksneZ54OacTxM78YbluOMWALk41knbtKHsVWmyCA/MnW1AnL4fHDn2STlht
dIkea5h4xm9rDQpZIprwvGY6uH7GElOR/DR0qlB3YcU/dP2dJ8i03JMQxCaAsNqI
JanY02UMSP6sbNyKdCOHa7KnPdTnMzGwvq1N7YFfgjI64Qvr7CLJgHOGqshjIo7B
r/LSw1psl72c4siKkdo4agw4tukCUspf1oHemevhysA7+pRdsObLPQv61E+ZB8qe
XmiN1YG9uAFW33A41okO0LAFfNubZCkGlpoag3NZrqQySaLPUZpQV12Y25RzNiZr
CQfVz5cN5sMRzXuHDCZBIu88EuunF+jWQB0wL5dw/T/WhPyS3NVEOBD2OMvgY5Yf
HbnE25awXwPE7q9T0U7CV42WLRDtiGSfurD3uok7X+ao4bF8R1b+gcn0ualSx6Yu
J/68ktSrBgM1FepNak2cwK+FGpZ1IlJ0HTMP+T32proSaa5f71AKvc2n76I2K+yS
gwtYWW3uNRLRA0fFWO2lA358+0CJKbyhc/z9LNqRn7lAAy7sIYGn7pjAYVhdsOBn
GbqFkU8vqwS6GrnivL24PqkIsc20R3gkqfLb3BWpcIyy+5F7MPuGTUCpvHt/KRbi
NFBirlCDTExdg4dhBxeB5leHuTNG0bBkxYRX3kLY10uOonlO2q/jlKIO1DVFlhRI
lZrYdzFyzmHPhK2dlORzQZBP3LdMEGFRoislBzZ0u2AwFxrkySSlTSiSWj5TOZtm
e2rZwfd/xmEuhW3+zBcphWH3mq61QXQCreCdWYjTJmgOmeQ6rXsUBB2igiUtEpi0
tYNAEQDALf1fa+SSUHG+SVWOG9zRsbL4jggMJBAWS9vXSSB4IpT4mwVtjl02fshK
x88MwNrLvdGMvkDKa6CYdU6vjsRok20qlIMAEJPAy2te068DqJ1Tmnq65uC2QU+z
GmNlAdXyozPo6i0UAv4L1swmRA8R8fBCHWWBHP6V2oHGgI8VCcBJ88lWP6MzYX75
Seal9Rs8V4vL7TGuQuQxJZlx4EYUa+tgpbhjJe5MBZibSJ9GxrHkVmVl+Xs7cq2Q
KhdqqU6nmkQKOwPeQ4qF4ckpF44LCatx7SBum1Z+m44Zr3qPvovWFC7flHzbWU0+
/vjtHyaoUcFPhoRYGwa3rtfR0bSnzfjgb4qrzLWFce29tHUyCmpFdO4f8fZylGwf
hltYlTaz2Vo1nfOVqxQ+7S0NTxUYs6w0YBM/VOKgBjaxCN/qP/FPsLz0Hic1WwlV
CrteV72qmrKWQRvsPz/aYz8bSS393o6npbVAMMVZCegIwhrueETpXYNn5SUm7Obn
+UqsPbxzee+pNWjU7Jo66JRbhkRBKq5nB5YI3ot9uEqlD76gX2G2Lbwq24m5T3O6
qNMuZt6Ayq03+cFX/tw8SkTDoz8lSs7U+x05e0ZsuUSy+i3BCXzvGP6oqymr1on/
A0TBQRQVS4QPwYcA7io51p1F7Lo3yOGE1JzzIRkuMdMjYqWzvDbXhxqw6Ojn3tSq
OKXEt8q2FwDHTYYocbtg9OkuEMvzwReRg46m5DD4BY6TSwSxKXE3QM3pYBQEf9XG
sLHynbUnUTzZGyJqjDtpYkiUHY13Z7F5b8nwBj8nn+Y1R+IIUJCexjI85nMiz2KQ
T5JMuhVjDFi0itw9ldVQcvL/4KzM7upZlMg8StjZkQ/6SdkM+UD941QTlH0PWg0v
o88u617pfEgLfz3AbJ5ZPc112FjctR2TR64HFwxGAWaQDp8xRGCE3oNbcvDLP6Uw
mxGl4tP9Enevd9CnWwi3a0UyAeRIWJ8cpIz+VY5s+n+DW5B0L28gTKTw1ChOnYoj
VBjAYxQtTD9Dqbvc+aP0SJSZSmMGVJuuc7IfDVETqjNnmr/rFZPYuHEGSa3hpMAP
gcJu2DCh15wQ9o2rclbOD1Yv0uXfTjVIwh49YAzVYpm3jIcjKXI8q6SaKvdnSMYs
rFsX4mb3gV/spYg7qPXE5czXR6OfPR9K/H2Vakmvyofa2DokPFknEwfl9M/bXGkE
XUkqvQtlnEDzbThG8wga7KqlIlFEgdPQ29SqLmLYyPseTiZ+lamXh/FP3jY1SUME
RtdRDrMknmrH2y0cPmKZ+7KwESAMoI9YWU7ikd5SlSw0k158w8QLPrtWbLyfiLva
w+jliMwQAyW9JJorOQqwEshrUkLqgBAiI9lRfvq2nRjzU1cPp8iJs269nKE6N88U
i0qeRDHlg26g/3dKlR1fHPZiTavyaiKN+axT/6cXVfniqlMPrw4XYMWwaqLQKVpL
29es0iqLIIH+qRIjw+ZHWVjfrySG6h8fIudfQeahDWQflNZnuNf3vbPQ/4m94gsa
/O/7igjmrOPRLJ7bBsvwWtNv+2ARwW5yYWJV1ar6VwBPH0Xp2ak0tNfdzi2BeJv3
fypb2NWBgsbfvUe6Qv39Bp5Opcv6tVBsBvF/kkCK8IAzrJC3poBYHpt50Y2n5EaW
kRnAwkOtqdZJwEottFuitoHj1b/lQoL1ZioPd7ZVuAmVYNyruZNFwpAw0jZl1WwY
1w9BdQVupmeDQ4XpYzMtPYkGW8Af+Fl34fbx7nqQAgl5ykM2h4WPHIXejf0V0/UO
SndnOW192pD10Lig6ZMG9uQLSA+9SkbfRaT6PAHiYJwlAMJgLg4I2zYE4s+TZaqf
+9T6X260VgboRoAnfLON1L/ICmeHtwyVKnkMWTDWg5Z4ERCQUxBwcUM/Yf/IARS/
oZTz8tg0C1bGsQvsleKy6WJ1cyCqQ1rzyIaCkTPkkAQqjKfTZwsnwMrSRAEMhR9e
eup8WEV29MMez+LcCvbbBEAEoDQhyyQotmXpjlen32xops3QwebE2olJ3Rfj5Oqc
SPQNMFz2DcKb04WauWNWZV8MozyrtNSdLoevwWTtV2InOpD5UDtIvKMm/LeDPmQ2
fng6DF4dytxqwQ1af52lk9r36KubIMNwrGY3gAmDCqcyfWKraR1NrW+OKF4y4hcj
keJZeGs6jFhgVgEPgbXR8TbViiDaPn5tocLlQzUpJd+c7nys1d40kzK0oQxTjAVQ
SF18nupG7zXpyU9QK4opd/jQewU4yd6pRYoMpGtdpSxtcjixrYTvgQDi+jEI/9fo
pRz0TYpbPSEfl34/ebmR5gccsqDguJtvC1FX5BFmkl3wKFkH7rjjD5pQPQ8PMiYN
431Ws7bNQXUNGhtNR/eXJ3I15twpxrMV0y8ez9O+dJ2oqHHt6ShA20FDUzYSbg4J
GdAWp3/8GNub0k7rP4TU0F716eGMzDjvgYIgTApY6zvqe9VuWGAOygwV7rGlU8dc
SzVKHPLV500w/0aJ4f3HLpBEWOnJIhzRg3nroxtJMSOr3g9sjUHHSf+C9FVRM6LC
KTPJAWn9CD5qMIRRRAolzepS+8MRyDo91uHXhZ1PwGBxlGIMa3xcxCG2EHbUKytn
4STa3/7b5mzSwGGdGUko83Y7YzXBv8Ci/F/PA4JZM87QT6tTf/+Un31lZxlf+XVn
2Fa/wy5b75AQ0E7goDEBawuRkG8eeMfuypGno8GUXoHOqJ5fYUZGQrjAvj6c40OV
JKqcR6fvR+fLM4pw2oNcpxwrSGpsJH3vPE+BE/9MXCFv/miaajdJT08XZcCkis8p
DU2L2T6rN1WWzzxEwffXwpLBzAGC3tbXACpOKln569auq4NNyQfyfHXbZWYH+yDC
z/dVHdJTGMwhri2RgF+1z/BvQxuF02RA5HlMDXd9IqOvvDf+rEhewqvHkAjVtwSS
69GjxfTiAsKXQ0/0d0U/nz7Llf3yeo5xJZMO9KkJlWe8kOj91W1RXfdVZv0xoqTv
j/qOdXg+09GfFcdt5guhLvyw2L0KpkqcmsmI0PdcniGMxjpSLZvFSWJno6Kj3L2I
Ay6KDUzN4wc2wc+DNR1u7EzahpV7UGfLtnNFgMxnLr9BP0TzN9teIxoX8CJOYVwv
lv4NmWXMALSAKIF+NFHXr3tznTeTSOCeWawg1Orf0fbjYbtYGUKiZIH3zqSqFWbY
gnpQvKd/sXxQtbHaf26vCsEHgpxdwgn8INca6vgnpGtbHHp6tm/JV/mVoGb02itP
HFFvy+EEyZICezv7/NeQt26LD8/RVJ0cgSFxYJOLYksW4/n826e4OvrnxrNWT//y
H9iwNWlRVmuZRcQbLXvxUUrUaSvM9yhtnpmAXwX5S/RDW+bJFyauyfBuxvctRCbY
PgUpunyWm8weSnBeDyGRSUrEZRIaUYL5hKQ8F95CQjTx7QUSTYNhdlNLKHeD2hM9
1jAB87ZWywaF4GBIYB+Y6zWHFKGltMYWTshjghWxlH6vd0kfbE99z+oAOqLZc6Yl
k3Md9fGc1uOn0vf3vuFZxpJkT4F0L5+0YgwxP6NP5j4WrzHMPiJ7jz4E4qfCmQ6A
tmul1+K6cZSutIjO2YwpBjH8JlxT6uyNWVcg2tCLdDqKTewtHAsKDWTuDPvW4cpW
MJvuMfOrVNUItcAsZW8A7EZN5WdBUEr1SlrW+ETWxS42mQxYFUf6r6oWnqEX1EPq
VxMuM49tzIrTPPAjc8HtILCSgarqVsD5d0tlsLFcQ57lKGsFxov7Tpf3NWewxJzo
4OY4/o9kDDsWwbIfVngcV5aUAOS+EA7ODt3+85/Yq/Xb2L+3pSP5JnYPokjqVO9V
IM33lGkI9rQ5sLUm+WIew02K/Ak+sYxU2bj1AW/kdC9eaxmKHsMlZfvrkRjrFJLc
0HdB8KxI/Cxgfx5VKhiWNP16DQYvLI2WMR/wWfKlHi7b1PyE7zKbUT4id4xX4FyU
ImaEhiAGQMSezpwY83fxVi8UIUviKgFSMeImsR5UJO1ARENhvbsQStB7n4QYttsc
gEVT9nbpAk9fUnlvEngXIffBRf4AZU2whSn/imdky1zXEXJmpNTlCHlj2Gp1/OBs
AxpN/idxRidEYEgPDpQc9GlL1gcDvZoZbOI4egUrroubrPvVf16JMyiPKhrdUtLK
kceSfKyskkr+8SO3kKfv7POPRv5Zs9c9Q8KxaxoYblnrqGnbDTy1Gcrxa53jGfRd
7zrESdqPlI+vmbrATdiDKA1/W8blHkzivY/Vl060HNP246jaOr6W/CNEulJfoySF
vo5z2ToGoL+GO/7ykJo2SsHGwPfFtfR54zPZ9w7Z8uaz9MXdV2ZY+CmKRkwPhZlu
rbSzvJKkajaQH0LWHrpkqLhbMzZs+JUiEx6N7QUHgUqJZgHXdnTi+hg7gaWZKVrJ
r0eGQ7zx8QSE8dLSh7JHiwj6JoDIUoeyb0Cd+eTZMFsHFiHQ34LokY2QLVM85zJE
35PYhCXS6t1KENPMLirPqtyKdUOz+5rc+vPOH0gbKYByUfrjQv10SHH9/DyfidiF
MwXPZ2IjlqPWnLQKG+H1HD6yoZXQBafBk4mwqa4oRU9ogtdGAuzRv0Sn2bQ5RSD1
LG+OfUEBL6UqpVGopfGIx/9uDbNJobP+A+NabY4WED+WC0K70ZUZfH1DrDanbgQz
W8LxtSsjyZFNTaU5AXYgyXZpig/+lcdjgxkPTEz+3XUV2BXLLj/zeXlOh5g1Q4wS
irv6JhlNTt9SaeXCdiWWt4WvoIBbyVHqjMPt11WhRQV/W6dpfptXVAHQ5MUhGia8
IWmS/qVk+eetbq7MJe3ihvwGpTnQIs/1yglmhyjDAqoleK5wAnCQbdCJ9GdPMYcN
7a8/37GRsKKNcWHOADvVWz0SHHnoBwe/b/hOlhrAaSIG3XXQ2o4YRAZ2Llrrr5Lb
RQd3EbX0Y4isxt9aWtO5XTIG41JA+NCY+ooUdvXixKxVAcz0cGrs6PXlaO12GfZJ
66di4M8590r0cB6bHzbaWTCow8JRM5DatcEvBz1isTe+qjqceg/EYsEPy1mUxDtZ
N5I0GeFdNKKH3g+4tGDzEPcPMr4+o77dnElbH+jdjPz+SFYtPMdyqlbQizcERvW0
6jWNsb+GfG+wHXHx/zFDjfFNuu5+53Mv5OKYUpiDAFLX2I1HfH4wjGSn1IsqRCyc
lNkGm/rsPaXbBFZKUZiYBWUuk/iyqYBsl1/d1DMkS29fCEfPINGOTrd//6TD3Jpd
sUProZv928eleKKWCpbs+8SPqfuEMckcGTjyXr24ot/61vVGXr6LB4X9lmGp54tq
uhGPgAvWOUqV0xKHkzjWOjauP6OfaYXTGV5bX3CSpPapUnS+cNa0YKj3iMBLRX7w
WCwQNJVg0L3bZaLtbqfo1IXVx4ymS3WHyNFi4kzIxGMvulqhQl0o6CO3Oz3AhogV
YK0qZu3KubCOoZ1eXjwkt+Dr687W4VWDuBbTp5rCdXXHYigloq8oY0jvcrRbg3/f
QpY1YhEHKcWR4FrVz5C1Z6XZxLjSN5AokPbL92EhagAL9By96EBOIYOvQRj0/ofT
NEjWOxVSfUsWLAdcIWfqcPM8kZX80dywwN2UCk2hgjx/2stiiKNzArzIw2cPOJrL
w3u3bkD1HVy+s4Hfz9a8CyoNerJNoxZsJYUTaCKF4WIoJjcw6gfTa2LAmLTtzzR6
kOIAUFre+Fsve+utw7zo1L14kiD9LWZMJOPAmeTpP2rp5TOWszPv3HjS89BGvZ3l
wLLvc5x8RPGBerf9bVaN33gpHp8bLKpuzcSi49+eCgNAuDo4XBWYdTBdQyW0UI6M
d6kF5juyFAYmw0qywmE6kkRw8TRxwwKfsWGXWesup2cfPe7+kyjhNae9vneWFnVq
jzfd4bg05bU/PDqCD9J6ltgVlUC2rgwlawfA1wdLTe6EXJTiVvhTNfRVzusS2uro
z6cSOVB8YRgOLp9GDXaqFrMK079y4iMVqwFeFqoa2ubRq+bREUR8hOkww6bHrgEX
6gmEyBxcFYEzUt7C9sLL8C7GsoGYQIixjoxxY4rYUeS4anTrOQimj1ElJHXJh1Dg
mx+3IAi48uIrPIYoE+Fp6Pd9xYhxdF3tBWAQsaa01+ydrt263QHDc+MDzSi7UsTb
LhN910NxLBx8WIYiOiqj8uCtC0HxIWqjgpPOEYa04k2wKS6tXDfxDzZkxcOWzEE4
Wh3tdf5RCXumyBR2GYpRvG/9iagGoOn+NVXQFCRjhSeev6mAH9x3aKyC2vpDeCAb
B4ZtaGZqvrNewAeWtABZHSoo6C11lnSxbooYEYB4DjC7JNpwy1bnD1Ipqca3RO9j
OSdJqq8og6NorjHAJ8UYKuWWjWt3/oZcRQi4aSjuo4ugm+edXMSjjESY8TVBd9Uo
kjbV+N9itl7ByQ748QIcLqISHCKA+JeWN9qJ/mWb000WVFs9kDYKGPlaYEjvPyfs
m82YoIKuWTH4caPhi9U2aj4vkWIIWwUP6o9Wj2s76T28Nkm4fblGXZ7O4eIIQgP9
cKqUbwSuBCjE6NKzIZteueoDmQWb0O0Cq6Co2yRf2krrpBXWmJn2MMWTE3Vsvm3S
fjgnWNuWZHiXRdJS9GIv/RZ3AmB0L7DXNnmiFNA0oxghP4vTLIJR3Ut3tLkWp5oq
xz2qzFU7h76psltXnx6OmoPPRUKLilVySJDOjAsOE39ebCdYFUxAZG2K3CpNF7Sv
v7X0gan6L47H7b8WF07uzLGk4DD4BMjZmNMElSAt1yQ9adlG6u5fVSy59vDv40WN
UalEzKUZenj+ANPsfM6sB5C+ZxY1fwgS7zwWGkftRuVzsNxTiogjIt06H7NGquxn
WniUlVWpCQq/ofRPlDWEsjuweBHpwIBGi/90/xIge3JcLG/lCEP4skTZ1DLK3/Tr
yI9hxOjn97jSbZekJl959krUITjafg3apNT6brywTy4kIgBbkzB80hdkkqlNbPK6
ORCU1o+IuA+aTS1j6W/oIktvf/cN9tj3Vnv4g9PIbrR09j7/Xq0bjyPNXYWPGYiK
anNQ6PYdg8gnGQzvYetFb1QMZBy8J/KsgJGAMPcaTLoEyhNvUhp/8gzx9FLXkKlo
W5J03kkAaCxhlJcnmg/ak27VxXe5a47FiiP0YLcw2BFIEpcLwaafIei9U3nX9hZK
Va9spIO3+R75I61uCdRjJaJmXDY9XOVmBkNF7Y9ry2k6EA1qi3c2VR2vovtZ4jT2
q2BAPAPdtXSheKQ6AZ6Ey4KHkhsguw8GcMXj6j8nr/i2sc74wUyFfy2p24CdvLzJ
61aL4hEKQtEvhNeNANbbYAGHE5FHEiQeCInkmT96Yg9cx2OQEUTmSX+eYHyHNkw/
Z4HWE3n2wqPXPuJmp8MhRgRsIgu25PBdpXj92cxVRb9AmFPAeVprbgvkiaY0I5TU
5+MIfxuvG+7ucDn3IGvNLfHQrz/x/nqAujVQ8G1cen3nUmli1RfFdSfTURvRFGhO
YGU4DFsKctlIZXirChoQMHFY89q3VB3M2Cb7uQnavMuKCzBCxy+yxVs8csKM8Tld
dDbM3i4ZMhhGFhM2RLzqaYD8+rmiXqonCZVZt5S0sFB9RthFip96dshSyTBt/s8h
zquqbTJ3/WwXP/vQAcCjgcuRpV8aoFpK3sTVOOHC8lL7sL/VhlvBDecnZIc3Q19Y
UewJpDvzq1I45d/bq2n3NzqTgPdGzoEfmsQ7gUXn0aX+fbB9NAhFrU3Da+JhcuHg
Y5CUYsFNk53vTwEthD4wiZItHTI09EjVYLM+58WQtyvcwZlDkzcCbsgQTiwF0OHt
5F/zfk06Owl6s7cvhJc/9bn0fTy6omnRvqsTvpQqo+U47t5T6KYbNbpkOPF+5s55
Q0JPxrqC731J8Pyt11NqcPZRPTR6gOfsyPCU9j0yEJNISD5IEmoBUSFU3zZ23rnZ
7lZNb5m81alAdjbuQFZUCcWSaq1hxO/5RcnnjTPXGd+TL5P/uQ3pJJ5V8Z7r7UEO
Mv7cwsaXoYY3sqkUdPMSTswqvD1b4WgDNmRWl+40bbwKw7Db2H1KtPeb9eff69ab
E3JVAU8Tjn9kkDmN5uvdpLui0fdCZgKGZ6UQ48ZvpQotcE2lrAfdAYDzCkQWE8Kw
Bo37ADyHfLGN9qtEwNgsAISzqqMoqxE4eHCodxvpv6nMQQB29s4AN4DaQZZBp3vu
y8jFijMwtsRAPzjkiNNuSx2EtfeCogKOmTO9kyYmBwI800dX6Q7+hBJ6d5k61Bqo
LXI7vvYSNM1sGtZDAJNhYdKLXEJlIRWMtpPcOS8y9W4RjhJwf0mr9dKTPa2cRSpe
62TB7eT6i3hVFiHo7at4YxWmk8z45Y1zVnJZVNlPZI8k3wuOPkAj6Ing7VZQ1fsb
jgo3+2sGWqNFwfUixq8eW/5stV2yi4D/Pnjb8dRpLWxEeVd/vbmdb/dyCHYrGHag
oppLJ6XM8d9M9WNUSIiJcIMfibpSwB6TQIKh3AaV503alJs2vGElS9GZBrfw/zRi
sT79qFeU05Mv6xjCEeHyZHO26z2Mzp0jEatGfGxuKT0g6JEzXVt5MfVk2db3DrFz
DDFz1VFTp4EVqmL6eE4PTNXszfrRvN79Q8x0Vcc9l0l1cuL9io9LIbgFJnpEgwk6
4qeTWw8NHbjv402IPN2a43nUxyu60PGytWTQl8NBaL5txMo54+o9v3U5Qt3x/Lk/
U5cEuW/SVJLC/N8J0u8rXpho87r+jApCSiz2mwJ/zM+RtfTUXFLX5hHEtJ13lT4A
6zEnxCg+HUzAvouRpzh5jG5d3E+clF2Ar3HbqCmePe3CRO3QsQYAY8rK6vY31FtM
RwYj/84L/NGTkRgXEjIvkoqls5rX8Wc5J5Gv//DhlpnmJFfmb1mp/j8PBupCezx5
oyYwFtXgkTbregEFT7OqIPTFlGW0/90qsqh1NHSOhVRpeoEiFWAnPXSXj1e2VE+R
XN3yKXPNdqIKeW022zJMZTqZfXPKkTeuXUmZ9MR0sR6WakIAJD7Ap6LpNaCDJ9E2
FJEhYoJi+lxfUgh8BVOvjTdpFu1+OMs0ndKPBfXQ27pKwFpKyH52tx0+hx/gfQ3C
867iYqwNG3YpcTOKOpcIV73nJJlktzovYH8Mu0FZFirRkGH3/55j+77Ep5oRfR1w
hpjAUKnz3R0j9F9F3uGszAQYuhTnX56qXybcWaH6rME2NVgGCFBCECNxZflqFJN2
8fexnQMnf04OaS/tLWg6urjfdtSCkTWuDY8wqakB/ctGK6m/qQm1aVRBA0ZDGmYX
BsBhntbJPiYXx+0RcI97iJdalyTVFGo16/wSDcpglmmndtofMz9DBbkLFbZd4xtK
dRXbKcjzmM6XQQEoGcKK8XTPFewLFc2vouPb1aJR6OQuh5zaTJ9EnWZPq4eBF9Im
DJ9zb7bLiSbzqbjXiuCwKiSaceQqpvCu6skPLBgCXVp4mO0lrsaF+9NZ91I016iy
cd5RckbtWmNBG0EN9gU9AW+Si6dpFiDNRmnZKzUMVqT4k7F4Ij0G2D1Ibl2IMPgX
JPQcCQR6D1FDphbLmDT4cXJ/OdVrjjd4rGEu/dqZKAQGdY1lQ5TPBNdtvAVWjssN
iLvP0X/KcwtKttnY8YUfb3p0ybGmZct5Bc28vJvadrAswlnXGfJbO+qKf5rBc8MH
0nPEmoS9GnZQvC1xlLMShYjdX+dSUX4lRQrPegc4+NxRluPXGkpf+fDdYFnp3FpG
pgCqaSEtVnoYMzASR9XhZRbLt/YZL03NfnJUjCf2L3lVIwXdvT5r+EyzAlFkzp2N
SZ8vTDG6r2JDRYDrZShdp0WXSq30U5impzBVGY1Gxstw/9o1g6IFoEGZsLAKJkSu
E3YN5f+F2wRRSUJZogm8djS8KbBteWD41ahR0SKDbv2S1nHREUtZ+iJYkoPwGy6G
bAJzzRgkR9Ya8HmPaJsqbVhef5M4ymeO8ApjmoSLRb58Q55+HpTBziFBENfpKrUI
ShVqzp5Ngc/u25oxX4+s8ZKPM63CZL6jwizVP5KNQVZ1S2Z6+1O6hSykRN4xqiG9
gt/EzdBgQnx1kdCbJLQZYllnxJRWGP7rY7TaoVWq+rcR2KPa/4TN56lFmZ2y90Zr
qPkpvyOFDCZHGof7OOfgFdc7y3VvrHz9mMcIpatNStvxDGnVvGZteZ44vRLNtw6u
kdGgd877uPvxFBZwuddXueYxjFo38D5mcq7XIHblbymnOBd2ZTqx87z57WtpHR0n
d7G9cGpLqpd7/QZTueKPSXGwCHFdyZh1usIY+YZkHhCd/jppDlN8R4El097/XKwo
hwEy3IpWwg2WcSPBLojO1W/qIdJ6slZNNL9eGuJb9m2t7/It+DH8HXJteL/eYczh
I803mTItmYUJ37gax78Hs7QFS9RcSTCBCmCrbb4XBwLFrHM1RQNHAb61TCLfJvne
dP5ibXEBxOuL3hLe75JSQ6WTDhupMmPzMXoxcQe6XRjw4jZoFJzW0zfuTsZuJxCO
GrrlppoM/XELJW5nb5WKtv4z70RG31BCqOwniUguI8EluXR9rCsR+qor9F6ltk8d
ts71WmCb+I1i9keA02Ji5sBnyHaVwGe5Nr5IwXK4n9MImRJS28+prXBqkwUCT8FP
7DsPuvnQaxV23erzd5TA0tJAUsX0cclvJGMVf1kOJSg6fXXI0qjRTr2ourM0QkTs
Dm8AiD/OE4qMNFTfuHOMoQFedYVpQqaqmvHYpDz98PdAccvrkn8eipPBVzr2a7Pl
gIQu7xixOXicfXPsKXM5gnjrA7LItzv5Dnb8NdwnbVhQdalMOjCSMSInIB54biZM
rm0SoljXHpbz1axXO3S+koQG/BVKZRTVj/jkZ147p3kXNMCUORqFNx2p6rXQzpAn
RWBS8hg8MTY0Pop6V2oCJTUNgPz9tfBajTPbJT+lOFF2ib9q6wL2AeBsWYoZm4zB
0Uhw6bdj+8PUsRVJn0vmvib9wt5vCVc6J82OhYRBq08nSY0t7fIII4zP2JVHPx21
E+XFHzwQyUIw+2ic2lGVpBN1HacY3tNUzUH8WDER0qfWdNWSCgs+PZcSkbZSCYCJ
uIFOQbiwQWllOZRo9fm6UoR+J6UpIAqi+8l7nVrM43Hp9F3Ow0NVzd1JNZIxiuWy
EEhSdMzu4nKFfrcq05MP/5qT8zOW5DZ/LvLshIdfR5Jm/wgm4hEcQVUP7IOPSBkJ
6VqK05QEXBB4Us5r/bDS4pzc07YDSytioA0SiGByCFRx9orcwsRDz5LH8gBrpzO+
cvUntFSxtlsKaZTmw31OHvqJNkcE6y523xKHimvUCSdj51hA/VDc8geMoTl2mJ8U
eMYTeC5P1Mh+s/oT6OTs8Ox4WCKLjo6r9AQajunRRvP9EU38GRbpFtTSaskzeFU9
SlWY1m+GqnmSa44sNQ5ggGW2+4zXcMAvowggccn2g/8mZAD2uJlvtbSJKeWibxam
ak88dQOTQgFwJXubfmo+Pehhq5fvpa6/NoGoQ+LZ5kC1XVp1Jj6yRYao3uMMcvOA
sFTNYP+2AXrEGWVcBZT3mRZ2oUbYF7T3vpVgaGj1si1ii62qRrtVX+pKhTat906l
1Kv4eK4DScaSb+GEq6ONDqiyMYedLUHrgxWIK1El9nh433awUrj+L1ma7OjQRlI9
uZCa62qZvj+6GDQmxEzCZs0rgVDF2BSa3/SPnB5H0+RdnmWESdAcqWai9e/oHaXn
iXWj3glNh0SFC5+RkS74yK15cgXpOJ5vIw2AsJMHL+4FKewdEmpOMjzXyiOkXUgK
42L6SlEeqqXZYRv+lAc4v4QNCWja+T0y18wH2sYJ341raMVqFsq4BKPZirJUaiZD
C0E1ruxgGjYmQVLqooHe5D+BUQYhCJhbQn7LVrKK2AYcHfm1XL3aYM2rLJ2dgSfy
gdUROYdCK00ZhQgYOHJ9E0HH4bS/cu4hs6UL8knjwG9Q+zopVUq4XdlRy+0cULt8
56CvmtvU+SBBWibYnUVIF+ODneFEVjALr5jbv/6M5o5YotyVvUfnLwADumffFrTs
W3MvorJXd1+W2H8J8iPQul3FynATbblN73+d/jrr2RUXuRt9TVvBoY29zQLZGqLd
FSxWNkHSXde4lCvr2JZbGJy6097WhKExlhCUfItN3LnFu+PAUGyarOeIcZCJE+nO
g9SH1W7On6IASDCetwwZg+eMAixc0SZ5vxeh8b++lZwYLouwJ8ThMKl82UR+KQ7e
REtQDxfUCh/jLYLE+7CzLZdB8fmuU9QN9WCEmsIhb+saPQLImhtBeRYXMJSEO9JW
fwqL01YfYYKNrl9RaEMPr63Rgu72Z7F2tawhhI675oLnzmVeb2DTAhrNTcxuuqco
QdtA9EBO8MRFS9SYh5/Sc5GVEDImUZsuB5DHJPuMzPzW8B2WDj+27p2YYHRcMDIy
P5nHj678/TnddDmir83rBmzrL+F7zTV5DtPP8AxeHtgpxsZ1YGa9jcsWDKJPJGln
iIfmGbubPHt5sfp1Ur/PIOAd+tYubX4Zj01D8J0pfcBZFWT0Of0s8lb6s9oxF0f+
B6uMkf34s3Rvsy43/RGNWFkqv1veR8ubGspNOFG9Y62/b8ETcM8B3GYkTgtjVuhd
2eE9il2QTQ8OhLU22Kv3xobyYDeiyNlNtEdzOKzuDXyIDL+0lWOIZwwBDgQH27/I
SDSKP9o8oCwpJu8zSSEbRisR3BaVLoX2/sg0SKY7GVpUxSkzZoIrU64McftsBx+W
XnwLsuKUTfFz/lTrt8xBMYX1Ezxxvoq3tdk7iGm/rrV9F1DkOchqj3YQ+f+4dKLX
VK9zo/LNLI4HmbsKMBLWZYrclFEtgxK32Jf/u9Ny1enLAYcJ2DzgSHGpwyzGFGlh
GgCGxo96G1mlUBF9MDysyn/Rf7aWEN2i0q7+Nf8Gwx+nsgzNfJbKc+Cr+gM/rfWx
wT6eWe724C49Gg4b1q3neOEX7/+mK5PAB6FASROtj51vPXdDE42Z359S9lAvvBUN
Ndji7m5jZ+TiENbsdO4QLQeE3JPwv3cZx108atNDWEPe04Nm9prEJxv7a1wK1wEc
4IvxdaI6nqsIN8vnctJ47Pg4WxXQ+pgn5cVsHLQRfkmcsU+xxTCzIBI2B+/HR2gl
tApKBeqj+B1B3iYCX4RWSezZF0r4gvsw7HJ654sWWvsGifg9mvU9GepJwVeMVXFB
boAOVxKU7OjNaQo2CSaDMN+ANI5QSgcbvkkJOM2exUiay3AhmmxfTuRogj4G8vKD
LC25Tgx5/ZwplhA4Lk2xieP4vmxE4SDE75Ih7SrqzZ31LPp7/ZZ/ovsg7tzkMgot
ydaF3IO0FQG3fRYenmgXmPwcSjJFlPrrcmjxbr9d9okyxqK4cxplafKsH0eyOsrN
kmpCOw+tIEPx2Vh1gbgwfVEhl3AjGBaieo40N78k8VYhIvfWC9Ra8tZyUyJvO1iZ
DET6EoOulBBfqC1HXAjQMfJh91yQfGfycGq0Ti4Wl86FnTKwPaInaBNpyYwonvOh
EV18bkkKXZSRYb/omcYcNGSF2nFvTA5DyjlisbsZA6adUa1dNYT3vQ1SLV2zjmH5
7KZEiVkems4K4yLQzMn7lAS9oFFYwC3J8Ci2S+xX6iLGYQiKLKy0EwfdwPg+tEAh
lHqtxm4U9EqPRvWyueDU07FCOA+0u9JsS79zNUSn6b49WMgkv8hK3II0a8ILPMka
EYI/dciXV+QPqqnlnRyNXgmwkz99jli8wGdMql6PlRn/GelXIfB7ySrTv7VqfgAC
omWB6YkzT0LGmSz88zFgM1B5oYsPjcsp85nwqvbiTKf8Drg+BN04rbbJjFUxQrVD
PTYZr+kL8nUzsG700gz4u6qAPHi8vzP39Egntxtpk2ifXryYgd0TIvi8AjHyUF0a
yfnn4cBO+ReWDN2sq9ai3jpnaz+tRc+HXM3o1FxX7pMWWzYFUQTVfxa0Aed1ITED
Hr57XCyGBoJF9Id+pWq/SaMbDFYLS4HBrDyHV1BbZmcvAQ3tkSVY16tzVlKxwdry
hBGHKJLSIYf7UKGf+UjNxPjaon9lPPI9MkM7FVPdyoYugBSmeQlqqcvH/by3ufYw
yHRINALcmr9gTrtjswHa9ft2WGWEmYFWsAKnpyqWy/0cJEgCcTaUm5yEG4MeOZ9H
WJrFRqLJRd8InVtiO42jxUB+BCDihDx3F1gbFi0/L0Js0DKSrc7K2yqU85wxGGGl
CQ75jVQskouJeMlGxjowbU49FjVyf4LQ8BG9RxNw8BacsEnSW8gc3ilwJy9HYLKr
K94qBqv2poB76zb0Fn/hYqRDKiEQcGEWBRx/wbWYXp8wcnrUQKeggpG1vAqJRua1
1sLWDfFeKB+He5kt4KIix40rjANqZACfgzssLiH/WvvaeXDWyhP49VmnxWWQJlJd
UUw3Gyw7yrWqyzB6/TW621r88qNDHCkhZ+Mc5fdVEUhWdhpV340c+AMH0TT663nW
Db7nfo5PBGKX1bVhDBEdZpjzPpAqxpCVvddTiwXOak4IlfReaajy3ywhUL2BN46E
oILJHjIqrGr46pftGa1rgyJBWsAq3ZqssOPkswWk92gQylNCq5E7j+EkFQb8rMe2
r/c6nK8x7txlzjJ/g86ydNLc3Id0/Ypf15wi9rORUXKySWnJkxWttxzJPt20lZjZ
A8BibvmAZfrx0kDYXR/IryGjQwQqqeB9TqW1X4zJ3jUv94rS4LsWXesVKXiklBhW
PIpkIpANdtpFC8F+uQIB6buiP4Z90tof5NwXdtdRikP9scoW3mytANSn9TjZCWmo
XpIvtE6KO05CMbX2kdcXkv6FA7J6bimQDFe/a0FE6/w4GOxTGdaUcJM6dH6v/k6i
FF8mYfHg5pWtd3a4xKdjtvVf+RAlXs4dvMOWv5SSav99qaTpKqbJw6Jx/tE6hRJC
My2hKtbahuFxVz2zzV2denC2+7zJGKRrmdxtQAEqmht8yz8CGKZy8V6uyWoSBbTZ
iYWJVLNP4VkMGZ9QXGDJHsDa+7uQ+07pT9VrIjHN+K/NPZVNxWjxmRGjtmeUkemU
iF96Qws+xwd0lNb7M8m1O/dUwfhUK3VmoYCSoejC1ggSWiNVMiyfZYfipGCvT/+r
gueiHy7QDEpTbdEIzUONGuKZDdzNRqFShVZVErdfHzsiXtf1wxidxIuY4arAjYi9
JuyTAWPNkjsdlLMmxvpd0nVH7TJ1wlc6o2nAuhyvyBODz2wPJjGojxNMIjYScEU5
TBRs+P03ijNGwLCUAlVSjW27d9pFkCtznXzFG0Kl9zCeYtjrDZf4+YXFZN3LAcPo
eD4ADbfW0SNN33kcpCI/88ejlowpYiFs64bkwGX8SpyU4+37zSw75+Qh/8jNWy5i
IDM87iMSGVdEvzyl6sDVc5Wt0m70VdEqpTjLGeidEABcoHH5IylVxz5mRy48h5Ik
7swdBD4KsqGg+9JNwJYlWNdX3dRoauaIrpA98tLN19vbooycoqPPqQy6EKKcvdBI
skudncEm9cVFVSwpNSZFMMfL5YDNBom0BpORHqSWb3o0cSS0+j6fyvBy30+P+fKC
YhyT2+W8bYsYV2zEVvLLks8hOxbtIB9+1tThTzwKkzLrkxbKk4w0PdKyGXbi+V8J
A0I0nLW2HfYdGxqv38a98uG82sgCojVB+elR3PgIA7gVhb53UlQhNgD4yFMl+7av
XfGhZaXyibtPvsqJ9TN0MwYZWPSZfQZoUbzxnGmm1OPFUep+mZJwwJp9u13/8T2c
1jRHGVxLiAhZwYsPFOORx3r/ZrTAm+O1T+zZ156RfIXF+v7Y7Fi3C7hTD6a/UDJd
wGYA3dzYcbNp501NbSJLlnmox2EzQMuL8jHb6tncmUqW0GgoKIgFWLJH9FkxhynU
J+M3Z0fZbb0B1tKIY+4dukNkyeO0Io5s+J7spRs1Jr9zMepIvgHk1KaLd1jJUpB9
sWwdrZLgdsgJH9gxZ4MWSt0OaaLzMl9pU7akItMr1d5OxnKifimTeSjUOqcpaIsy
63vqTxb5Rk5WK4xPQFJjaxqh06pk2perm+6JmIiJodjNZqKYY/oAyo+Y14hZwPO1
EHZz9zgkgBSrPGLwzKqsU9FJijMheJN8ZAroQ7VEwomdb96bwg8HKTg9ynBT7Fk0
gQIhmzDyk2rziDvLzx7gef9r8p3hQWCJb1LLuOl99kAirwk5voblGXtk4KLz0kfF
MIt7zsi4sA6Zk9WTV0TAMel/8p14ToAOV86M/Kqjnp/vez9+0k74hsV7ZAdCLbWL
k5WDNq73u/tyzaLjTQYYWeOFZkwHldato9w9pAJ+DGqe5xkRVlXM/ATx2J0+sgsM
jqedbVA1fhL3aau9/mHsGqdamVgl1EfFsSSzKnE8r/clipPYQQgbYi5NIXT9eajh
i7L22LvziR6dwd1LsPgDFTI/TeB7pG/LGWnvVUwDiXKoLKroa2nV43a01fePpFVs
kkycF3kz4mYSRbBBZd16phFGWo1wspXbhVUEYflba3LY0QrWeDL9iK2/6jt+CVRR
u9yOoC+YKpn8EnDmCJR6NVLvcw+28wVatyCAhXskaOE/x0ZBr8Hom1cgSkAcG3WU
gd/ckO5ygER7NdOtEaLWUGjU8oHHrAWFI75hXFxSjRF6h3+rgIc5Wwt1uZs8rbgg
2ZrV+mvS44YRNmM8OWWLyWI9izloru+tdOgPgxucotcled8Ieyhj2wXDatOXN/dR
+ge17hZ3Su6AQpylO7030Cohw6uAJkRLL7R5l9q4ng5L0X80qr9pf8EKZIQzyEJK
8+TuWSI6pPSo/58fZzy9ZwN97Rn1qRf4FgubxMrkxlr+KI7gMBxoPX7f97NNriHI
8XKgnQjciZzQ6zls/gEC57wZ8eEyE2m8h7kGuRVN9j2G/98Ct+xqhkC7uisq+53D
9320j/xrSHHSEXVBu7aS5v7SZzswVG2EwzgT1NEAM7SzA5gDMIo2+EX8JokMff0B
iAYGcHILRPnYp6/745oqguDXNgxTceFotATaCFZbPl2hW3WLfJbIYn2ztUjvFxgl
NPg1qp0VQ3JeF2jggMgBL5PWbdhMUdpY87KIwj0r3oQ0+zG1bMVf0xNA7YuDc7v9
o4NCJoAnt/E7K34Mj4/gTzYStd6V3Zei71dFsgkxveSjxNx+poVNdtSgnIgdYIDR
by2mK8W6cOkEtCZkgJgmGdDIz7NfW9J3d3yfsjNH49ETg/rxNaU0lx9lCrAgY6SX
pBhp9/EuaAg6Y+31f78QbBPnBw3PIaW1vLbTJTTqcmCoKjTEqcG8IxgaTZt9GXAs
YKlB7KahgcdtxS9YmldpMt4T/fjSM/b8fX71SFuNvlcosqAm+/V9xxU1qJBGINl9
ej3sbkgaAfWwif+h4umgud9W6HChbfQwp2p9QgZe+BSC106Bi/9lhiugcOjnrgd4
KlZa45Jx6s169foYRXPybN/UK0hOmbi7F7jVYFNbyasGjfezuuppC5CCIrBlviCQ
md276Ip/LAqffuhHx3XNdVZ/4i3+CuQ3fwk+hbEG9L/SNToIIj/FO+2DtSokptc2
Obz3LuuIwXPb0pYDk7Z/PdPI+Al23VXhfUDcz5K3n3zhTCymH64gJgE8b2tN13Rg
ttkmxAKelnRd7nHYXx4ceMUjM93hRatLeTWcVC7zHUuW0xy3UP4UEZWYnQ3a0qlp
GTTmX6VjTY28ZlsqL2j0SXfts41Sfb1XGY9fPBFtWCVxNOGTOwqw9SyziJx5Al2e
v3ioMUcGplR2/F8HsnXV3yIr+Qqgd8Cnxp71vi+AIHDzEK1BH7XDYCpxBpZG9gpM
o1id0pkowMap4fRd3/QFWhdqwVFcejNWzn/ji0lB9PlFarQm+uxCxbsBwETVTUC+
xKa5oifGMncyj0q+CDPnicriUdno4orkcD/ysPNvMeM13O8pjJK+VC9xTiIib8sF
3uaZ/o+0YuiTjfTGKElOo8+bkjeiVPpgSlNT8NteLA9ShQoC3CRxXE95SeD71RzM
gE87EQsWzWbxYFTWAMDgD40ra424YOpjRGcfVzt09swGVJ0Ah12orw/1M3zI/O5N
5QYPBcfEHWZxJ1m7mfuArdHTcFe1a3ixX9qnTQtAfutSMcvfmgyzXuhIIOxEOjKz
5JZYc1rP6RDoHM38UnKQM4EPj/ZUD2TBjquPARkVXD0KjQR3Aq17WaRkc5Cv1Nfg
6Prm+otJr7/y2CYs5EI2KPecjlD9QZc8GAYMBE48jF4RrQJKuv8qefDwTiH++xyw
00UYIe1qwkXROARMcbdiuoyhTe6tXoM1L37ua3bJdUJOiWgmaW9GoyspSHOfqSBm
SEfX/7DHaqQnd2GK4LObX3SPyZVYaqoCx/htK/OowEpa1Xn1NxsQ3Nsb63Sz0cWB
k0sTNEIc0R/MxqyOK8zD3bPi+Buax9hxPwd6WfZ8Tm/9sktVs8ZSTq5nCaWl6a6c
LKpsmknXFdYHfeaHlswDF8RXPL/UXJMtZbIvlvoinTHJxACF8axhPAoqyhJl1byn
HpMkHdkp97f5FX8jFhFbz1c7lPwDTnYEKg4V2NsaDTHUBCyY0JP7DTW3GBU3zGnN
Fz6RXkIhnb7H7IDKlCmnk7fDJqqksFgyQL2oRJ0LqbYsw3uFiSt9DSMvHlkKIX2e
FSfL0DFPQYQ0qk26hC5MhZkErrve/1Vvw1G+A/5XoBDwmKp78ah5z90I5S/HohXg
2s2cfg2jAA7iPjBXFJo/yl4ugi1GfZAKccS3FST6ou3omCWCDuOY3U6454JIV96M
3v0Xtw5L+gEkDOybnRmdYiwoZl+nukf2ikz3Rz1RV0+r1tgTpUV816OAa3MloEnI
BvXOGzM5Wjv0bhcR7Uiy0bb1yzJVo94r7a9AQ4RKXwO2+l7+goqih5wdDxhHRCm8
aBMzsnMyXpPrsMwAKCffqfb/F6/tQ7g5FjQjCVEQHA1FCHEFx6cDHXBU76jqSrDa
0/bnbjX5SbN4hU414LBVcOON54rXM/1Vx/TSNqkidI6mwP7YTcpes4PUHodNslg4
PdoyOVYH7Y/LW2fnRCEIh7wTkvlTLi7EJuh5VitX8rIE5l80jEu7WM340SVgCW1W
7VeYGBIBHNvJT8U3jN1PHYr/DMELD5kutUq7gaUKtjWU8jKfqCNHz7boZeH2g/Wk
YpIrd+okUJehxaUb7iDA2zMQIsk4wMO3KQDL9SgUYlGLQ3nnCt7+WYCnwtW69Jcn
hstaP48pY3L1Get2E9yrlPYj62svyX0uYXy+4FvnY6HXbrOe/4lkS1R4Pr+mC9o3
XkwC6KW8jQ36bhgWOWVXXJ7Kip6LcvEzdZ5SGBiu773G8x86E0+ow4ovgveqtVQM
ZL8wz7ysr+F/GYK9dTD8WZXPaCwzzCwaB9lpHZr+UvOjECtTDyFQLsSYBGJp+fbV
hVPWhcnQnEVw1z3Y1GVqbLTj+cXkZnTBMeh5cbF93vsK2MA2Rty4fESxwgX73dnF
NlQ1OqT6FOWJBuBhkK2K4+uNL1mJ7eWCidTx3poZt+STteo+8uqY6YZpvt9PFeBK
j/XqkebC7VbmtgbCaKYNwM162yNMucQOVqotAfMbZqzT1kePKdVzCzdlu60U4hCL
IXJ7M0x0d/emi3gaPsHo5vK1tvjYv5JymtI6HHr2M9TxKi1wpTorQa3LJee1XBjl
4W2aS4MXmav8Ut3mUAoOl7iGJnYc3YoyrKxe1tBl4q+WTw5P6CzXdw5olt1HI56S
Ed9VjTjomTni137SORRs1FFDS7SDbHqan8DhNWuNtbb60+VhBHZxYSin6W9ygFzT
pDjJGNQ+jJkPsng14NaQTiY4qnkCFIPOA/wzWYAk7IMXPceZdy559EJ6zdyVD4O0
ZCR3BHTE+WitrXqLs2uTLW/MUpw2yV0SfSC/LCmTyDdRQIiquLCMlXb5qGygkHE1
xooI4q9SHaglrgAlVjj10C5CywuIqtu7Zzl0Rmo3IuaEwIWEnPRG4T1sucU6XN+1
TMUvtnF7rG2ME3MF+4H6dnqpwm9S7vdTlwdhBGK8nQV6TwIwx8aSKtw9rSkmN1K9
HuPKhCldvo3BsNlXpJgEkBYdLHiH+A2ICMaOsXMzO4dRLZnd+gVUAo6+QxXiVnHt
xE/nNwENnuN66jfNt3or+/wBuuSMmsvRPoMBtZW9xcOtLatyy9W4sqJryk6lz3Ir
iTx+SRJlbvz3l1EXEK4su+ItlPrWUXYKkNZlr46aCT6usQtyzWZ3GD4gPmiTLRM2
mPGrbKCmHomP7uVnb4wvGmt01PpBED0vXz++LakhcA5zgg6qhLBpCHATk6G4+NeF
zJ/47YAH4P5M81jN9FcNflJ93gUE78Mw2ETEIIJtIP5fH2aMQvPxhFTP8etdp6Uw
86ynZe2N1QRBpUgFCUtIX7P5kqCuVPWPpwNyhrJBrzMIecv1te/H0M8Qb+PfKfal
6XCGWxgTmOtVVq/e/yBp9RgphUW8wEe4uEBTNDWOLD0cLewxHbFRBNWzKMe/RJdt
J3ybeO3R4capuTlFmYt6iSmzJqFRyAf9ih4C13UeE9ElaINZkEbnCsDTuYVQpTRT
PHBtCOdIfVRdtp3Joykq4amQ0tOswO5pUKef0tnGR7IxomSpRBQjdfN9q3fxHWtJ
dibQ+f24Bds60JUKm4s5p9S6/jVnTqGdgwnCcjj/OTPmgrS8ykSou2OIMQB1G44g
t/ORQ3djwRfNeo9UOkt5KQ868TSZCQ60Jhq7JkUGTNEeOVxrUP0ekYI1hVoGZ438
S4E6vKVWsolslIGkqEuU+1DvJzBu9WpRUSbN2OdAK7z3QY1UX1gmWAUitKHrIhYG
xleEv2un8zQJEEuQaBA8NS7REmoYJxQW0300mD97xXLcil9YxDE0x6YNst9P82Nx
sPgFdOlKvepvbty27mXY4IyeRFYUdDQZSYBXuOgIi3Hnl0NL9zv73xOpowuOCwqI
EMy1Fn7eAnOvdh8PafrjlNidMR6AFbdIfr8bw+I3vSUzlhaaIFFoGASzaTtEE9tQ
1c/4sN5J+2t5UMrHEE0yJytJ2l19FPBQFKJIf2XuDzHVfoTL2L5WKaq77T4tSwvP
zeXdbF+ENJuRacj9HUNqszF7Hh9JBXsVZxutD5yAa5U9RkTmQ6/E4z1MUscvnEA9
T5hLXKRreLaqko5NHgaMj/6dwVlp99JpaGpAwl125TDQNZrTrvnEZN0SnWhZsSEH
Nk0cSj+Saxp3PgnM7f5OTk4IteouIK+wkNIAjtOzaGR7pQlO8/5I51kQW8LWWBgu
/eww23/ipf2fipGpdn2LNnOeuPKbnZI7glL8OTRI9QHM//sflUBHj2zwqmJKTRZm
gXBj8ZJMisxlzrya934oU4FT7ogNVEJ8GVutkuTKXdUZCQeNCmUhz4fon+up8pwu
g15DIOhgjpk1w80ePkC7fga9iGzQMTt5fft2WOchf0q/UcRqM51tdRiWZxpViJHK
KCF5UPzU+Z5e7ersN1JE2F0WMoj9ZpATK4vdHuOVGytJu9wWOQ54ik/1eJmMD0+D
Xk/jPSeYo09c5FhASN/V15m1vyoUdDasnO91iF6NOSeRhEv4eqUX49Q0AJ7MEE9D
JdCSz24PSHc/Wg/w49Crksgqm4uyO9HGrRuoKsAzDirj3JQXbm5TC3K3WoJeXko+
qW62fURJ69Hd3qptkNHmR2iLMFE1sbLZBFBfxaZ7facnJkE5JvGi1x+/YNdRq3nu
atoozy3gNFaIOkWS9NP42gvcpuCif723OtevW+y65Uv27ntLOuEuxxre3eYvSB0z
OF7iv/oiEtUqKUvv/6z9yrECHUlme7ZMTTDTXCNuNgTyPv+pd9bbxbHISGYyNOyJ
lltqUw7a4Q3j2pKtTOKe1CIgC5PupFIMBqZulU7DiJNKbkx6NR9q+A0emU/ddedo
XhwY0iefkRCORxwDfeE1qMLqHcEG84JTenmP3Czb2n/nES2MspZHVEN89iAB0aTa
XHcncsVN7a2vnx6KwBDEh9mbJV6v6CWL4ViXlErEx52AApCgEI6yYYieqMq6JZtd
jCGr8+5hgmAq0rMvOoCaeLJ4Dc9dW3lG3tOZYWCbluV/f7ZG4HEyF7IqSj0eYGuW
ELexrDhDsPs5kJxovrF7RR+YRZpAg+0SkdYybJYOva37r2jONWunbTbu+1DwA3aZ
JbR6pOV3mda3GBHRAFNlWA2Q3cgKdRVNHohSMLiUCDttxFkklgf6bCDfngAfjZmP
Hg5pMKFSTtsUhAssCrv3Fmu5aTffHthCXut2E4m9R0LGvBPqypuvRYDzBhkqR5SF
YOd5vI4vbgWS4JF8NjC7Shg5wnP233QjPaZhVl9iFD/TwqOug3zWnlW6DKTyKx7x
0g4ewxHQDw3ik4KiYdpNobGNkAKB/jijRETEL7qrVrqCvCdXL2EVkzpR2AR1d25o
vw9cjVy4h+8ZA+K25vpU4X70EWkHytFmVJov6JfRhbYBehRNIBfDHVE2kAhmZtAo
h0Tx/BJydrOxmoOEpUTte2cUCsNOJG8Po256SoWZYIcLP5sorbWfN870hEujaMN3
DPoU9tRF20EXOZa518h/AqrlUDg8GwsW2HsNNUYVB/AD+YijfRrRm/agCfb7E6uc
z65TsugeCSiueUYZPzmvWLVJU/wxRDeaq2yj4Sw/ofCsyjn598B8pJJuZAhVvdQ6
UOoM2TXRcZqqerQdXmXTUQOTZwt+p/Sc72Oq3kciRY921oRu41XHjkyDOpnSCXTj
OI1tn7cwMzZKybd+YKdZRZmywwhcrO7Q44RHLrj377IW1iKGejwJovDDRESxtTkI
TWXe5HjB8YApPNvpE5ahsGwKf+eC6mcyS/qu9D7Q4NzE45WUa3WFZprtxQV4Heoc
HPCf+49EuKIKgt2sIaqk5WPEvvdTwnsaQnk0ZmOMj76gQ6HBs51P4UewiXqhLlXW
GdVEXVItXo1XSx3jNKKyeN68/T6od6ZBHHvoOJWEn2vjmJ7cP6yvOMYvCBTp5blb
jOXDgkbjO2yzR1Zub/YNisf3A0CEE5WKwTv16fsrlvobE7eSEs8cPv0tSAFCr6Fw
sRXXOCRmH73fPbNd/R4HGrsCXj4qjMPlcZtct7Oqqno1r9YrP2l88z7CXtFnIfpb
4lSHA4lLcvBjCgGBhR5z/4LTstat0P8cyqcnO9nrwRms04p9zrYlIFKvqLv7IaV8
2pi5dxtEUeptxMBJa/jVHVhjzuJFZGb9Mjo1FwBvD1bpYgcFM4xBRKkQ1XbtcDXv
Mi0/sSJAsvfr7ERmpc/rJwfRlMyySMZY/7/WOTC7xgVIZNMnNVTFPxZpB+0r+MFs
fzLJcKHATp34H8UZ7LsakemlR42BZE0eDmnO+FLYfTBprtWvwkvOQ2tT5eJk1Q3Q
CB3UJKzvmG9sMxX7CHfMZqQ6MIvAPbaKSNeawd9U1U4eOKJP7vfYAilUQflz+IzO
fTYkqt1kCrRLOnJgkxARU3/HTKXt987SfJTFBo5MAkwHM21+O1XTb3NX3MWAob9b
nEHDGsz136k1zB5xFc56tZZgXi+JBhxf2s/pvHz+OgI1vWCp6gpEFvjyScIoTCf3
QCEmfF6oii0de+RtJ0Pc/LRHIcpq7pzhSw08pb/cwChGPCiTmNu6uLcRHtKpi7Lk
t8n7vY8nGjEN5Zn+okYeWNlBm3ZgDbUtGSh82SWuwCZWZSaCZiMS2aTGOzW2ZPwL
W5K6BhPMCe1mmXvPPE51SvF5/PXj2jGlIlesKiLKBGdbZzzhAraVwer4ZiXgMSqG
+waEfYNBPgkX7sj51rrQ7u7m2jXcjIo8IFdCnijxp1KS0yKupETyE42+jPV+09mK
FNCiWWm2eWz6yC3CwysKWMuIq9LAcX7wlcVXmXAUE8L9ZnLFqPdW2b2zj5fdo9Yi
HVGJ60nFoZYpswACqv7VbpDiMtylD47qQShWCkQik6eUokVf7av5d1nz5FaonmcL
PP4tInoQuNW0ASQiqNOu5cMmRnzQkN9AsIzxwF2MlfhOBSS9fR4+BIvOOeHz/zqZ
rnQNK2xBA43jpeccMkoTNGE7/PXNiTww6vONmeTyCVFQh6BHanZzR5gY2yv8uEcV
Y6viH+Uk/ZsvLiD5DM7IZnqR+9i6IGEkpI6OKurlo7MUtFKNVDsKMXj1ESILPcjb
/T81Q1Zk2IhYqHMsIQ/A1IwwZX2jEknNhYypjhrOPMJoj4548f/C10DK+Ur5ICy5
iP7eD1vOdbFxgkYgtxOvxgpSefqQ9yzySDHJXG5K5fqkPsoTYWYz6vOCM/4o+soA
srAGUtQGfQVhodqRqPnWXt7aDE39OnY2/i0hLgiQEia2mEuX8fWStZ3RddMbJrRU
K0H5Xe/CRbbJ/xp6OkUi+vKQIrYVJbR/JznC/IS6GxLOcY5ZKIYM/nlS50f/yERx
QpSI2Qso+h6uq2PJ96a03hQ2bXdAO68IQDfybkHPWynFXCALJzT4r99/k9WsW0M3
yTE4gGjLA4SCreXziSdV7LTqpnYgporGKkNq9D8NufMMgrf9202SeC+W3cBMVgtp
oH6WEoC/EyG1XqGFWN3OllMv1aIDGMe12fvs3BNWDo5CKdwETZNCoZcZF7nzORPy
p/UykEbg/H4zQ5cN3lexKmbOPPR6Ahsy0/sOBZTsVvoWuUsk0MKHuTwT0fwxKwcZ
C2jrPjkE9Xsn+erv0aBi4o3mpPZaOSv/i8mqI/8hZPtXeRd87Cb+tcd06wGKQAuL
Gp4Ohh1YvIR5j0/xMbEtwCgkLOIsKP74eKrMbMcYAtLz1qWVbtXJkD9aEYbvckap
XkBxcaUItn6c4K1posCACK0Ex726DvNSqtf0NpKwnyTbX19oe8emIH23qQwbyjwH
UBxZI9qxUP0WJTOQgKBPReUbdAGaUsT9dup5pXwReuSRUo/vwX55arBoKtvX/z1N
/OTzZ/Xs7HtD25vRFDvX1mmfXqE2p11saTPkk9BxscIHBIlN/JyNOeomzIzzuS1q
B7JNax823abHB4VXwpj6wPn5FoIUHUwlps4/cHyT5QJpzM3aUFFBVlW99bWvw644
43Rd89dCuN75AgRIo5D3V/FXUb4KS5aj5zniaG09QulusTuSHpNGWlsmzVAMIRYK
KqAyO7oJGw1A3HsmQhEzx6P4Z6QgTL7+IzVqnQGmucTAJJnkGtBShnYIGrX8P3YM
KKnrbsU0+OoX5EZrrHLFDsUCInRCEAX8X7j3AJMd1Uj8FbNI+xdOIp/7zOzFIVgj
xzKebvNP1zB76QcGiOGRSIpfd12j+jI4Qgm/L3hCCnKfppiuuA8yKxQeqIIOwPqO
fvVfMro+Y5JtIlgACRhPsv0ka5PDKsEov+2FGtC8PyWyMqxliP2a+YIet7guobkD
CKDOMHImVp72rKR22H4soKuciYPM8xVtvtAuXv4fcMtkemgoCNEXLM2fdAzTjFEr
VjXfiz+9uYmmH+pANkaQONUJxtW5PnNNdU+0pISd/cl1I9KzMpLdmsK74zdY6uCT
6IO7ibJEXrFMVNfKcgXEbH0SB8ch10Of3w16kCWJoiWSn7MrVjZsHLjtr9KOejod
gBjfqR0NnlCpbLjy3n0lO8sdMOZpE6SuS61P2zDpqHSuRXgjYBFRd4s/2T+KaXCM
GKzGg91WOT3sppH6Er5FFI0IZlxbrkOt/wmDd3eZ/48Y1+PVbHXjSz/B/GL9K6ny
ebI2v8MFiD74NlOd4D9Znx/WnQ1Ycf9SGFl/MT5JWFIRqtEmcCschoh05yrbBkjf
ry+gz+2TudVkCEnAF9kP+TB0wLJy3Suy7l/+/uWsexS4H1NfdFV/ezMvggIm2q+t
EyG8EiTKa8sRmns4NKOCdqqjOs8qbkuf8gXe0QcxmVbvcxG2KcAQaNm0RkPNQwfU
fntyuHleqAscV2QlI10IuzwAjy40ZpUcu8VOK7sveMsyeYmNM7wDS/BJ62+sfuNd
QKOKTyalcO7aO3n6XzpJXQvL2/slYOYoCpTEOckTwngvaAajdg1qqfTIi5uu7tA0
cnuVg4UrRpaNRT02+8Fp5R6RAjdf3jUsVRYMGlEtPoFAksjDAuVGEOw3goEeb0dy
dH26t9sMkKODjpUyEkiFRYIN8y3x6IHTiPeKNoYFlu1rVqWubKZFZMjdc7J4+8OT
oVmbq7pv2WTIc+wkA1pfBLKPpGfoV0Fj5kprPQjhWg6XeEbdK0Pejvf09V/d8uxg
BJFVvArQ1m3GmfPMYGNzwDhHqR1wXQYsvQF0pLGnWbEY2vVrg+rlX80DRkGHCWkO
WJldaRW03suGAimtItMcHySSp+3+QG10r6pFw/65P6r49prDCmonE/vi065lDzFj
IXVgqPcyPPp0J/AVAuJ3r6IBc/ZH+Q+ZQm9TPYCssJ1hKEqT1M2gSWpCkWE7FGwB
nwPw/dZmqkUIZW1vTCQeqPikMAxAviGgcyXN8aVTzj019a/g6v61Ay6byINr+m+x
eWKjWE8X/7t0zFYxz4x6QBTInHE4igNIrNXWwiZLAK3xMZhoiqWB30KV5uOx45+2
87KwFbOHpHg3ho9mxPsEMjkbGz0LAXGalV2X5vdIRvif4QFEO82yjyayQ20WRW2D
5T8/Y0x7QK7dDakudPCpiBeQcuvI8aBCtLokWevsvwjDY3KYDwTHLueKfFyOC80S
08keI1NrdNNgPhoHhaNHWGeBAGo14oU7TsO5/72YGoOLomPUepnqMeu2NuKImmRV
44fCstnPOHzQOY4kINKQVlrFBeFnwiC8SgRrmu+jW+X9Nz64nhzlPJTPYI27/FnZ
pONtvBI7SQMFFI6c/dzrGTb0B16OuTzDqmUPU5i5kC3GQ0ZV+u3eLnQT54H4hhoG
kMiW7v3geqxQB0v6HcrqkMriAoNBL9Vd4QBJ1qTnYlwXAkLRk3XVt9h1ncFMWCEl
DaC67sVUWjkFFpAuY66r7DJxHqY303RMelbhGgEsr0vr9Ef3Mye2pg9WOXiRELKU
ZTE3Bi48TJk3L4+jmN5CZvpYOPDqpIxLqDIM8vWlCWZLKS56rAB1UfGYOiMXHHQh
614gWhA2qOqzAa9N6VNRDxsxG4S6mrorMIjafC4rjTfkgN1sVtpv2h5zgfBqiMYd
a5e9E6jMXx4Z8jVORRUNTDKX3aLtd3G8s3LDvvIpHQ6n2fSNvXZd9ueJXGs74+fM
yvO8oK+41B+Qfi7NyeZ04uvQT4LOflyVR2XBeY42lqK5vpl3+0xHCQnCu+YK3n8I
vKJOzHv5lXLD1WeNhEfbq5Q97wRtNUEgKhat7Gq7+sj4DZQRqjAHEXGFg2VH7UHk
+MytZQkUwykC8BKG9YPDecz6FlI3PKJ3ZDRYcvyLBEI0TVRlSi3EEB2UFalICPzj
ceSHE34z8+eHAaQSoGFnl+wKCKxZTfJaLcDc5MdznygXvC3mY2Ja0vmmzxtwSzP5
cZDadIFfnLwulBt+ZaWUMFnS4xM/nubRptuzFjF7qpdTkT6gYr+ymR2FPTaSkiMV
Yg8Djcu6mpWnAFzFgZ9x2YtJZfsL/CqwUq2eHbX26osDXGtSvpFzu2Hyp8nFn+9l
RF/DZCc4bP3L/N5O2tCsvU7Xc+YusuPeLCad9lhe7Yb+582tupQaM8CLXvWyMJYw
qQPR8Nv944NNiBZNm4Zo0ZmPn1pLwEpbWQD+1bb75yyoa/bTTrDxniPgJ17yGiY5
yQMgKDkA3HH92oQz++fYpUQFTStL27nX7YX+7Ua9cCMepTsbBcG0QPE0sTqSsMTh
iR+hzNTL/Cs436pCm4Nl+e25ntMILrpTZ6vkxdBLwkaUMPMfkCT9rOWf7TwdyLAH
PVyL7k5jWvwWkleaz5Sgk0RykMomJysSJWqZHrcT6XGkf4GgeeIQZr1cnTVhXDTU
5D774nj+p61h3k1F+xAQyjORZxsXcVhfn4Zy3psUx4+mUqq/aF1o18iCUWxSnPmI
1unBWp58BH3Sb5XqAEVtCt7P446WF8U9fxmJnsOyNjkUjyPfMbQIjh2qqf+XK83F
WsK4qNDvLc5EGqVHp7UsAshNkq5ZDz2Wo7bcZUCMF2WK1CTHkuc+jjKNeIhejK4z
3IICOGtFECVmtRhyoaWVtsJ6E9+EmMc1qzQrHiQMXR9RQJ5/0DYFbdPR4p2Ewevo
tN1suUT1cXGCt/1nwSz/2tYfRDWArEtpPzssuj809GdL6tp1mGnEjvYXR47IXUzI
bT9nZEf0DIXWis1EN7eMgd2+hvW7XTNg3x0K767uHOpMb/K502xTAH7Gdid4oPad
VSHTmbUusaWPOp51HMD0N+pXsVfHgW489FDIqf1Z4NAfGlGOZddz5jeM4cgAbc8J
YJbybeUDmlguiwYLpkIYF+hSbhNKP8nJCNqQj5adQs59+DC6M1xoobGSZNhE3WFS
1vzECbOEDvLHUTLROCqTWRKdZZLwuAeuKYEFZIfuAiF4rHriyUXP1DPV9aI/wgHs
caAsdu/ZS89MDL4q6nl9nLrMnB25CKB0Ox0Zy7tTW0sConQUD0+0habL5jsDs3Rv
OelgUC75x9vOp+zMOUaxuMf/yi0JEnMF3l052XirtqnSUvi2TegUqlwa8gcxLzyH
+Ct6FIlgdXP2mgnow/kO6XOvc3W3PDHkQJxxnZLbfX9nIMjNMzZvvRfMgmdlweRw
iPpc0u4LlM2B7sP96ChdZMiOA6otBe1Xl/ptpeZNw740OCZFWA3PFAcPZ6D7tlx2
9a+s1KYm2qmj/ZsrLms4Bq1Xh7wofhM5rHIi7ryXdvobKXBXQMGgqOpEvpahNSYf
fAB2j1oRHKvI0dLEOO74CvvPVS42LWtIpIXGyBqTUrNUlLOLdDQAA01dMUqwHSfO
MUMDf63+TfglqETfsV2n+jCt5UGK35Dx238BkCIjBn0mCQguSaRVhKHe2+j8YPAl
vIdvzPqiq8NmfwjFoO3IJOYnH/JJ+9C6LClVbdI2l/tACnnMVHShkIz9HgbOhXyD
MCa4KaLBnqkQbNzubXkF9Fswzsz1zSuoTaIMieYyyZGfOJI4dgN4ZYhm3FOFxoAy
c6wDWIWMME4K0oRec0HUL0OQ0sqwK/yA6w04NhdqIAVMoz1UXqQq4QLWXRtLO/yw
5nK2NrzxJRu8vIoabxQaCSIJZtzYbzcbFiLJxzmvStWRf6Z0NEA+/clKzOP2nO8L
NN8gFCIJH2QrgTViTeqB/Z+0Om9kSLJEqZbbWiA/W2taPoiP2ikeC0rF3jeYElGm
NvR/s9q0Ap88hyqg/jXCD4KsnqvnwWPFIdhZrAizGAJNagB2EvvCtDO8memQLbA3
LR1m5p0VThtLBPLGemKeqPPbfr9ltkEbTnKiu6mY5bpmM+gZMWoXJQLQcDrQmlDc
BiDGTYndP0Vw1vOedI6mFfe8xOwAlCm2Pyqwvxl0tQuV7pDO1qQPES8XNeYfMQfO
2GoLZAc5RwWbyUf7pN7C7Op0NCpyZ2ekhOSDC6epnjSbNA6qN12YOKuWN2bMcxS4
48HmpbgtiYmkhaYjszwJuL9AcUBx0NZIcRKU+Bd/0JGAVnw54IPGj/e9jd9dFi+W
COFi8Em3zBibYX3zI3LnyecuTChoQ9lbkQgzIT8aRJrT9hVxj0p032aejjj3gWln
6vR/wV24LHGsLY+8ZLENhF/NTl6bB7dkut7688DhCsHXc8bytLte1tpCtDnop/l3
1a0wzP9IHWRA3gAILqLBkiOo5Mfqq34bcX7V90zAAtmweNPdGJF6zA7wJdgvV1op
H8jY5Y3LI1EF5U56tMBWYc9HsX3kh9ZmqgoYvr/wOIA7b3WxiQooWDZSGivJYnR7
u+MCfQZFfPZPQLZaAGn4uzA0vJE6ArGe04R9ze+yqMr6nOv5xiJY73v7cW5B2/BC
pPyeoShJ0HaXluHlTrMFBvmjERjs+o5E7qKsOjBBjOVtnuBsXO8u5xvw6RelRQd9
xnlO0+uay9adw6dnx/6NtqJ66NRPeF5Wxid8ioAfyvqnOBsd1dWYhaoQb8akomin
9RExoNyzF0y+9zigDqkOiLf1JeurS1jqhf4pZKMHYTBcMRBepRO1x7PIXLovnfEs
xGcennknjiU/urFIasQ+Q2SWvNtfKjosN91lcvgk7c4oHS01Yq3StZRDNgOG1RPY
ywkUVu0il6X3X67qzQVkqfoAt7Wzf79a5HhboZ2G5FYkYDEwaxfg4h8MkW72ntJL
c7mGDaXXRjq7QzXQQL5Fa9xL6CWou3zWMJA62n26rcZZ3dSP4LR0JeIWoYkgtCNZ
94vAfij3PWf8/Ct2F2s24BhhZj1m92H47sfB90TfDlEP75cB6nDL5Re9bOIKqT2l
jHt3vYXi5eH8Vawk+2yD5elUo2I49J/zLZtktmVZhMOoVUj54oWp+qiFiS4uaqi1
J1UVMuTxEVcU3jyNB0rQcokay+hYF3yTcTO9qfffTpm1AskU2wI6yq0NWwOJMQod
+rfTxxm4gxqVg/2BvVQjEmUjO7a0rt7VdGnAfnOA6jTlo1pv0YJt1dIGbZI1jvWM
mN0J306wWMvXonDteJQtyewsFp2NvMho8WiX8A/+XmXlnH3TGarNj6LXXHlWI+sG
MJfp6uxR2xOuB65jNlaAlY+3PNpspAOCZu7myhKHXYiuh0+7HfwhkhXuw6CHRWnI
4FQKcYZOP85np+61nAT9IAbVqA4eDhaGvSoTdJ1ZS08QoEMAiflyuHT4T8SrAjzG
TN0ipfr4NAjT8k6EBU7m11m2MaR+V4fUxpgfT7Q4LxlHCaNbLlUBtCrha+BYM5FQ
+2ektfKXWCQjHiDSONT473/qM2UBrO7mr7XoQwHm+DV/+kLNH3JI563wV/N3zix4
l2zuMDuDHb24gMxi7adoJowk4IrMv5VyN9rIn792eCIQjd1RgaGSGSGcXEDDjNUY
EchAiwWSyAUyTWdzwcvqAiHD+ZkFFAAMqyOWMzcoiWN4DDvc325rL6We1fc1pGpH
zRVgBCZzBNryYubzBmNztfnsnF9yzWGfpZ0bdUEO79wNvVWpmKqTPWMFx1eo1k93
beTpb9cPaFJI7t19XlxlVIQgfV80Su9Job407Us8rc+yampDjwr9I3bvNeRaLGxK
c7lY6SapLkXaoJGYD3UPRb5T4ZaJkdVNlSqEZcMfU/Gwn+m1JX+aNL57mE1+pilk
Fsj77eJnwwjY773v1P8O0SgR1EE8gllaD9pUJSg8w9QyagxUCcpL2RHv9VatzW2/
FsNNltZ8U2YI6ryt8eXGfGm2UQK3fWn8TP6fs5XXV5obkImXRjCemkZ8ZceJcO0y
fsUx1bVxCHgh3Yg7Vv3o1rlAL7GAObZFNWDtbUet4H+5Unyh0rIX25FAEpGhLnTB
oh48zYXisZDwMX1M2Q2u6l6iVcuvmhtj9w/IBFuKL2u1LBxks9e6RAbdGFqAc1JC
pelfoTMItTKkueW/EBuWs2NL0f99ZBkPZUw+PKvPvL/24pVurJ9L7r06URrXi73H
81SF+KU99dNW/iwFk/zun9cWMImNZfazAKutQ0dXpV37P6bjR4Dxn+GnlGjEvlx5
rSXuZPRTK13jDp+62Jnf6D/DNxXuh8i3EV/8BJhjBNPtrIJwNYaiCNIvad8QB6pW
yrg9zoBUkfxiY7w1tOeuHYCKZFwRM6Q0ZxI8QoIVe3om45jZ4ccbhQFn/pszrR31
uHU43b4qd8/GpMNOJIFJr8OoatqjGS9ZKsYSvX3LzYVK8xum5XC7UnCl+3SmSYxq
rXOiOLpypyufBfP1NkKM3bxd60qV07Qo7iETBIOZFFkwT7MEVEzkAI1408ygxHPh
9AdG+zqqrPzIZsM7SaPqUEgPSadamNYD50VMju+KsBXmg9GzkXLBsIHUw39linxv
QelrhH9j8ujck6Rci/QqFkmvRSLoTIWLPuEXWmkDURQwvXJoEXrBCT6/8ij1ByPs
1no9EfY9va1dMSt/5Szafbji+8VhNT9/QJmQtRPwF4E9tQDZbtB8MeCcC+4gsHDM
XKvLwlDKnw+TKUqL6l7pxR7jc/ir6vlQlOk/YXxG3K5ei7PiLWIjgSRDrqO6lrxM
j8Sqi4DiKD/Ffqvv01lpfIaZFRflVHO+aIoH+bE3pvKebxbSS2Iif2/jhWD1nkMF
VV3xWirGHgo5ZfFU8ynpBMnz7mK/E7nGVTnly/szvEpPefBFB+xGvBFO9kEVhrtu
DhoYLQBePp4do/TDq2E5HRhvi1UsImXvkt5KxCv1BFiJHORgYBn0/D6AuNdCHqMt
13oFos/SUNwiBw9BGGOuDKB6LjLPoZeOFCh6PesWmULM8xQkDWdJ7xhVL8g+iBA5
BJMS6/H5ucxRt3HSKfjbM2yCvKvetswk1m1vfAt71dl7qx9v/l3DcfkiKmsNEQyn
9bGh4xupGBj9ZZ+aF69y/BtRb0tUuO4MFF3OSpcLQtIZYohMktAuNRQ8XDCE/APH
CXH/V9EthTEkz1KiVNEFj83g1K9nnfmVUSUbPiEBHF3qmfbOsBnSZvzJG3oIgwFO
097L8InZpH3f8rnLbpTzqEBw98k0hP5pY78ty8BcnEc/g3a3Uisd8ticMb/pwa3c
0IohJo2SG+lTOllO/+b008rGuqg4gH0ptF9pP1IL0tvr8xnyZ44CvpCbOmqRE2c+
HDfG3CWlXSTGJz8/klGS9+NjlIm2T7qcA5+nghhcdXfGxypqZbC5yzbjb/e33Gqi
t6bDip4y3saslTjvZ/vJKZYihDs522qZNza8dDAHVQqt0svVhu0RQzqy1x5X+L2I
RPD2uccByoTwXosu/81hP5akHkx4YvzuW0+Zgi24HFt3ctxcPPBGOnDizFOMPlGS
kaA/7ipUe57PYCziJYNlva/CVPVBazeI9tPgITPJjv3OU/wDBs2zIESS9lDkX/PF
Ll46WZ9QxrtcBUqhDWanWGvobeFw/2lEIz/3B29i4doPZATg726A6XfsyHq1eqhv
/wjoBpAr4C3denLraR3qG/x6edUkw7olEFlZR8LnM/xctGJTkAdXHNb79rztxzAc
IsBpjym86WF7CPFaORJ9YShj1V6PpA/fHX4brb/GpsPcFi0TNP7ZfVr9q4mLvSmL
Pz6t1MrXZDXUIIjLSGC+4ip5bD3CvGzyj3HulYQo1v+osooVvwlET0YcDW65dta6
v+T91MU+hgnkXyoGxWdVaElaZLFddIRCYpfZQlvtdJU7JEpiA4t8gjben61WEfXv
SjyjJQVo80uDjaoZHIPt2JN4gfwYdIXEJHWx8dftZHSANjynGSXpjPnQ4C+jHNfN
yYKpYxKcpobcry/fbJ8Y5AvaF5lWUJ1z6SfEGkaLE7XKqSi6aj0eulv42agCNCj0
D9Wduiw/fZM2bUcFpnar41ENYUXc/zYyGNpof9c0BWT0uQsvBKwlGpCXzH0fPVBY
95TJSieDIJTfU6A/8RtKPb2av0qezNQt6PuWgvi5DI7Bd0Qh5Vs3wRWQj033+/XS
rmUSJUuiZVsj2O63Fs+aArL6E/nmkLGV4q2s+BY578qsnNo9spFH+78b5iFgGQub
BdogaLn2g5WYYc/m1knmJ/TRMqAzyciF65aL/t24G1sfCtfOMxgsotoUVZDeJ9O6
lhgPY/zMLXuwXhsO9mktgEAZ/Fg3x9qVMaRZEYeWRtbx7uPyWH9pk3hLHO2amLm+
LwWPS5BML/D5Aqwy7YqFfQPOnP7hERtXGJcsNKrV2/X3HiShZf54eG4JFGCOCbFN
Z1CQ/BEuin7EhfILBMQTED+3yrqeX73sZLIn1HVSRTY5kEVpxufkPSZRXfJrIvip
oxd39hQi5jY95HbSljpYIxWn2qGNEVH0NUJYoZEfg3vz0MfEXfuua6hicArVMI8k
lSKpSQbmUlwvfvpqkMYNhn3kjOGfg/uRaexxbeSsaGeMIzsDVbaF4tyMOMFiWLe2
Y+NsB9ywEeFeeKqBFJfDjJ3fvBmWbZHv97HVXuirIWpGvS1Xh8B87QnTNaT7gBw+
ryvffiuV7/weUXgWpBaYf7bVJUyyOa9co+4kjvwtx2GOmKVXRw4ZzufWoq5Z/xy4
PfhfUeN+zpk02laioIidIG8hLMtlzs0Y1ciI6HB7SpKRW3x5XOdlk1SXwNUa7NF8
/FXZCkcRNE3t7I7Ff2KqDKOJnEySoLzNSCAMgsKC3zCAmyUNKPYszXzAhgUmWHL9
RvjBNSshhUYjcr0eo14pSZrtlUpVaCZZckiKV/HARgZW8YMMCsPxsdemilqcaVMd
Zx5I/P1Gi/tlLYm7+0IFj8T/SFy/P0sRicKEsm8SEc79/vED3Pi3Q4ka8RDb6hi7
IJZTw1I7VLcQhrrloSxPp7ggd4dXou6XeRRGNtoLWFe95sDQF9eRCFtPRl1cxDPi
/wYlircFSq4qVRtEKqpGjQ4DipQxpGHmCnV9JKMrkSn9YBVyzWbVuVeDUStF2nnV
L6rf/juc3P3XNUDgZrosQub+4b6EozNxMPpPo8uL+SE8Oc/wEgDOFfVxA2oNcXyH
y1KzCESNTtXhK641A9mHzsLD7NvYPfcgW2+LRl1vfEZAfPjyIW2O7Cb1mvqAt7z5
8Sbby+2iVsOt5qYyBjxi2NHUzxYL/HTGFeANr+cxLsaiTFdzbb+OeOGUQwuaAvJB
8PJZYKFs7CdyP+KzY2SnrqvqIip+YvA/APcFOUfhzd3ROEzkewxnaE75Hgd4u+G9
hQVJImse/5kMhYS6ZCMyvze/HOPk3uipqYr1TsUduUsgaj46TI8tsIwsq27ZJeoy
suwKvp4B9Fhvqzp8XkjpRTrko+5jv7LIqCHjFsgQeZPJQy+/1JE2UE+AVlI+YFJd
UNMsLPiijpsNkPo+oO6DtvSzdl5tAhaI/NzwXpGP9XzsiMzZBSadDrelEXF7Ay2Y
TxgAiyTEu/ae3RxWdClsM7PVaICaNA1E6qoBaDAGwrTOmfk7AAKUQjgeL92BtP7Q
871Sj7EPSjmeyNPjT552kLo8zEpKJECEPqUtXmCzWJfi8Lb5JtliuNsl0tB0IA56
szDdGz0lY4Z0SDsFmxa9kQ3A8aP37FLvRzgu+NtSjlBTfJmXiWSu3//SvMoyaVBS
yPpty7qGsSKXtAz8gAyNX9GdGQT/RKZBoU5BJyNdcKg7w/g0X6/L3R+TagN+0qU4
b2u4ycDVUE7zeSwuM8DaEAW7n0EhBHxHERWeqXfsiL30/2SFgSaRmyAC8SNR/6Ab
qd7ENwO9vk7OmVvOKHNmGdz6H4lWysHYzSdp6yr7Wa+WwUIg3JttOcP9agRRPSHH
FGBIyczmh9D7mTqxRe2/77W73vzs7A4vjcq2+4kXPsR4d6eYgcTgLXTOa5pRSbG2
Max5WuVKaWOfwix/amota9ykchS0k6MuWy6UKxfdfaRf6PqO6IzweMpOFhXRjVy/
yqVzkspns9LaXUzAR1HD4OZPyY2EKIA5aC1y36jQKcS+IBW4SV/ABvsP6ePx7opV
4QbHBdQh1LB8Nz5LB4yl/rBcI9LFrTAv6eXQxoV74lr2/NXkvsuI02f52UzI7N0b
ZXpd3/qcx7Fc+Gclm8H+pgTlPPjWB5ayYpvUGeBzF/kQoYVVu0/bIyaiNTyebxQ+
GyeQuP5SCwWyPmeNG14knZBYQIQQSDj78OJAnU8sN71ytJJqY/1/Rir/HP4BT4qU
7NJckArYQKrNi1/TKRazOvbAXJ4mb8coZAlZlFVBakYUSN335Q1yKTjHpA/CrDT1
4JjYFzUYmfX/tVTtUzYYZyU2i8UtoHK/ZfFR9pzZJTET1BteTsG2mu+gy26uPdnx
lqH6xCWL5oYNC0XsMGi7s2cXhqa4yAQ87bbLFIwsGQ4Q8dy728cPFDY5w2LN9xJ9
JEUN0EeKftFP5ZF/aeqKpCUCSbt4R7WLfL2naYFVq0RstEVGe9uTj0HAUXpy3twp
dVZ3ZkovrOCiCFPKszzM4oTGOVXZyE049sTBgx5RvRjBZPqFhNREn3EfAcisH8kI
Re0PiTfmGW+DmIZZ+JF97Y7Na+TJnT2BczL1t/BeKi7/7Q7vnnBkf3JmDomMhFYI
nTTitmCYr79WrqeEErFo6PecO5AcooW/CY6MtaJo02OQ7vPl1QTkgkCkfq2kp5Yl
SnnPe0LgtkZvhq5dvD8JSYs/n2/f74io+xC9Vx5m0vAP7fnwZI2xDD6EDIZv/zyD
AlbXsIFQg7eJdwFpdCcCSa3xVCRLz89RdhlZB4BvaxTW0A5FWKiMQy1EOhR6EAR0
/KkmRm64m+3gI1AS2xDwqkh/H2z36wxOm3sqNTSO20WnvsLd5k+ycgmW6zKM+a7G
WHxj+rlvJLpzeH8tkJYEEYh2oGQwqh7XT7Nm1akrsLhSgLFrkySi1LXwIi1iN5la
McgmXngC2n0SmBxLLI7s0uC0B/sg3ZgTOrHPgPkcXLI88MKZaLyN+eHc7j5tJ6Wm
KcKbUO3SyXfocWSNdo+wWnM08DgHhsRep1rssJ8gvvTzresVHEaBH1AP/og9Dcbj
pK8P/H5m3g5LaN9ndiMKwXxUeeWJFjP99WjykQLPCKMKBTcw41Kcdl+E5saVEXDf
Wz60M60Tb+TnhftlPa6B0z6Bz11Q0UzRPTZaASm3uJVHYkJBd0cN47vcUor/3pk4
//E9sYhtzukyovN13vU7e2RdgXDbHML4Lr956Vw0IlXc/rMizYZL5DDUaH6ic8Ia
OpftXuvA+nb1GcPKd6JlV+fbum1y71BnEe12EtFzxibLdZC95QbFzDO9WPks4Low
P0kNsRdhW+lbgnHtOE1ZJ2BzzhjrZx7vsMRai/iucoC7xbnXMSHQ88CR09LDxWlr
Pc0F9/4uW9Tf+PuLCI9k3XMUIqeY292OKTJrQf3po0cCOhYtKOodo+CNBpkg9/8V
JoHlIpD2scTq6TADxETOkPrI3PdN9xRvrKr5i5eJigsIyeiXRSmMiWgnBG4Ci/w4
uEgiDGoZbusZZSQGIyr4Dsqo2T42PT9lzAscsOq6sXJD5Bv3I6vEGXUwJv/Exhwi
bqOh2/b7kJlWZqUIjltKQhHVaaBdlrT4Z1E7wUTp/60QIcJESgVxQs7fa370IuH5
sfCdTDwZ0F9KoVSpmOVy1N10+HBPSGFbkZH1LU/R3LFyYERtinzY9SShi9Wsq+2B
CRWnPat0+kxmJcqskvxaMUDksBu9p/Lfj8gY0133m63kI95xPm/qE5WFJpbrEaPV
ms/vYVo+BpAnH/PoCe3gsWZCl4bzMA3lAYQ0Cbjmge1AQdUerrYmgBGEs5fVV0VF
H7KB+COhNoNCFqGQ4WqBC5y3FANWBlKRLMBtXFMm5wynXw3cY4KT13wMMknHke3B
ihM94Zbul2en56i3fpnyuTx9s6X6PlXCUZubUa/UiX2Juykh+umxSuei+qJedgKL
QSGVWujzjhrQxxkHVzDJBvblAyVT+Cwk5FuaT/s4yicJSfWyhjRkYN+2t9kWUfwi
S4Ek7aQ6IVL/56JQuP95HPh3S0Nno7aE1TrqJKV+JBPcuPZCkriZ0Kkb7oDxRNH0
96BEMcLcEY2/Uzd/WaTtrZufsL5Vsnr73EeFUbvV27nFP6c3IEJ4qj7NHTY+HecQ
spO2eB6HRt0zHgD7/Ve1UxaVKBBHJEzyQUEVwiQtYHsal+K/CGpZLLW89GIsbpDt
41ch0YGi7Vc29IWyY0AZPwoF5j2Qeu/PUg1rBIUzRAdujNJXs1X/qapK0blrLfQg
Wr8Ay8X8nZALhZ7zudqXAcV/5YOIqvDFdRokEXfqmVMYlgTCHB1iu1IWG8IkPwFZ
7yG3/D/GDFKGFUGhuuPdPFnssWycAmpkgyA4gAhZGN6Fsm/VUUxeGfhyZ7enKGAV
NysKA5iUtdnDHBGRN8dXTEFBs0zrkhjR91Xxc5bDj/0GJjIx9hqkhFMRRWZP+lul
XH17mIf0p/kQexuDpaTRjQj+CDlYt2kv/lwJa5p16UZCEtIk0+zjv55e0sYvnlOM
uWzYGruWtOayEoZpP/X8GFn9nveDbNainX+3zf/Pi/Tv1+YnblrXrpR+mF5wuVkG
lYNU1QnR3bKhLDpqKR/ERXoJ3RcJKbHnEqei4l2+2Ni53vZ1FjNPyT4B0ANHiPoW
tYWkPsVo2DpuL82A7lxPaaQkUMnNQ+gHb3DJnvOjosrTXRhSUSZYqHW8B3t7k5Hu
rdnUx7X5OMN4i24CgTXg/AucYNMD3TNyvhg/FAvT9bI3vLsetf9tLxjmZSyuIvqP
pzpK/Sseh1GqMBW/FlaKZBUHoYolrdDNl/np/irPv37SCkAEn1F8KWUXMRlIEoAi
NwIXSgskJgN9EZ1VLohXbE4UAN5wkUKg+je2HAU/njlXXtmRfMq+b1JYumX8mXj6
HAO6CMkqBfLopMHiF8UYcyqItIvi1fji2639t8e26T4jbXCN8L1KB5kTyYatwqxl
mJACkFm018jdXdsXUoorDN95BnqZ8xIc1Ig9E+kl3tArGMkxjvhhvs7CBYJgK3Qd
y+nPXeLMPSOs51f2Fl4Ge83hyRSnq4xkXueAxXiAXnMJKnuGeOIBxvqYNVZkmh4Q
FCAxGXyNVj/4oH7UuEsNph7xRjm3qQdNO6NfOvq1j1Weh1LleH1bA/IT9Qoj9Ffr
IBGJQjY4kwDcvxCCIrrSTAC/gEPSoRRwj5LHe9huLP+mBDsgKNfn0EjO7yWgX2mu
RRW/n8tpz3lNal3kPRZ2iNpGOacGJCGIyUswDx2g7NvYsihIsqo8xCuwFI1utBcG
WveARJu0CuzMOdEtAVZW12xQ0BsruldBISYoeAC3a8WtAERi9OtVyVSy9KHAsM90
5kPVsJPMTSN4T0gnaBoSU2qw8br2w7xaWxanPfbiqdYy59JXU3h4BLWOXElrwVyR
rs2F0W7gDCln9K0e3PHEiZVefX/SpKEWkRg7dh36FDuI4Chrkp8pBhbD9fataU1g
cx/lWZi1ZZlPE9mdkMBENVlao7ta/PDSSswXR9ri8eTI35jA/bsyDk2bL1kEYClN
v3sfgVpUZS0Qy3r7hWh/zC19Kmluizq3plwty2NeoIonfyxF0LjBxvF5WlqAGvyn
8WMeUAjh2iv5g/uhmeuvivPLrdUnAHoCzPwMWMrfdPZ9KWHEB6qtHd/XpFVhP6B3
GHx+idf3qrpl+6MN1XvLkvkI2YDqSA2snKtsooVMnV9egz+6MAWO0xeuBCV66dVC
9+VHz6NdYpnhMIC3WSAFL1WJo+pnfc/I54uUFX20hdda/4cZwpvGGohROK3jiNu8
HGPuy2+48cLasg4id3O9RXxBvXtRoen+kvQJp19jI2MQorcRn2ibjD/NQFPfbOSE
BxdMlpQESkhnHBbdD2/X7T8AV6Wt1iK/Y4jr4seMYO9OERjj+4uA8u3m5zrH/aM8
3s3BdGgSWYE7GzmCqMjMOEUJYoikDQ8C4O86q4OGS9oq4enuWTRTOhKzraLxKYvT
6VetVXnaJvixgWLAtMRG/4QgkEz0Vxuha2IdyAsjzPjTl58AKZcPI5Wd6ir+WIjS
2a/PTlXBwojdRYeQo/07/pfpg5Vp/lBe9s7625322keN3gb++xFj6GfuF128/cVr
Sko9LG9I9n2sEy2QXNAbkJOfIwjNbviHlmSUzR0OOMNXB3P0ovXzwuXSEMTflGvB
iCABDn/viFKmx9D/Wfl1ztDC+hfSgInHKLY5/5OsYt3z0+gsRcpbIgpSznPTHxop
UD+1bw8uY5t5Odm31Dv2lJF0A88TLBYQu9lZdr0x5S477OgI/jkfS40B8yg+abc9
DpMHAWCfb6iz20cBs6bwCZColslkoWm9SkGwa8gOAKz9TX4ZIKeSpBCNbz+zfJlZ
Fc7nl1L2Td0kb6S/Bp2l0tTVoadRVl9xwmLfw1JEDr0xpJH3cQDE2pUQHoP3mtbs
knTnE8b8rG3eaDqcJvcR+Cr3xC/ociTwPQNUVaY/A9VKGkuyyUQRbgUXLTkkEEo+
pz7CHNYJi2p2HcQFHMld2Ta/HND3hFKg4BH2mLHH7ZKPO5ToJxfMp+F6tg39kTZP
p3erGIjKbVKVZdLN96drkoWI6q/Z4n2lFrWGZ5+ndfpJ9vY61WZdVC62MDfv883j
fWXz4BkrCVzNv0DwkuSWCi0p4DcaSsMzKxJdHA20SotBzDVqkqWpXQW6Wp/rfAv8
Xo9gBy+3l/mx5/Av3AgAkOFfQ9w4P0P2q3h7eJOnVUgEzdaYk6PIdpyKGJQ1ooDj
DEXAywM4tbwx8APXGS4cL2eJijb0VZr9ENXwFmh3oAz/SnpLR+XNU14E4z/exmiH
ExIzZMxysQDRBtwwA5h0tzy1Kj8CoCNaDL2lZpK4OE780QwCOvu/NyV3pNROupvL
V4xJdrVZK6uFzqZmG1RYLooeYbydTsV2zftqSv4O/2P0RsdCA31GCf5aOYC5Nj5i
Y75zWLFkhtiiNCM9x7FQa9j8EniN7FXARvqhTBfvtJy+iDx3HypzT62Ftn2QHy36
KIF6ZKhyTZNB6+9FV4JlTyAlYa2XCaaR8ZPan7wpSdmZHROgCHWg4eoNmLAP9CUE
Yke5/EcPZdODcSMzK+TyexEwGOcpdE1M4fSufGO3d8MfietV6nv0Ivb5jp9RkzRN
vvX7vF/raMji/Ge2h0a/A3k4K9+/p9kAfbr0+UJDC2OtnbhrBHyDTpKkQEUxvtEP
JbVgvk1mOxifewflv9b+MljVb7HVv/3FnQXtE32dX7jR5+Adlu4LrYV1cIJthzM6
Q79CMm7s2De4b0kyP6ZVqMG4jxOkkdcCpamQL3yYVhreLckaG9fZA8pszmi5yOId
W6pKugyDWnkmqdSpAhwZT9k/mrl4p0sPaBTRYGiC75PoWvPwUcrtx3VBmkn3R/Dc
hRa6L2hMhFraIX1TnV6jTR/m+R2u65ohspDkz7kK3nS1X8yR4o/NujoGZ+1BJ/8b
HG9w2YkiRaiUa2K0uMa/SGVmBkX+jMyI6VNfpEJVc5tZMKVHWj4v8X0jEGCCVDNA
cruGpnoH0g5C+ePSFzZmtPixPS/g0Ic8P5FGeQODuPxGpnHN+ClDziaWaFVJmKyn
VkLlzb7d+tP1PPT/COTqL4vxBZnp22aujDnacb1zQjaocWYWxY2OEqOdPOxq78E+
plKI9lwPdUga/I5iLpfEKx7P9hUSCm4LH5S2AuuO8jfZ3nfQdwBZuVEhT9aauilT
z4EKRDT/z25CVYnlWdjgMbebX2gMWYmjOsuW2rMATs2LZRQytssy5kMldRhNva0V
2IKcPySNYcIEgTs9pto3hbyDqb004eGxD5e+DPRP+3JgdlYnsU5zgaugW0NLqGpe
59g2wD/Ubf8BT29hqJmWsGjHrzU7RHuyDwqwxj9rtvg/u3es1MXxZtE1QtdfTfmb
t1vxi6XbZINTGEONF+RYRzP0oV1+YG1b5trI9pX5BbPH1aTofpGrK1LEhUlxesm9
TgO34c57oXdwttvv4+MMjgy14VgioxAdSEHOe+tGhvRjk8g6h1shGC77Vua9Blfj
rvlwO0xwYI2zUJNkEbo93SGbYYnxvvohZd6cc26G6cfwvvOD4Dr7GDRdtvwnSznN
At5JS97Am9Wb3iWCf8j6YZ2DJgj4gCS8IYRZI2qW9ZJOqO+DqMHH0c70pN0UY0Zx
dGUxE/TjDJI+XElN3zYdJ1arCu67EOnlGQM7WFlFSNiuyjoOZV4MA5EUPWfKSES0
Qa0J3hxAg6SB+uyZYPQdwL2kksjk8uaw7zRb9PMYxzeIHZpcuwOfveGRuoonUcd1
HFCgTJybegflgvX803tTDa7tfFfPlzsNeLTFyeI3wYkRAHJkgmQMv2T0mATxkWPg
DMCt9Oz5LBtam6GKnazZU5G8gax2In7jpw4fRKjCZOGRFUHlJK5QcqIp8jC5Rup/
Q5oB/ekqis8GeSiopc3qKuW5J3yf7dSF6611b/umJ16U5FMvBs+DW5zoM3Fv1Emo
EsBd9pPstV3uNT9we+avrJzzuj2692nCGWHuRmMufqN5Z/Q2r4ItD6pe3QMaO6Ye
PN4pRLFJItXznPk4YnBV96kLyysWERI/OPUZmTZDKte6wnuimxGd8PMTyw78Egoa
EKue6nhDikJ8y30UetaJRe+PLqfyNeOhGl8EWubESAUdMXtiSXUDknB0L7ENFL8X
TwejV8PWlAKR0NUmfqDkctMzkUurZ9fmUE+6SUCgkG4FDT2FruYk8RAo+hy9YNMU
dejoF/NM5yAoNle3rPc2o0Al8Eur4xOsJwYsZOGXRww0IyPhDrEkLM5ZcSaAkWy/
CLDuCbM77m60Wg3MOFHs86NZDBki4m7XtHpjrYe9Cb+qDIamXXRdEaLdImCyJc5J
kjgsVoPwPp0/YxEyUvBO0FyKckz+gHT72DTpaClTbIMfvn1f2Cy5z5hVJWarOt5G
13oDOCuHcU3FcB2g1ItH1MXESOtMJ36nBA+gNd/CF96I+uX5LMrpiPqxZygATb5T
Z/AHetn5Cr+lOkb1dUNGlPxujLRJXVs/tHVpNLK5P4lypyAmRP7e2DlIcO78zz/L
e0mveR2zq3RJR7mU9U5I/7Q/2undYP585OrraedBL0uzgdi34qS4jqK+/qpp9bFW
/crbR9+tNE77IvA/HCGofOfsvNwdpXKheXGo34ZZ3rXDa8D4fEruOrpCkSjyAwpx
qi90psLslgr8nIRzuZT3u2zWtjNfLZgozrnXSJW3HEMdXw7YOeV2WT5hasoRV3LV
9WeDsR47f4lkckQkeKDhHuq6+YClIshSnVkXR8IYoyifB/9gIRNz9U2ipEVUxFPS
l9G1LnrrC6RtXp9WI4ZyRjRApvuWznQheg/+FTFsAjG4hb4+wwGix+GhY8hhE/hB
it1cNa3EW5FpZeiQVcfubdI7WFDRL6riahWV99IUoUf9WuofI7DGvaPmvF2EqI8G
K6cMK8isRBTzZ21+18/DnpxgLv7bS6mrJ9HZPzaSLwi8ZT3WntlXoTThmRtYzgNr
o63VFQ8U3z6xDGeRxKEUoYZ1aqu86jgZg+YZCaH3/FQ2PRWq1BgUv826vIQEByWe
bCXt2wUIWfv84tcSzI3nHGyBD+hHNtCFa/lIrp3BzR6nuhZ2B4e0kgyn9jnDW0A5
6Ln9kAANg3hTe7UiJjdFLAd73HWe1IBjOGJJ+QfwBJLvy9wRy31K90d2LXuc9vME
M+IWENacYwHcd5L2ateqPfuakZ2td2eCNmeNKm6TrXhIgaUBUxk1QKtdqFplHVUq
HA8SHTmfZ62SqQj2OvRkBBUhmsaEtgDXaClPqqp6xzr1hyFN4fADgw7NUwyV8UFb
ziyl3sy63A2qy0rADN+a6RL5ark1fEIV99ww4GKvHLzshmk5oRnyytO2C0xz66DI
bL2Ht14Ym5JjWz+wSq6U4C1SJGaaMIBJTEja+Rur9VUKysDz5sjF5dUq1yciKaAd
LVQl3hUzFATar+wbacGYmur1OvUX21OkxA01bxUY1GBDLGE2YsDQvWPT2bIYvIkF
ZptR3JDvXvlIFItnMvp1RBa2VJCoy0WJhmKaJOem8Pj1mUi3JZrBX8qaRoDw3k1c
0nrmsHCcOlRDKbthOBUBqxV2YW9mjkVKmdinwnwxMsDXMgyKX2v0/3PyVIZfAdUt
Bl0xc5964XymFZGr67R6om0KZXYzchasxmVPqOyGRLhrd0Ww1MAE/R7ZtbpfhGlv
+81/TbNGRv7WQOib8zLlH5I25USnFdYN3uG3oCTCC9FDcfCn0rh86KBK2TvRgnI2
UJjNoz6NPpwi/8AIaRAVIN+gsASVZZMZUsmXtcjBiU3kZq7afFBqzFMQtj+NdjJ5
2fStcKqLxk/CDHW7rTBnWmCV2xWg34unWo5k9OqqAKE4RCTVPHgBWRbGjyHGkHeI
E7v6W+O/GDi2eESXBOlrPrnTOA6AEsc5Tq7ZEofIuxm+q9+N6hKk/OzlQ7MxKG/H
ASIZTO9CrDZij0KL5dJ7Uyuj7ccUNnXT8ex4hR1Cb9vGQjf3RKhUwF7qlxAPuJdZ
Tczj8BGceOBULoWFhcdzoZ22BrqP+5tc+CDrQtt91Y5PT0ZbtyFW3QeJRdN5hINb
HCETA6ia/wugChWvdJFWQFQrwOQLNnl1xdxZq1TX9MYC08LZpFHEg+4X/WigIP85
MagNe8ssn8wo/cBV1O40DeCIGYHgsj/5Y7rqj5vyx0LLnygsFUKg2BrvYDmZtylb
47RAkh36/P6E1oeghYdpvfqj8ha0NSNnhtxLUiN+t/tF35yRCEaiEMz/B56h4yhU
HTV6s5H0w/826TsCjq2beA6u1w5Co967mIrIAuT5dtv5a8xajwuJuXRCB7eMZ/no
xNf9b9DEYxpYfSe+vbgxUn5WXBq6oGbN2/VaD8jcGMdDfOoo5tA3r2cWPmo/hUn5
b5Ad6gew1WQ/rmT/YgwImqjQMsaLx6VElRwQ8Bn+rU/+RmIaCumlYSODBWo6mR1i
OAPIcS4/LCZsYcozD0MqyeOFEP9hc4Vzoh/wnjuXsz9aqnBgOv8r9hNzWN1kDxMR
1lx7MY3c4QTsYuIrac0viviDkZUNHM9LGl1xPHF4QdHlzPTZ//iz2o7EngNnqmyZ
A/UO2IavGHlN+m/v4r9EBogLSeplEycgLl/ssCBJC0rtrHXvUnqLvuq2IdV1CI/g
Y5gDZeCe58/VDC6Hz3+rMr3l0mqrj6id7dqIvYq8kzKCaKSYW4N6mZJM8eG1oU1p
uTRl3MniAUzxLjGDHymzCoJZrDXtj652NF/B6XrcSiwLsWPqmgJguPAeXd3BKpUY
ODMcnooMKFLRMx0/hyz00Kxyxf64yeo7M/9YLtx6O6qCgJT+wxxAzshH8FIVa5h1
M7m71/u+GZYvOEVmTVHAaVE1JHtBgVtzYSLo6w0+5kQEFCg+FNutEiks6KQe8hjk
ubSoWZJXvssrryP/w3gqEkYNPOz0nENl5hTRfciHZCyAAhkJfpkYi1DJk+nwl8Ll
jBNTSBglh0rN9dvhXg9LijuzWozSg50fJ7s3kaHMkKpgTuPtRtaeNrPuwY/deX9J
/5gPdk2LM/w7z/X2E0irUhkmhDVTx492qJAWGrXY0qhhnRGuO7I3R4s6oxy2mbTW
Ccdae2mjxElDJytKXMlCAZ2fBOeFuL/eiAzVDXYYQzd7m7xA6teu1HwEV6+ZK5ng
sT9i+8gxj5IUJPXU2mWVFYaBs7sjc05qWwpxSC6HsJugtftzWU4h23SXhzwUrksm
J8dOoSAlJDtYinFrJV3EFQIMLj4LpB3byfsZ+0t3pDZg9lV24+Bk3mEYvnNKaTBO
zmtq86BuVbBF5XUmvZAyqAb60Oc7zP4RmOeHyBHMZKWPdQvlSPRRwszK1sYwhulA
MYBLYiBcnUBNN+UM5JmXB+lISnqt8RFSFEwyTH3Cffl4840vlbMni8dTa7jzLpnZ
sRvA52Bqt64ZubtyKXiWW2XD5Qt7vniUHVUIzUwDFzELJcyYB87/if0wzOVGN8t/
7/PjBwg18MzXpztxxDp1e5WZ9l1VuOX57v5erWAroWG7LXVfcvxj293Ci0JZwqLu
55oNPWbpA1cSfbPeQli5bwvUjL/GJTI5SzK+u+voyasa2Q5YxIkIYC+Ii66GGPnm
slbIpGY7HokE/nkTC43UDAJyn7Yd8zGUfjLxwOdpGwkNPGuoIWbZUmYe86154qBh
ZHv60JQlgr3o4v0P09rDvET7oXnd0IZnvhp4Y3j0YgAok2nvEfPYtYoRnwZnLQjs
jjuMvHVy+2lwVJ6QE+eM/vp+TEzL2tmqLDuOpqDmHmhL4dDascVZRn6OPTAdNG7R
3cBu42xvfivaTyvWCn2OPV6hfR5pHuRNOJC/vzVk7ZnQJS3iK4/OQb6b+f+o7IN0
w3yid1wzS4AW5XIqRMI7GBbiBstSs138vwI8PsXo7wY7y2RPjpdIWYSAOnnnm7lO
fHzgNWShUdqnDJJ4CgJwTHFzQ46fHSB2orcpAgpKR9H/6jpM/ZoQBzgSAJbMVsse
9yHkauqg9lNuqOyfew9fz30xKHjud8QTdNSMs7t/9q9RoLzjAp1LfGQ8rG/Z/17G
jKvIFpYDofqCWgLg/x/bpgGbqozlAf4gmbAkdsrZ8wVUPtFreiehZyHvtld6rNY+
w/0YfeSYWbVkL0AsWNxMtl9mQ7EarCnxVWGg9u4wezYyRrhxnGfuH9R4XaGtN7WW
x1p4Va22zmwJBj1cttMEjSKBSWQHEp1ZyCITtWulLvymSN8tpnj2xCqTLg7wYGbO
NPO8tzzdD9SLAq/z83FYRizaNXfQtRtD42kUAUDIaWTVRMOXHPncD5vXxx7Vmfec
allz+5wD+9uRt9fFVISU7X9G5ceRvWGz4nBwdjZKrYjexX1v1aV0uyTMdxrsxQ01
4M8WAyxEQkfdwOefdoeAlmpz7qG35ocyLmxI16/iFB0X/xoEyppajvFy0zxcqw5i
6W8jUY1g4KOThnJD+6kBINemXSHxqPzYfT5MyZ5h9ZhyKjQ2ysY5k5VzmcQeOFdB
+9W5UoCOtN2gOc6GpsT5vyq6oOsqz6ApWI5SY0Tehig9Ctyf3v5TRbojeuemMq7+
RohpjFLGqaaejHI50P7KhWHfe3czfC1+jPAYE+vM+5bXaGkVB+1dLgUUEtQG1jJA
Huy1aDJ4kV6LIe9BsoaumTNbhRPJuGWNi6Rw/xKvfPyXuKEUwrWRHiVbMTYqy98P
kMGMS0OgA6lql3woYMrK/AOLRrhltKP2TCK0yLJcyJZQXXBx89pv52DoOmcE3xl5
jxur2nogAsimH4UQVhwTu7RUETAUJvx0vQSmxiyOvdDpKU6aHuv0hY3IseO4rEjX
48nIenXd0x/1EI6BCMpEkqI1SWqN7+jkt1zQeNdmC4zynchGgRR7MiAIH9FjxFRK
C/iO7FNC+ZSH856RHDRyO+X3h3NyD+oAJKZ4y+JyFnCo5FaGGg8RDLFG/MIBhpfO
mfvn1470uUw4DkpJr8BD73SlwcxAy6r+HBrJbMQor6AALzF4qitW9gM60NuRKvGA
yFNieWrK/YSkcCN308tdu6ffUGhwox1vnu+09H6MtOAthmyElaANLj4hes+5MZuA
wJfk1ZyTBJwmcy/NAlb4gv113fXkyr9VNGNB82S1RGlPosHs2WHCa0upW09l279V
l/s0SYw7kCElB6cXdS3yotMrMrP0bjTUBcjXWutZRV3bHxqLa2hntKgp/YDU/PLH
Ui69GVHdkr1qYofMyt8CMb5Y+kFgcLQGJWh/qw6MysPaY1gikv3KCvcpNehPBKUY
Zf72eEk4zFh+CS7B2xvdBEoGgATgnoSmswLU5oiIt0UOhssxkkH8lhsRPCuIOBU4
hjw/YGdN7x0wkWDpbfKjE7djf0zZl0mxeRTsDpi0eDgCx1/D250FyWUNzg7ijIpb
HO4/yzGWt0vpRpdjMDnb+4VQKSdPCesGja8vUrCKGbSNtmeWWFfqCAJUb5emtIS0
niASVPYnrY8d4Cy0I8+2Q6K2007Eyu6If7HyUSmfebaPPD/0lXI6xlUxTYrPYfnv
xOsxBrRQyQXpBh9z31zdmcljn8nUQJPvZoHZSsWYAduWOJKuMCbI77Fjx4qNReCo
TtU8xLoHPqQK+1znOOl6VhMybtYqapUeXwIElMPaNRdWKGnQi2WuygP4MA3jk0T7
+TJskPTt07tCn1L4R0ifIrHCjk6Atl4OZBWlkwvYCL3KUBCGMuUvdveErwfWxPYw
VSCHkbxCFdf5/sJc2cIKqzvJ1HtwNc0ziLXQs+OQ1a3GIxZo3OaVI8JfIiSIbYu9
ilTGYl+GQgHosbeiPTM93JoyHuv7LmyPBN0D1UsQiQT6SvHr8nr1tP87GkZZiEfI
oo/svPBjrF8/oTd0reEfYPrlj4LbIrG07M8KIOFuhZ6So3xqdWbtUZzdPHLvw8Ay
FaVxeoFwLmZa6poc0uthDwYRljnF3qdpz1/Tf56hSAgRxl97IQtUszfEQTx9cP0u
G40JMzb5IwSfn8vwE+ZDiY1IOqzpUezWwNK/egF14RHwxQHRhqFfTfWYFaFEvF9B
ppvbQMrEy4yjcafJZdfDswUQJRBSXvmard0YGtCssJ6zVq2Sj8wdtr6rEQvl9axW
YBVtE6SgWcZPqdnnopLKb8mOCql4X6GLGJEOxQsgQw69lSBlb/K127+bhnhm0mr/
Oovp/cIcDRGIzEQabC7s2Dkr1+uX9H+w/aCQ1p+jhCY85PJ/FdTIDsaiUdy4Kq0/
R0VKfkdQD2s7rmlWgqOgx0AaVD+1mva+NAnrvSkk5Gm51Fo0q0Flxl20NAbXWHZM
hnZwuKePIUfcz6+jaoMfMBZxwI4XHgBcbsrPJVUAkv2xhDwUoOWW0CcCV2E6akrf
WiJDv5EZ/QVlYZbJOMfaK1l9idkfzHM72oRYi1fxGTwvvNMyveQbN3e1PruB/n+a
Ib5pJZO5d+wJ1Di2A5pvupgLJ80ksXO1bS6mk249SnWGYwgWNrMkHqhcOBW6jm4S
hEwZsVD+2nm19B2U3S1b3HGyMnI8+7U0ANzgFuWCXMUA+y+5OvC4XNNYD5TpTH9l
uiD3rwpUY+BCIRVJEKTGQKdpnB3MweaceKDWKTvAQE21JFbp3g1fPtcSGEeiuzUf
0oDt9FMCwS1YJ+GaYZinLgzrPEjnkpj77dS8LRryR0qvauC+AOsJkkHKzPw8P+49
t3wLMVQSzb+7h+GNek8b52U68+y/+zIr0CZD4RLVvIHn82qgCT9exJY4zTomE2oF
gVifta9GPGmbXb8WQb/BsdoLswFQSJJid9aW0R2ZJoajHYmjUsm+PUYuymxo6Vp9
wj5n27faQPLmkWB+MNuRmcEZPkzSv3fTGJ6vD+o+ocsC0e2+Mi4xkXz9axZDqMqX
gHaLNZ0Q5dRqcK1caUDduEMNbrGX2GSvLFm+pt/vZ5C9IEU04kfT/1e6PfotzZJO
ol9ygm1B4dQEEmwEvU67PJOFOKI2HA9zySWDzuEm43/erH0MZ6rOyx2xK4+bLASP
XwjSj0PttsvVbEkQOWhxMde2OiN0S4lgXyY8ng+6E1Z5EwBkEZbYyMn515q7szBm
r+w5dVS/kM8Uiv1SoruQ3dZ6zr6igGCvNjeXm9khD4gtuKoeWZk6CNokB4KMTVmk
e613B+/RqHQOpbkR6GNaPejjwh0dqt25LtrUp5gfQz8pYzI92/7kZuZuCWUPiz2Q
w8eSq3JYssDxYx/6t5JvouKl9sG+nKMUekDzTZTAaeFHj05HKqTz/xHfw8tMC70W
ePA4kx/4c/ACNnjw3en5ZsP1toanz9RBYGFCpgrcbdrOoUexqwdUgACi+mWi424Y
kZw2HMFGKlMxxRm6ia4ogHgqwUV+L/Upsyr/INfv2BuN5YRVCQHTH9Eac2VDHZIQ
F7vSHF3+VgPaTorRC6GZmXcoNvoi27wTPlDM8uxga33iVZsGCX+9lq6Pi5Tpvjwa
nN6rFmd12DL93vAC7+PM81K/TW/f/3CVPqFGAPb0ozTZXClJHKcqaQWA3LiqW1ak
zZvixJAQyduHDBpZqcRuEc/GlhawDQYkOqQ09NiD6SjyT8szPuvSR2Zo38WVfI4I
9exVneODsyo2OXqW4p8r3bmTEZrpFvKSbroxpgWFKprQijfqFb+kUW80OcKa6zVd
t1NB0iBIUYRZQEJ+MHdHaSYA2254ZucZbvm7YDdCwTQ+mpjA/73TgOtDKJryauWb
AyFe/VJKmIXrbcsIIh5Hj+4W5SgM/xExcflfcqET/4jVtG+3gnWJxCeeBt3iN2Dr
ITsv9fHokO5ig0cnzmF2K7h6/XyAVusrGI22zdf+fAVKyMUE1PazLjoIAhLtaYi7
3aFuygBL1fsUYHYxGeJ9Qv1JchHo5ppMfsPkUzjId3dP/XxSjfRcGSOU6guT0gO+
6kfwoXC1adKnW6c4uKUuDOWeNhKPNxOdme6kIshvNV2/wX3r5XyB8iKSbd3u7U2q
EHJ9V8UX7YEY6uT1Oyi4PyE/5xNC1XgelaycEMO5pi/pQlsFBKHTUKNQU6NAwz98
PmigW510C18w1ygopWoXt5oOtUOivgb3HI8hAZ1n4vOBguRaDXdx5CkJJZxyfiAv
H5IF3wTCQ6QiUt2SI8pBPumNSWuBk6yapd5e39nC9ftJ+VINbfJ6iyXmd8ZH89vi
wU+hqYz6Aerl7w7skBFaujPAj+yvi60Tf2eLyXx49vN7xX2xXTgj1L/G3GYPzzmM
DYKTee/lHhDcdm7d0aTQkt1rsravL3wcR9llJMydl+iFJAieB4SmLdCxiO+vxcxp
EBRqiCgiwBn0vFbzVdIxrdUMaWt+a6+R2/l/DNGDG6UFV0oCn7ejPUZ1QBkLuiRT
VK0ze/y/XQhmnG1vwhBx9uT15klbcW0UsJWYElggxrU0Z5a4n5op0VrlxMRtNhFn
XakwlUlsXQwSboGbwFY+QqrajaNmlDuqz8Ba1nUX6bXrSpivPJHhZ0s9FV9eV0KB
FcxOOMnZvSjOMWU6IYHLCFFFOtGl+ysZ1bokR0blGtrdxtHOd9cIU3bE85YwwYBD
sIRc8OydWXfZ3tF26KiQmdKfz0SnQQF9lvvl9zNX1IJ7GfUN90DvuPqFnsDj4YtU
j41X4ua2Imt1Axc7C+1qdj00oLRgbeYtzlBMgFyFjZ9dDu8ycTpkCue0jy1UriVu
C8kdSl8Ii5GGW/mmgRkx66IiYzRq6e5j7YNFmNBSPR+Rale7Ot9HwiFgshbpO2D+
zmTVXeVuA7kNEj4V4OlmiNhfXOQ5iNcNSbRJXZuMJqGymV1NAZI4yrJNe3uADkGS
03zBk00YNtrsyNceRzXk8mZ7muMhYlZuww3iTqGFjGIs9R+rjKr0K4RES5xNOp1s
ar6p/+KVxDrrvq4IpU+Y0SP8JjyaTeve3/xNEkg1Mh5zdQb0C8B4zozsG/6tkid6
12Kq1aRRnOSZQj0Zok+yeKNZhmsUZkrmmDXMttuixH9gk2H1fDNmr1RNC34EFIFU
ZDFZKgxgr+Kmp0yHvd4LfRccBSRmW6PstpkJjW0S5H8bPGgLzaOKwZ9DOC+GJUX4
F87dr637Af0J/SdC50idW6zh4LXJYvKKsA8Cil3jhUxdTsAON074OawaLRE5l92p
+qDFjKFRW2DoNZUhPFRSwhrj3kwqSzQlokywOwXsMxwYz3gxvLU42Lc6/jCPKoI4
ZndtotjMKNt9WyLYoKt/xeBVWkEG0tybTTeMbvY6alfh241e+BdGlJaivKt9sqLQ
KJF/9ZxuEP/81tmsqk9tY/X3hCZSttQ33/qkFN9ty3NRm1iCCyY4yh8I5mDnpEky
NDezj8tTjR+ob5RW6E+XwAXswcdF95lLYRzdXYWSDrNMOKDS9y9S5BNu0r3XCt7P
i33JUee9axwthw3dX1yyyH1X4Cb1KALtK79OpigMRmoQUgITZ6/YUQnIU/VccDah
yMR8fiTF2Dn0hCLz/Vu3H699vJc3FZZIM9FA9/TNv9XSKr/GtxXzje/u8NmHDnhL
HFI/n5jbBIWkEhEv2qflgRY9nFLnBu6D6nmvfNO5Z8FXkDn/MnMGE56U2LWabWq8
zKTS9l+xubYY9L4RoJbxJlHW82oOxbGC1FS4nZc4YsOXOuGPhqg4MAY89tt0fV7c
Uq+tTjYmPFdLN672AtGJkEp/cv7FL6s03JKAH1QfrqNAe8OQXbyRROxqEFwdVjtV
de0BF3my/+/G+JbY2fHcBQ6f90OQf62bsZK6m9KxVyEdKbGNQAFkLjhLQlUpwPM3
r3ZaWVZ7Sie9cuBTmlMOOoavg6laTekz7DSMgesJiLTAGdwm8aQ8NccdxiHjbXo1
9QUUUu2aaxjm7RUl0daFn3yPObsbmTu5xArM/DVO6cvArsd7enLL1eIgECNhf9sG
PY3akljwv03xnd7xW4n1nFjEzVew1mvl12WYjLSJxRVq5IBjPaaJv9uw/THsNWWq
K1p5dsPZEtTjNlTxsVua9R+xp0bOYu/JTO6FaK7FVVzEiAGho4raubr+WEFbRsfM
qztmMmKa9xQGtQ6K8EgS5QimdqZ3E4sUg+apMts5QWCSuE+8H0d2xjfzs7RjvrvQ
/C4Pb5E1wO/et9ZFPfNXzE6KnMoPU8/z5UKftdxmMtbIBvunqgZjgnpZ2bNJpzYe
ycF2/Fw5ZzJ8nnh4+zfHqV3nEHJii2E2jYyQEqgIR5+CQikUHf7mRPAgqcHl6uYQ
91KSgTx6K0/laP0s5zT6ezGzBOwVU0U+38y0+u8abSa7nCxjcx+qYbTJGfPQnxqx
EGF3chPkddH7Y6Yh8nDzkbRz/PO1q/aPmytJ0WN9ueqhbGCjPHDO6//IHOByGfza
HDqRnlcQn0YMGnXoXCzXE9nCXRroAq3Lo6Su67EhYNb6piGXl/+MTKhUVEl1Bkqq
pkU7iD/eREFCfuzOk5eNDSQhSAcFNJA1IOcttxVsGwocVAVo/GqYX1KueGI6udeU
FAYQBC13SJWXTSpqdqniwhgqD9+XAkP5CHicBM75l1rJSz+odIGG6Mi+xMqILJ/R
WidZqAKo88orI3ig6rj1AqCzPha9b0nyjfXTNC5m6ENWYaIKwNtR+8/qlJuOIVQS
EBUmBtubBfMPqCU0OxiNsg+BuafFA4YgM2EZgsCE8rlC1iIUTPHO4z0czuVa2X4b
fbj6YchoXfq5RrNX4nxB6RDR/cIpEfus9LTBaAF5F984ASFb1yvYuhHhTpEkneJt
XKH0EVT4Ti9I8bcijmhneFUOf8nnButgpgn8U79tbnmvRLBU4HJl0gUOP3N67UVJ
jHChm/a8g1dvLwUsLft08XNnxYka5dYFLJE8pgshScetvho7Y+xgNaB7pTRNl0ez
qZzUlgWUuRxNXNBRv98g2e41InW3fq5xQ8SRxnrLwyX/iwYleDWuplrsZlXnhLQi
gZTo5M8RaLkJ5HKPQGcweyVCR21fj3oH5TefZoZU23oqWACU/ILrNaaDz+lH4TRM
ULkhCJz5zdbmv38qU5qSU3qAvXaWCN+LM/7vMf12jpi/0hB0MkdIw9Wf83tPCIXo
NLlFk+zNVyu9/B9TcEffkku24w46x2+yzXOkMKb7wW0L+2DrVSVnfIdZHbdluRA1
KDkVU/rPEKsfRIiDVsycYBH6gQKz0NU8Y7jHHYM0YTgT79m7vciocfHzFHSlDvv9
9bkpTv5fiHD4QCycEEuFs7taj/GKfsa2tbWM5lIWoSWTrcPukAEX0IuQO7B2BoqT
NfExLshBK6Y4y2i123V3dRhbJ8vgiaIUuORi6tV5oyxRT/UtbXpfjmbRtM4cD9tD
S2ZI1HVsh8ZWsUniuYwlOsypL4miLqAfRRSL9+wCYxrbuEHZdCqfRrnMhAcP4kxY
O0EFmP0uDKTP3DPbbT+6qrOUUaeFUooyr58SZOzUHZjALvXaYtBrutfEAz1kEcHn
17Sqi97wxs4fPfhJI7EE8NqcPEfFH/bvLeVtPfXCGQsW142Bp7UXrZQG8wnMOPp4
7FAev3rK5KgMLXQPQpMIg4N2q/9ecYZOz1vkYdX+6DU7p9zBvD85cGYqb8AoXcFo
i/JXeeBP3ubuzPlWQQseZqdNAwM6/D/ScTW2m6pdWZJI4dVK6Y7XOHbUCxqmJwVC
nG4WnPLR9lrs/GiBDm/JfaMm0npq73K8Fn8KsBnr0Qm9UPD2hz50PyBqnFX3wPFk
pLS1kQ257mLw+g89hMovF/AbWIYHc5cY5yfknMQTo6Qv6kEWO/X/NnDrC9mj8nF2
lxz6iTIDxYcMP91431jydyRhCi31xFQHJrE1aE2U4sEqP+sFQesAwHZ1DiN4HLGp
W6jj87tYtaWf2VFThXUvqfZX66DB1taVAOL+2a2X1HE/Slb4fGWlanAIJxjMW/Xw
uFM5/IVbr6G4WsHuBqJWfiLj47CvfNgD2maHGuE/NiLTDca5j2wS2VA3Lgo/ALlP
ChunJjv1Qm6HkIs+f+KrXXIdbBoJ7QfuDxhK2/dYVN/JIbZpgrhvnMtc+qadx/NZ
ExEweRcEqPuFPCLEgBPX6hY38bvh9TZ9FsP5GVj+0xDI0ITcJc2oZ8pGI//Lzp2u
TthxuBHz3coNaTV1J29yFPqprQe7UOOTRWf1Jno0Gh+KiH0RrIQYQ0OoQ4J/Vog+
mWIj1n1u17Pk0rc6ZvjCfjcluKDFDKKUrWjUXhV/hfNZp4xkryhj3jBnSjRaU2Xu
Cy6hAMXHVfl5L2KZdx+wMhCcH2rowQXLRgSpBRee2/g8jQakuDSuj+xh6qVO+xFf
8Jd08jSvcqLLkwkWMpcvyTgv4SfNF4yqlBPT4aSfc/G9YLj4ejHwdH2y+d/kB1wJ
lFh/kgt+HPyXxD3411KMFEg6UvjLdKgEKmF6Q8JZSzNm08Tmy6t/G4Ubp+qNmg1M
rRc7bcMiD2g/noN+hT1rW04aUgmWmAbrXNGOu478ePi6AwOj/jzDMVORUb6FZgs6
FVOeSA0HjbfCP/NYvmB1WzAmEprkykNUXBh5XsXRzMfXckudWGpM0SkWH7z6wISr
tJIa03HDQXELYXXAubNnWZQNpNUOBOnu0NIB54oV4avYZxK5I2qcNTkDLUz1bSDo
NpxXJBD9o39ADyestR9SwRiLkWwASmA5LgEb81fBH4/FJ5UcXR1POTQZCVrGeUej
XDb5Z+/ZqEITLofR5dMjamX07VwtBvUjf5ApFB33/Qs9agvshCVheikgcUcdgN50
6ASsOdMyNM+UBlhZ4diNVZr+rw7eFXDbndIKmRGL90tOTXX+Q/h+aVPz/37j+vl3
uwYRxWS43LVXUJMDo9aOrtmLzFW7dZLGXCl8vCk7PugbEn+6XdjE471NiXYrUVuf
j+EopZOGYjjC5WFDyYBIa7TebK8H+DwM/90A7wb6w2EwJC52P8m14XMorPwb0Vab
Z7Vi313ZRLZ5IYW8Hc7qDGQ3/6/Ns4lxvT1owfVPNvr3yeXGIW4lFptHbn6wb9R4
244T4Bv9YRT2mxT0OW43X7Bw0k6qyn38Uy8htpGpABxFYKP+pFv3BLX9MW1mTlK5
EnNv5nyQgqP67tJTOBs4g4EmTU5x7ZsePKC/efe8/+W57L8pBW2l+E13aWikyszW
t7zjvWDsf03oGBU8Rjf7oLLDppj1WF6/UAyTxSxN6a78WzGcnMsZpALreFCD7sUj
vxsGhHBQ6i2IsihhbAOd1csjbN7bXOJHL+qDvfYajUTUECjyxCWbcPCO05FJAy/D
Z9ZRvqn+wg1G1Uy9TBjR4RXxiLtuK67cmp3UxwUIYlMHPzpBpkTYyqn4VQ9/k5X1
smF11wSBJ7E/D2FXI+OKoEB4msI8qlkP5kbUV2jDiPzZYOcSJei6i2BV55H3/BMh
gBVD0lzue5tuMG+tILtx76vRNGRtT42dNVTcMHehphTQIgSWX6ayGD4FUPENL4CK
F8HkRqLga063Vr2ncOc63X3dHX9TK39mkVW7O7R3Yo5vrIYp84P0IZx0F9qH2V7P
yOOHg8nz0cv+MjGZQo8oQy9eMij7reaw8BC5LtiPL1PPvbOb6OjifiupnIn69wk7
YZnywg9R5UiQouyZVaIKfqFBPiLIZ1z2/rZm6iSGegzCqE0uERQ6394/fcA+nUPe
IViaoWKSgVw2lvi74/IiNNWAJRAOg0TJAxslJ3opYC8pBtTz4/Moy79ZWjwDs+jj
R3RUbt8W0yGi6KGwbnud50ZXk7yWcg3muydIdNRQgw8l2LuQBqtv49lmDS9jMwWa
mWZQnb9NohGi0OZnHlwSJJBHTzWted7KVnOa6oTWNiHkhMU4cbm+21MOi+3yweSI
re1Y1AmCjlsw2Fzk/fMKlKxXuUh02aAU5lmfxdQ50fD1YCj/ZO6VYr5+tFmxwch2
Hq8KpTYh1ZrMLkA2TDOreV0vYnBR9Ku8Zr4EF2lY+kPVVITySfppO/U/ARxjHQcs
bOX+hcfvC22I8ITpgy4omDCxVEoqg5YQgj2q+f25ho7ri2mKINDeZto5w/pVz5T6
hqcJeRcqAq4TIfXzMSWqjR2kzu+zyjxxhtaOQ7D0wBRnZc6wyhdFq2Gu3Ddvnm9u
30n/wz1WlvdOElDeMGU1jorOXO335lip08X3YEdUbKsor4TMWVJAn/EDV1GSGhMu
Hu3iIquTQhaeb8JujkQlW8D95R97ZpGKfaObNukP3TUaDWxAPf0q/v3n+MYO4GMk
0+n9yrDqLJCjFb/VfjvU5i5mh69At6o8Ex9aiHqULB7SGTEtmgw+KLRDhMmJFzP5
YJQu8bkT/Lb03cCUrTWg6AvC8SAiQMMKW4wgBnQEhZ7AgGCshUSe7jTKf/c9OxDB
KOfatJX27pnj6dpibNxbjYOIO2k6OXJS0AjE/UvFvmO1foM6ChOI4xahOsm9HlMn
+XrlmErvytftszB81PIv4uiGlD/4HRspPguoj0NGWdntTMkQ3vKde7en2pVW//9e
uhS0uJwjUh+2K+dHnnHGyCCRrUrcGG5aZ2KoAhIjPZ1++4+QJsZjepROwnbEDpcx
eXUj2kfQgIi3zmpXSekMAuTPJmSu0D4Vb6dNNv0046jzOgn0YPpl1nguIIfGQQI+
h/EoU2TI/lf9TSm+QrA8K22noEMW856DKLE2u2NJZ8GX2Cn4q+BHefIjsjQX0EHH
6gUKkLll0iyQx3pWapFYadQ/i3htfRekFXOk4i+mOzHkM5gq2q+kHH16ycOyhMuD
m2wDVsNwfkBhwmOuTTaFxVHYX9mNZRz2QYptvOYUVhFUtLzrV/FtKTqoo/4u7w7x
dryfbbxquJuVcgO7uU+FkVXibelSH96Nrshy56binvsIrPaYV5DptS1xsEh0vUPG
O9SpozosCxE6QSXe8bK1k9Gh5zIWJsQfWjagjbHJMX31bZylOik7A1Zwsv+9FylA
Q18IzgDI9bXwwVA6gMlkVssQ4SAjGGahPKKziDCHBVo6bJth9Cstg2TtDKqDwIIA
U/MlQxfyoQB99n6lmDNthRc4e5VuD5rmixNqfgyoEs4x9MlS/7HA7LwQVOAtqeKn
GaaQwRSvONIXu165yYxlSkYEPQZWhBliFUU/4nPUXrOQWD34Hc4mD+J5SEkel3dD
76Jm+y1gx0QtvQd/QgWFbtHq/esXjipwDy5Ub5AW5SNoAq71/jj2ZIJsCu7K4A81
Zk6HxBhJFUdhr3oGDKM4ilqJB8w+IlujT+7GumK12t0B4clazcJQuPVHjeyhEbXG
tuhjBOWVncG+EWWZaDzsEBEmq74lVcvyIjUXV4Q0RBhWnGNLUqWESrhlmbWfvx4s
nhkA2pVxZtqVJ0x02p+NNTzUDNliLt3RAmOcTJHlMKEMb7e8omQQiLsbw4MGVfv3
neG+6Nv4dtX+7DSVziyVbvMsdI6MtSFzlhsrbOs7XyulRfkyrDEyJoEzPBztYuHH
vDlXYTWiQaLiJXWtmMMo6qC9WvwzYnjENPODnW+ViJ782mkCiJ0U4w971jiKaTJ0
ViWucgPDtuiMyLtUxwGq+hlMDYrKuMsZ9Ux29HQ2ex2iuB1oiAddCkA9WYWvZhZr
EF0rfn3/8XU7tWxohBx9Fb697HBBEXQkxwr0ex88dOYlk7ZXE4fids4RKX30FNqh
ntj/nw4WmxXRf5x/W6VbCBepfsgdibLJ5yU+/LlTWau9pv1q5y9a8dprzppv976g
5+oY1zKG+aTzzoQY9lacUZ8q8wVhmBv2W58lu+YQ1qcJHbDWe5PzmkIyUwAU5gWb
Hr1lw5fS39jldv1RArSVrTCEPTg7BG74iBV5yGvvAdLwIiLU4A7dmOEUeLybOpFj
jpoNA1XrZ+Jwiup4U6tcX5N7TB1tBiDOr1LaJIMW9t6ECKIEqSKTdGLczW4t/WJk
2gl7/bpXDzvVv6I8GZpbxEwjnDtOgam/xAj1qWI5uNgirHrpDQuUaqfvRfOdhAKV
s3mT9zYkMvpWFk1IUV7NsOGbudL6tJ3EySF8J4Mf1fXtZdbO57TDLaPtuD7PPdgl
zQmU+hnZbPcbgj0+2HX1H76zApOnOAU1mGkR5c2/HyNK0vh5X5BFu2EBdwxgwmyK
bdXeLVwxaYzKNGk9J3X14IvP0rSIOJqR7sWJxPqHkxz5gFcRoTKE+k4oOniBvdrC
9QNDQAVkWBbOfKSmkl0B63mIvsJz5yiwEd33eyPyYdXJPhgHBZxUm1dCcTWItBUm
Iwve1TMlA9lhB3tufxPE4i3V9YS3lpOtJQ6lJkhXZY6nDbhb3VpJce18iRZ4DN5J
/xM19SMXXqIg5CbG2MshnygRNsCUXlh4qQ19lHoaojAbYwXW8xyOtRTLQ9G8Y5vN
KZursn1P/zYeWQ0xT4QD10a2djA68EyulrqAmjIMkOyUvMXMPMc2uRdVlgfuZ7vI
c4cJ/P+R+YNUjuq7pjj8/iOd2C8+04D9DLw9RZ9VSwC9ql9RlFfvZFuQxaiDWDDN
queLiD3xXbp2sFJSjkogxL5QlRAdTcwsXqW8Y74rinJ0n0UOOjv3tWp9v3v7mQze
jOcGu4pOD9OMzvtLb/hN7j4wf6zAaGQmjD2JD4Hkr72BIsvMLrTg1i6jr4blDHmz
iVyDi5ldThFIquBxwzP+ie8EB8nDKcbNcZiD7rzn7hIdVV53l4WqD6Iv+9aEbvLQ
o7eriFPvms7FZKDt5eoIfxNY94IekFMFWI1uCYEG+iCseZiwTnkGzNN1WqezYw39
ip7bz33y4nNc+H4X56XuMH19zWvGdHwQC0MhAZsNJlTjSyT12+HnoHHKXFNOmalx
0JR4RZK8uoRIqvDnko7YSRcrzAJ9lWEhAkKIWKFGod/vHEqjY6xEKvquy3Nl2rUN
QUxCFHbDs6nYnDmRuT9n6oWCBg8z4Bffwlz6WPMRqrNpyqahPLhc27GdswosdCnK
WS5MIZYCxZySSnOm83a9k69THmm0vOxqE8F5YczuDYeJx0MaO/qqFjiFw217Tj9D
iDNckdQqMIQCd5A2lzwGwxKfdoP32Hv/9AgTDDbxEXN1mmwLa8GxUtSwr8rRb3PX
BYI4YFyfhnkv8TmALNbIZGCrHuQWRWmZ12Y10or3ZYL4xRwZdTg4YKZehW4K25Km
8CADzFWOknVjT1lR7P0rYXiFRZrzK0n+3XUJApbVo4D/vag8zkUrGWwk++MFta18
DDztdjNaCtM+LjDz/mzMqvm9KvIllICbv+whvEDecNTlKDDvnkHnSofZfvZq8dvr
8hTLaJ1xX+a6kHvWI+KNrVL3vwnHfr/m0lTB9VzrVHfhZ2g8Ir810h6ALID3yqsY
T+wt0Ot9jjCpcSiVTzJhw7XhytrWgR79kiN8uNy7OXZElR727UON0F9kd3ErrEmg
+lGbvEl9ULnFjzUH2UoG46elkGe6/gJQ97eIIayuDfRYM3pP2JuUgTYCDixj623k
mkgtH1A+xJ5sYlmX7cl2n37ydGyzoJDxSSTDJFIBMv9nEMBfi9xi7OqoEmc/4XVc
oibusgvAIjdzNfBUOnJ7YLIWJXCwN6QBbQgFq1/Rq0ihE6LN4sBUTv9DtlyFMJCB
341KAKIjHtCPMbDCjv3gUptEtavOAtdKGFaAc7STFtP82ZHAxaNvqckyC8gu9t11
f4TXygtCngTtjqkCWAAFx4BCwwfdJZRMADPuZSjVD6Dggj9IeEKCZRfVAovl/GBs
AoVHvzdxt3jdzzTA1/cTXe5p2k4oKOHs7uWTTYQ0ekbMwnOEakaghS2WofGE5IFE
EDlhpwKceSCzwi52z4C/OPhWr9CwQSMfeM426jG92dk5cfmPj+SfEYeuCplp3F3A
/CiA4F6P4ToYQmg+rhNv5/wpvTB8j+yWVA63jVYZ0BCeKjhn4z5R60sl7nVe2Y92
L+rrQGcch2W8QIch2rTLtxviOwxC10vLG4z5D9xOqBeDmbvOtvp/wVki3nKKOhpY
120hAoshN9tEy5aqeZfXb5O1GLtlDtaJgqGdK9I8BGqZsO2eFYDqi0GPvTTSvZ9Y
AlNxoJY3THOHjD73yOKNwYSpjgg5mY2vO8RmggVguVaZHaNjYCgh9t/JmrfTPNwi
agXvhXKq9xSzLo9N7Dw2/l8b6OeTMdNcmk2wFibOLS5ELholM+F8AiBC9wSnc1Ne
xPjOhcjHD9z6YbIAPxypfZIrt7yBqHhFcV4Nnu2Q3rsSEWNR9601v+YyemlAkwsB
NBfUbOhYccow2b9yMJZNsyCl9XJOwoyCPXKdkmqWCRZhs7ocz7OP6B4hFxD3F02T
2A5q3FbsKVRSpnz0Fg/wBo0oLu9R/ZP1VAQm4vVdTRv7vIJb3wOf4C6hmEOrqwr/
NJZGlLO2emTvr4ofif0/23/SFn1BJ4PG2mBPp7YyaoZpgy2axUuVt/Kkb/CIjr8O
eHXw+MA0n5hhKqk1k5BrXaIcTRlp7Or+rqqwiimtACmnNvsKDQrK4VvjFC45b8cY
7j/w1IwNgzldqyjKV6p1ouBZsJSv43oNwdOC+tfGOWGc7ya5UMtV917jVeC4e+YG
FJNL8FsCzQHmV3RyIKOL6p/5nc635aniW0RLZQRJs0ycFM8Z+c5v2YEpbAZkNlky
dmeJZNBoxsyPbYP03nmvoGbKwgIh0EEKGUl7zpKojM62/aifIPoVTBsQpMJVZC0x
n8zCzKmvaRnC0E+rJ/2EalC3yTn20q1NI5niGu4+M4vZcRS91wTzZAMqKu9f3WoK
i6YvLNjt5LNY9T12J9JMlXXQWWOXL0lvVBbcgFJ+qExqz3xHW2Qmv3b33cr8d3e9
891qPzltUGtSFfRI5TgMMRc7qVTXvB+60thZ/rgb5hwA7ceaZQtW6JUrA1IgybkG
fa4U12KDXyWMCwf0tnoHt7Eg+Ark9Mtfn8gK6JLUAYH64Zgyt8/aIf7vI4RWl3pZ
ZHLqqgXaMZbN2XbfsFYi3YBhmtsW6xfdO3VQiAshQCdFOAo26qSvKtYA5fVs5NAE
P5M4+LYwaQDVOiv1T/GD1Vuodl7sd3Ou86BpQYFIvOGDQtbKzyS2lwOVwPze1+/u
0csxD6MofcE6pnx/5axYuiLtoWUdw+7KG/JWnJsID88KvaTsftEThbfvZL4XV6PL
6rTaaoNyOwxqIPsw4mdS+wNC8biS1dUk3rFrqVGq+welDgtzk9JygVVlyOfsIFJq
N/5f0oPCJys7WVGAq0DMfznR/4PVFE1IEXIF9NWFWeTatb61bjmJQVZzHkfzN1vo
zfVua/eCKQxGQ+wxYh2XfCtY9VTSUWnuMlGYki85bzfkgnuNioFV4k6/+xxG/9L0
eyYmKDYpqQma0WGIFLSoAEVKQ1uzKzW7fJFMwBXxZhLgRYwh1XSibYoaEtN+j907
6vAcgAMtBLaBVl2cqcp38KPNEgJkCuXNI2iEL5fWMU41SDHrA6ZMAIJppBdGplNu
189pO2SNwyM2fU2kmaSpL0c/JOcZOvFU/layJqSOK3djtp4Z/wPcjth6l0hu5I/j
mFUnO7GtuVhkRI1jdSln/tGCZc82ww/B1uvhIFM37Oo0riZvaEKQbMEldDqlYqfQ
mmmlyx3Z0qR1xJL9SndHqWl3owoMwt4641dhHO3nn5zQiYOhcCjx9rfbuyQwVURt
dRQhYqoQqxsr0UY6xS8jOHOGX6OhtjpQWT1d/f125sX+2EYEppMdngoLSL4F66w4
gqnQRLBhI0gAZELNWj71k0Di6QyyTDUpj/RTpdYOG6GvldFFzu6z32KyZEt36Bpt
wZbv46w7q6QeBoE/VwRnrA7cfzAhSUGDu2K+qkO7IWJgg94AggAGAc3gdOoLZvb4
QGhSJZIc4mr3YiE8zucqVs/UseXwUwlDiE1ZJ5pj5wptOn8QrNPsWZ5NBoCz0A4L
6gWTqcy13N/sSn8uRLYvAq0mB6aksflfh+8WZpHCjscI36OWkBqbTA4BLiFWGdTm
DmXU2mEL/7xLacPIctGSrE2Z7Us9yW5gNRX0EqU2VtorYNfcGzyuhLBCs5vElJBQ
T5m7vUCS3JdwLTYvQXzlluCF7EGU+Y8UIdIOdiAmu7E58aiJ4Xm05SZXyWuAdUB7
W8EU0ba8gmZXDwKkpuSHohqeDLDt/Dj1/CnZo8NKYNGziLPOBTzFtj7Xa4P8DJYB
483eI9h6U0HtB3stUFA2lu8Z0OWcAbRt/xMG8mjyuKBWPO8j5XWEDYU3qZzh8sMM
IunQlwZCH7ByWZ64cmVv7wjP3+cWDuDXZyh4OaxDmjAzwngB64gJXBltmdDZgHxa
EzjxTYmT1pM67Qer9Z96T9mqDcl5ihJsgEt6lL0ZUK21pZYpuB90+x0Yr8lJwqrr
XpUAKDIWKan8u+2TpXE2LYq4WRAFzGq0IsBPkwGrT+4SsKEAkk+YohHeo4nfBsUs
EzOj+CkgmUdQxSxDvydN5D+C5uJzqt8fs+zldPa56i1wBFajzWX3g7tfqSI+s51z
Vg/Be9XwvGrusZLREqW/sv0wgyCNvrUnyom4V5wdtT1/0auicGU706c7Qnwf9MTC
uF7uzsvRmPcIW5n4YCrkTswSyCKYbAeUNUXhck8c+LVM+OcPrEneepo6g8fRTXoH
e7HPalcyUslCzIDADFM/5KmO5deSgdusrPycibNuH7B1/nUyY25B/Z+JQ1JYsF04
LobUwJHjfIDB9GWRU8RaarkicfPdTBpLQLDxFP4PVMJZOwRjAGWi9mU/MGcrBwQi
6Dlbc59QZA+lV16HDpV94EM/e5qBgsrFV/dptLlEWNLKnOQEGsG5y6130qbhJTzv
Dka5k1VM5Fr3LfSqz3kJ5jhRPiprynRF6jHVed8RJ3wlHdU9vyCemZD3oa/4OgYT
lOOl8izDq8bx62CAgEjcQkwSFM75mPJDQjvDQISPVFI4rJo8Zc5KbIe3/2AXmX4L
YIiBz7DuqfI/7cIzYTrQeX4vsW6MpYQQW87w8tVAV0WLj7H9Q0JmoJoi2ithG7xB
9lWS7aYbzGMkoTSEGQtLwi3D2CHEV6UO4gXxbBmiDkuSPMteoRtvHAS0K6vXmltU
ECQPSnDx8SGlVRrpb4wYc1mWkDZxkJchDIJ3OgyyW38OwfKgDMn8yXuFZrSzyXZa
+CoEswUIPYoaDCLkoyxXbyZtQpCdNwHe3wJTKs1OuuJacdoEtDY+YoYj4MFJHkB/
+b9dccW1xbOY6MYm2leHmGrHQhk0oX+wJGUCfvj1uMNGMghMFFui6HoWB05+uu0C
8dtM2gOiMRlHbv9QnOYCarDSSa4BoAV1guysKIxyjUa0/pm/72z63/tI4mMriHGE
6/Bie3Ixby2ENNOrt6uSwAkh2474K/IY99OOhEDGHddIMC6GcNqUhUaDdB9CBWfo
rvWR8chKPXwkfn5R4CqMmnKhZhNIJfeulQh1xom7P3teQAvgbQ/e18WkL/8H6GGU
Cqv+FfiysXGdtqoZxW93fZIAq+yGpPvHuUn2gripwy02upwF0G13cpsuEBskXY18
2JC4oAcvQRumpqT2qTmluZuKL03yIZbWxxgWhq9oAa14QEPfOvp/5kBZnFUeyCBO
MdHThdzHxcH8/dYdp4SCIbXlrpak1yQc1aJw8nMDRLsQMRZfCxF5eIKGtsA6NoHb
Uhx85l5A5aTqtclyjZFMRWrdk0Koxmo6o7s2leeMAqzbg83o0Mq+NHfgzZqMvDUZ
xEzhzIOQZb2tqy7EEq8SwMOSKYujXBghlBXaBZxjYD4wr3lLL3RBy2wKOhzY6hyM
oV2UK3Fu7ToFMGtJvL5XV+k3hGXx0CuIKXHjhXE9Y8NtAbhfpxxe9KHi89nZ/Jw2
MFdV285eIhEVWuPpaIrpKdsQTXqGgrX9VoVNFm857GKqGgNyYVW/lrM5xt7bK4NW
/CuKJRZI0D2Mm5r0SZamm8IkC0jc1aAqAsD6Rejc472hY0+WoERWmbK2P3sF/g2m
0u8LSdXcg/ZqqEk0vZe7frzWD5NQagL0et806PF4GgGuVVZsu9fCtV9whvdOzaHB
bOQplpYDcvHlKIWLCcv2EhNaD9PQhO8qkFgVRh9SBmKpgJ6rYFa3xUqrYUV+smUo
IBTLx4N0b5SsLgJePloubdkp24spbPcECgQxL1CBwO6NT/4BaqRl57PHeVJQew5X
DSeBE0H6slws1qge1ZH7X3Nr+EAddKspCzn9lMJ46vXSR3GBenuEjBvjHYsVrrQ3
Sl2KqA9vVCV+tyzLwWzLcafhupX8Xv9gSEiQgQldN5QZohaJWk59n3cBEeOyfL59
ilB0MJdjtClIuDPwCbMSTKGUjJuBGxx6I5L9++GSHSlsGnhvpr3spm8q6OGC4loX
oR71YONSAUjlsmcugOTRur8OKF2RtWTKuBvbiBxbOfwH+i+kgo07AVs1bXiNu4dQ
Juhm4BEqvD5KYhMejjh907St4blgT2DXbVg1VCHw+L5fSrNYprI13/+k0eDs7NM5
lBZ2UwvpKwxfseasJsSo8XuYqf4VoOYhl76qAwGDtyqeUtcJRUaBpcNep4M8+dx1
LCqWZXbUt0OWMOQXZGhrNA5nJj6JrS+Pc+finHnR13zUztNRlQwaXVc8PhG3IfII
HuxBUOxIfiLW/bfERgQ/61RMTLaPPoobMkUpJaZ4rYm8tL/bAYa+8JDCORwEjFXS
63iM/xQwJf3zbSD09fwZ9B3ApV/NYIUWydKndh6i5nM5m4xYbZTcd6eXY+/kStUL
y5J4sxBNx82mmwaz8k7w53Fwob3wvPHduiRP/DJySVvQfuMHSoNWxA4r2VM+DXf4
Cb4JRZoUKwzY/Wkfrh8EW4swaStgFLzvg+eQbG16G17/DP5KYidpsdBs9vJXK5s+
dDjBpqAWYurBktsDdhcVDSMt7eFOe0ccWoSFFodo6HCvRab7ebH2rmMRpDOb3AOj
xvbep1euE3ZOgWKupCtba+aGPdPfY6i69IRkymRitcvLQIGGVaUCK4Sj0R6gYuIY
E6LGdHoaJGQSxk2dR4KIkW6W1wgwhfgz7SqQ+z8/jV1YqW7Kp4I5lScq226TUJC1
74dbsJ+kMm9nbVy9S2qulTEoInOM2NnP8vNul3VYU+8bXrg8JzX0tQAWI8pdwjK7
t8uaRX14dxNsg2RRz2nTK6VAbaRCXex+aj8fT6WzMh9AX1O39vAe7ou7QKj+uXsF
5QluuT3l0+/Epi4qKlXqa3fwkZ8zneEpScvrgH48IHYiJx0yYUWIVepBEiWivwpL
IItdDbriffbIJ1CXT4aPeGnoM/VGNhwLJAy3HtJYeaRna8rQigIlEr4+yz8DIW/z
FmhSKo+nY9MdxFBMCyJMbPphYZgJguBRIkzOyUb41duOATPJ00imcx9w4wgpCMyx
S6UZaRPdWZUgjtxgnqbAQq4bokBe/qp9ELdhE5nCUG5CPRFe6N/iQY9GlCQOC8sQ
72gq6gLGcjAtF5iK5cLD86Y5GsQr5fEO2nRXS4+ve6KrRjYIqwUTjVQM1yC0K7/i
6YqT/CbDf0edGUBqzpZj3Z53pqu0V6EzCo/t99cyCP5Ts+ITiUTMFKVeIg/4VrEH
Rq0xzgV8J7oGjEhFkq0y7+2AbkIy4MrD5fuRTJ5eW9yLBqvV+DdL4fUn1pd9GMPj
HqIhB8v/MHTlGgSCbvmgBFL3dP/NXj6DDlGAU3x+PDJRI6ojC7Jn2jQ/LAnOjEJ6
+5MFoIHodPIJL47fXuB9XG2SySWsooUPGH/hpVaLiO7HzPl6ls8l5XCXMlgYdcsO
g3gWr3lB0MekXUAXISAdBzhbl+XwcCMhN2SS5SiEVbzg/z4il8iv9kTtv5UfSWB1
3EqVrP5f0ioDa5B94f6g38YEC5SdIoqBwT7i0PyS0cmYvMRerLRDCotOO0t0Xvq1
o2GtMROydSfVOuf0n96QQV/2jy7G2EJfQXjMIwRwguFi1P0R4az9LnK/0NLp0zZk
NDTl0l5u+gctYuNFV+PYK4DsT8sXndfUxUMtBWhYObWvYtCjZ7HlQy0Y5rr90vcc
vclDqzTu+FbnkBDZOTWcQYd8hFMUClRR6W3u0Hnhd8UdKesLfXJFILAKzcuQd58E
K6NDhHkgnuYv8oqBHEkfMXV4ptKyump5RrmR5szcR4j08kqHkXfGPMMl7ouie87E
poKY5Rx7FB7CMevM1TPk9obMS9ryVrccOChvsa7RX4DjVYboR58wqIrK8M+NGEgo
/3XrYYNxN0OozQaavA4o2O28ME1bnrjIkgnpb5j1fmdvSH3pC612rSdKoT/dxupA
YVu+HtOJb9G4j8NwySyFGb23vPIERs0ka1+CFjcXcc1qDjgKhP5XGzo9wJ8V351Z
awZS+/54aOuS4AnYwZQUd27BH5VDc3EsMNZXq52WL2BL2+Pq8axGQ3Zo+yWSm5oQ
fQsukBp+OMdGRFvog7g/gJDArHD7pL3gxzcAUjXF2FDzYittAf+1d+rCbJe18QOy
kmILXNKJIO5famFHUXrtY4bHFs68YmmJZ/pbY9yDFwI+1ErmIuGJUAJd0Y21ooIo
StDCsyDTdunKNQCS9v9G1zGSMDktnDEn/7QjoZ+RXumPPRYUdGS1AgHgGQcpd3ZI
zXBe1kn2VELdYxmxWY4Bu6tTJKsqYzNZMgKVsN4r947mm8YaxRU+/ioZhdAbGIE1
nqGtPRMAYGl9V88Pc+uWWmTEsi06PEnf9vfHBSZBMJ0lI3WDA32KqIom7oKG6H5s
u+B+Q5AOvxUTcev75j8KXp8DMbnVdjSikBtrBCoBR7+WYRjCNSelrmw2JLrguUFh
BaPh4D0Sfysa0P8oY1RsohDSFclMKfeCLgPtK/cdvB4poPQ6YBvvf2yKwdNiTemj
6timyxLDZf2blVEnQIsoi80c1xCVBJlXYwES35XvVaesUyJS264AZgU2i4dDwjga
42+Bh7REGkJiuCsgqKRZNgKXZQgateINewsMLYr6wc7qvr/HwyiiqDkdnIz6qZXQ
4SeyJv4HAmIuQ3biOj8+CPygrdQo2nFLvFmCcs5+813N8sMucxDmi4piiuJjQkxC
2RvnHhUuWQ3eCpCcTipTwn+70dpZ0o7U18OjGi/MBjsBFe2bwunL2lM1Z4ikm085
JyqZx9v8Y6UI6wzYvtpdkDz8nqV/odTKpqqsb4NGAoPaX7Xo26/9CHSJLGG3BbYg
ol1gMDmS6uGBR2I1DvZEbUYq0YFQfJw1zNozDhPxx7nYlEd4gqb+XVD0uJ1wTdv8
62ojJq6EW7zkbdHDRd5TdvuV5GPdxLpe9OMMuZcP7kIzcCv08oRT1vc6MpOVvME0
3DHs5Y51feUDDMiUiRUTjUkbN7gkPaDUTNota925XbKeb+M1T8XwtOla4vkSNyWK
A+vguIvWb+1RTz7kcK9tDH/pCJJWXaUM8huDRpLrHjXtlZl8sr+jgIsn805NaByt
qxRghWDcRwsAqImu0D5N+6fSri22x97B9e7FakRxon+q4z0i2tS3apGBRajg3pGw
AIhrcvpusKB2Qtxti80/T6C2wleQ9ZBRiychFA6JllIWoV4iMfgkvKi10pL6/YlG
93gUnfo9C/6/A62bOP1daNXEO34IvbqAZrdRgIQ63wi0vgrTYxmoib436OdLT+7Z
nyW22/T8Kqsb6vOJgvja2/CWx+ocHiquh8sRHZP1heli5tfcIkUUX8pm7inB7pUn
RS55K92SJ6+NSOB+ytKso7ysdLm40rgKvDidqgDaFEuwvwUPrZau9aQsNncNV2p7
6OkpBLvuckJKyAs9qacHnyXYdiGzooF+ltEVd26zNsjA4XYz2rSNLHtotP35QO0H
DKccKDrAZY8wy73kIUsDrZnhgemCXQS5+yYS/U8AN7IVMTZ/73mLRbV6BXn2UdUR
nUtrtItymN82KvmN10B4FS4+JToqvoXS8P62AjOpxpiylX9htEfRY3IkBkx1TcWc
bldeAKin+vYli/f53pUpn6GUizBsp0mBDLJI64iCM6FD7hGpuO4uXwAIGUk/C0Fn
MopH5mZgeHoCJdjd0PXbk6ruQiyF3+7slscvewYJLbhW2s7wd0k6bS0vAo5n0Pk8
aXWzSR0G3DMuxgD2j4MxH2ERFN3xmv6exnUFYAjR7X45S5tw47KzUxgBarNL1wjv
jp/30x88X40EpWb3TXPXrvjD7JhTd8xEP1hTjzkOx4S+E00SU+i3fb/8hdKmw4LG
85ARYLZIPfo3wyyExR8/PWe7iY4Fb8KNnNlLZPzn1KpDSy1M1iPF1aKQ6ypzLNzT
ubGwLXW9jFg9Kez3IBsHyU5Mu31xCZIf3HV/uGPdIlBu6nXOKaFjUcedDF83Yys3
O8vfXynlbbJwKnnHrzR+0rz2lHmdGGJf62JH4NCaQYGixEvim/Ki8CZ/4YLO53Wu
API9bOlXcQMOt9cy9ckjzKKAQVlEiwqO6+gZuzQZyiizZ89KMVwTqt3WU38EDdMe
i76hKWGUiS/cZyQu2SsglhlFcH2QaGwjXoptQtFJBQhFwANNUC4n6fSq/Ck9l5V0
4or46OuRrtKufAkWH65VCiwIuBMrVWZsIP66ExLp6JXFHRf2F3ajsm82QrSH6vIP
cDUzr6elWW19R2MIvV3Wv3/Rl4Piya50mPo3LvtmnL/s3p7PRF2YLjDI02ope7Z+
FNKOU87C32joPrz5BZ6HYuYUI+E2OnltJlIbK25e0xtY0fuFd+kqBb/dpya3K3xJ
ci90R4RBKSNDmmdgnhDxtUQP/FupWVeeY5JwOgNgyisTifzRvYEjIbcvNuOsWpuK
I3SrIfDmCKvd3Tg9edvtrfffR08NlFsiZAW48iPH1eZVQ9YPsHYdB/2SyX72C9x1
NEcVwNI+zxXhQu8uLXGjBwrx8rKkG0lFQrEansLnS1raOoXAheN6Sy/q0row+y3r
xahfq3Q9uzkcTzxXZQT8vgBuQvHL37BHJCwEhdZMYfZb1KY+EEo0lZ33upZEyjTg
mjA8A7Hoak2qyRUncgo5P/tUYUFsPgjPnrKmYTXNaaz074WYVTQXnvQb51envgFH
S+h1GaEha6sC0WBuVhxejYvKPIUFkkwtihNBB1QarMXqp4BpxoSVykOOcSG/vrV2
syGfVobZhBUWTir/2zYITKUB/+uZ+iw2VkQ1TbB3JpmSFmf08P1lAGE/zRxBEsNq
abZKXRGytv9hluptWq2BRI77gcfBoRzdldGHOu46tEsxpiJJMWThhmhcqjy7wVlp
xCm+xVmpr2BK1O9EXQkfNH/Gi4s5SVYxhokDOXva0fecDcpkS31Hzf5SSCG95Unw
KQlOCnLz18wnYwE7XjuYjfJd9jhonJ6+CWfu+DxujPFvchyvdKbr2BJb1wiQk0Ri
goaeI2VKBeOE3S1xpjVh/iVew+tPbnSEa6dLNnRYKDF49PFjeU5Pcp7W+CCd3+og
xX4Z0PLEjjnz4WyoWOMA5YmEVTf+HRREX5jXmsiJq6FI7IGEu4ZZLQYgVWfwqJb9
WBJgFmMptxtVZX/9ccOSY/2J0xG0alX2OO90blBawpC1d1z57QRqL7bTAek9Nbzi
T9JSOwvn74dBOyFu3iRr/4uzR4N66VAZNu8IQMvMWyfpZ4e2pCC+amyv5HKxZmRG
bM1mCeArPDsBIxVCZdi3FMnUqMoGTR6GXJs/UfZtc3GWkbeYAqYFsInjwFWrTLae
mG/muqph49VGpGUwwyvI4vaZrQcPRzzdDc7s5alAFDMuSoxMtNHIJMf1aUi7TGYv
5tGA9Z41CzPgmYGfRWW9sQxhuoFSG7taAkYSARHcX6AGCPqrEhDyDVtuNgEw9PNC
c+rrr9ZF7mg664AdgO7J0CYWiPt2DRjxoo9DLyHf64ysonitYnLW4Mo2BkU1Z2UR
qiN2DCFMvmjNAtpUxERQ/IM6vxKG7gyY4sMDBHwcOu3mwGcSVIWifOMvnUpYlCjM
1kqcQnH7QTmeMtId3oj9Y1qvVfCj9H/ZVdr/KSISpmoKhi8e8j6FQCzOrcaFp7Me
opYPxo4cTKRxWGPXzHQY2xL70C9b9pJ6G5kyv2TRzJT03revoPxe0npCso/Pt7Ng
0eBlav2T2VSbEilOurprP6/Z1jecu9Urbot51uOI/Ma8XK0e3hIZ8vEkpWSy8jX0
tM1BH9G+rGcx/2DP6Zpw7GqBjRn5VhY9lJsHSUEErnPfK1N8WE18B4oYMMqJkvFI
yw7zTAH4NbgaVKTE2jBTEm/hb3r+hgW/H7+x/3DZ0WKks7L5s1aiQ3H8Ofmxw5KJ
X6DKoVIQuaTj0xST3KIMsR50t3x8OIOkP1As9KRYW/SLGAgAUFUKsiw4G+PbBkWF
EtVnGoB/ZDNQwGuacy6YZfyb8cXJ1mXooxXy0zEORuSrtJzagr5emOB1BnRAIhpG
WbK4892WEHSxcBWrh/LIrtWrMCG8x6VBak2YeZgxDF63u9ugG2j8Y0K4T8RJUgYS
6XIWdr1OIz+P9/b+nv2ig6n5JUU5bDgEVwQVuDaZ8khTx6byQmDxdURAHUaNFaJa
9Lefb0TqOhMMoipeozafKiA8XADcZ3Js7R9UcCbEuBBrukoDsX5cMeZLPrVsQdP0
M/IrdyrL0O7kfYTGIrlrP09lkh+StJaJ/nmv8MBcnFtDkZ/vG0vSi4mBbEg+dUGY
HZRK+lttvEiAaOl+CyvHmiL9I/KnVWR2Leq1VMp840ccefJzdt1tSXi+sRNDrxr6
LVrDCMvzTSpFbj2PI+0EI9jN0aOxba+1/mEnFH40ug8G2D5pKisNBpTRD8TnbQFn
oF75MSZBtys0M3rwV16/6qi0cHp/k7osr5N6SsCZ1IlxZD3ZpUrCHYsPuE/EYwjN
gtXky52+9806Ssq5qOr1Hskj+A5Q+jaVhWcpROT2S8wmBdW8NkiFKlGXd42fe9J0
sjtULU2+tKwz1NL7AZN5DQGXWtSL77PNVozZP2ISe3XRPeXE1HCPi1NPPgR6UWtr
IjzicaCdp40ns5lxTDuzJkmfBWLeTten/wq/OUzXNDrpdlRi7htqW6Aq2tcVNnlR
yOUbnmiTkbOUU6NovW4JXd/m37WpnG+MRLilHPK8jSzV6ifdInCaTry1qTozdGD6
0oOSibdYlyNzPjxm0XWgAv7i7WUe3uS1xnm9OGU2cJnszmDLmEK2azbEU8FU6WCZ
Ricnh6upa0a9etRGJ+ABjS7uWW8hFUGHdolwpcHOsp6SSHGXJAYBbsxrQzMz+Cpc
xTtxjBHjQOeyCfSioBQDIwhZ7/gAfytxrtOMV106mP01oaAhYIevWFWCZCxCjJF3
u4ZwDVoWATEvodOIyR1dyZCqfE/sC7A9XhVm3wnKTa72a/Lv3KuJQNkhptMO/ZuT
TzJ/qmxaMGxDet348JFF+kjxQSR8CVUHY0lZeobQcoLC613aSHKF5n5ux0T2uCvU
iXVCcXUYsF7GmRiXau0cRluIytK02bI2BZo7hKwHHE0up97KeOasxRwBX78kM1nv
zMyh9xXAeeX6ZfkDe2apYRvsMZ0VieoUQOTPl6u7tNHy5qwtfBB/JbnJEIq3eJE+
lbhyljJXcP5oRff7EVYcsPynGSEd1ErIbejun2olesBwd8oAj72vEGYPTGgJ9zwX
iIZDixgXlrCNAQLLFebn58HaOZ6n7mqyUFFT+Y8O+kSoV41HcnDTtLmZhRMHKDrH
ry3shKemkAe6orIkDn7q0AHAiw+6vYL6Qa4JDaEgwlIf+P43HAzyy+C+TSG8NApR
n6h/ZBbVzb0mor7cVWWjPKv3xSHeJ9eNQmzVos6YYFyBnaDFjRGPKTBumvfegZYV
McImX3J1lGTafTt6rHlELioF0qkgn0mYk2NMR1pt9XOAJ/5LUQlYuVW8njO1kNOj
+gXpWYpAlWbOdFI1JIlsMxBnH0VOJl0skF71Z1Z4PmdjOW3Q5ItZG2LYTnBXHBVP
702ezZTtje02bPOzUUf2FhvbJ4v0xUFKKlSGeeGyZ7O3Fk2y7Wtf79KuFQR9u9IL
ZRYRpp79QG4l43R3Sk5jgnRkuq/gCWQCeRII7y+NQzbheorhsrWNnhx9kl0T63Nm
p/AjxFycK1xdyE04Zpq75ducPNxIBBHUml350gwoxwFfVz4i1Ty9wXgARWI/dvHZ
CR6QDQ2a7YMEMzw9n3D2f+jw2Z0KvTiysj3e1etszt/sX1OxBkfFquTSSVwGFoME
rS1JppFhtE9czEmFbpzEphhJxH5bT0ndInR4hycCy4VlmOaaygg5BuY/dTmcUUI1
U+qUCf8q5Y/t4XFwjM+nvpg46krs4dnBIEAs8CzhaSXEoFiuL6MQ7WbJnrA3PWcx
mp0kr8rT8IuW5CfNwAuzvzG0s3/SKDeYTeJxVxImgl6kBnwSnlhVNp5rLCCM2rvV
71SyI5QG7k9MVOEWMouILxi3yNh8jqxfPaKVkmk5b63OoGRiNYutOgiUZafhnJUR
clPnOc3TcbsavyyhJ1G8xANcb7oqzPbtJ1x4PbmJerIpKkderCk6pGv/t52tYdLC
Stp2Tgn46Qo0MQ3YY78YvaXoOAkk8tg9s9uLxMYL/K0vcMEA8FP1nTjxtweG0xxI
jRsD41JC7k0AzJ0FdHjBSd9awoxRaBNrkXQmnsVDn+9sBzyXgC9COIIkZpMTtVzu
LplWDvbWKD8ctxPRTN6kceVILiOOuxykPSDdS4xnqQdYsxSMaRNDNQhO8MoVF9cy
gbVc2EcdkDgxlTam01rfsXHYC61vW2s5q95RuWiBtQenS8/aRrA8TqImGb7YUIEH
g7qDLocnNp1kG7GJLKKW8fSzd1pV1tAndJdHlVITnLDocI+hNoKsgru6hbYS1uGI
aZGDYY7ULmKnGvTJVgWG7oBnkF4/4c2/lwHe5dYLIfLltTUoTh45IeSOaV8Aj8dY
VDAGOOthiUeWRIt/O3N0wo15LBhjHbN5KheXO2VNC4rkhW/4xWwGs7Q+9Rp/dnTf
r+y5fhYy8C2PAEchmHkTHgXHuVjzXFNHXkxZfbOVgs6oOIlqlsp5M8hZoSxKoIXD
aHFNlDwxYPhFQOuKamOT1rYLewUI6hQYJxaZDeS1jO1Y0XE/RrMEsRcXDkd4ni42
ChtY6j4oO3J8ujCGSSQD40TzQXsxWen2nK9zr0aJlW+Mp45hceenO5C8JIRQPS3/
44xox05Wb9077PlFbULDTxrGKKWQZwVWPEnqIECLfOcrH4bmQyXag5pHT/AA+Muz
3X762eb7tx6dbAP+lpCKg5OZhLMldyWTLHhix0+zxdyLve9IjaqKmX2d9ljWVw5f
/ubqxQSsePMfXl+XJyPGffRWdPZozA0j7AFsLAb17/3ns+omKpTnIS/rXVBQSTRq
Z1Hqgh4c7pZeWcS1eNwEa4gG9lpSdevHRyZP9ci8L6FvJjJqDOdZTI36nsRb59h4
wmXfoY/6HX1ZrtFt2X2jCxzeC8hpzR3P/ZJm06lR5COz9FrtVzLNt/gIOY2b1mVK
IbFa/luptqLH2vHAPvwpEheMufadtRcSo93zJOFNHTzFHQCcRpPqAx3Elw8d4uXk
pj0wOOw70x13CWVOOHCG++bqO0UUxcSGdxsgrTxsmTP7l0OjFmP/ELVllu8iEnO9
TLwhnBOmDvdmQwnSbbUpHCYUXo92rL8fMwreZBC8P533wjSXibjMi9Fm0x65ivlj
vspfFx4aF65w1AsB7CSnqwUkcF0C/0Nt0cPwjjDsjrDVZ59ozDRgHpIGvyu73lsq
izY6X8Rq+eLO/dvgakCUD2qsr55KYN77mFJ78Eg8lcPC3eNKHkf0zY1IVmzmPBB0
eYEj53HnRzz/ll65qshbMyJ2ysE23htXYoe4Bz2Zz8l7UmwE8GdPgDVfjSHcEPW7
DYqADdSc3hn7CCK0DVxRTA7QHbZPufGxEGr2IL4tUnfilY4/QfaqaWCErl5NF/Gt
8LbEK6F0pwBc8qRmEMmDU7aVPVWVX+qGAn2MEAppTpPKzyVfy64gWRc8n6KvSzd7
rnsE+qT9xMH+tLDAg1E4Uq7+JPpZL+DJQbT1UXEGwi/nYoQRp1+nLFBKuJzo2reo
efWJTprZf7h9NdMwYJUkvXNjxvpnDTqy2JpEOmgHTieSU0geC+z/TBhGAL+CkKzM
IxkV/v+QvApvZVAOrAz4CN7YNcXFUQnSh031lyBZxQ4QPAv2u7TbPovEUXg/DEzc
Ez9vx6KQfMA5478Icp9jlX4Ga+2DbqlTfjpSfrnh0e5ShbTLM+l6cAht+YDpSaYZ
k7dBw8qSMSi78mEmY/ND4VY1E/LLOAypp9lD6IzFALNdaz55gY6OfkLes3V20NSl
4XHbBs7q0qSByTcTR5mq9mqTyz6Xa/T5HrxsX6CghKNKDgl0EpMPEPWEMz30IGGK
ZzgqxZKXNBRS+3nq9BDJ3AYsFCu61mlveFjEIh8+kL+v/c9ZIaWa+7XiTvkwodfU
uwDe1jgNDJ0MeOd0cQcH9yqTGu0Obdim5j9m5O6MSfPoOw/YMiAiaFaz6zEUkxVD
gN4m4iT1F3GlTy9ap0t27cppPYkJWzBvxfGxx7wtXjbmgnLfj/MgWXuWt/rUmNV1
4h0x9y1STHBKHrXl6NMGORAwJ1uw+yjaP8G9M0lQOP7tLiuUbkIwzAeY/yNSi3m2
i2g2mpGIlRLviaQOMgkScHDcA9dpjwJNKfif0BTzd70VhQIom/HYKrASRauyADxK
FRYRjWX4fxokFu/Tmeg53eLQ3Q5vuLXVAlAgBHpdxWMD0O7yhvm30AE9R4Idp7X8
XNS7UqrIGs86zZcuXLCLB+S6jaTK+eN4dAFDF+3adFiqokJiT1dJu7DuIX8y0zFW
aQ1jjQ3Q6s0RNEyAnVTqzGv7zT4Srv6tKoDFc7EoXHHRxGvQgO8R3QRu9lCBU9Rg
GXmEw/+VuAIIs0Rc+ryZJ80WXHJLr00f/3E3FHW5gyrNdoE/SGEvMp4OOqy/cNNA
cQv47sVEukr7QQygKm2XKKtl7t6SlK1T/ZreLfjW78+b6PHAjVnMgamSR5LWpVAo
0AeewWdNFTjETDxTEJA7CRPlDw7gX2VjctK0Su1vlj2GLAxaoH82Ec0wlvWqXc48
KXVnshSz9li4OazKMNKz94mj9rBIpKw1NxvsZtBEcJbw96Umdu9oL2OnmDhWGkyj
bnASkz1TIsEGdsN3KpSxkAiwxXCQQvx8iVIqI0ZEzToRFg54CSetvPmAMOXq8AF/
ekv+8GBdV8z2aB+YXW1hOdnQUcXrmviqXSy1MuCRe3MNfFpSRIGqvy5yDvd+2IUM
O6Jr66MKX21uir+gtar2fRhfjRJ1W7X9wjawRgTTXRK1Lrkk+ceb0W1sWcBRQG7B
u+j28lw631GXeJUGYSPWlqyOD30jMpNzilTPfJwMTJT4AMO16XjLhaXz9/S0XdU5
oCskIXGXkjXSBeZO7+JhM9uR3Ni/wkG9z/TWeu2qiankUTorsqKaeos0yIM6u9GP
s4dw6bG72P/sUy9Nw7HLCZjZhYSBa3GAIKVfTtJx2YGU13iA/wnuiC9d+kqFjQiD
pwxIpaGFnFDLfVRb18rPO03IgFcZG1TIIB77Ainlia02uCJpbBLRLtj0IS1f1sc3
3mG3t/S6JcNeSuOOMzRB9k81V5Npk5WLPEvLctd/FMEFBEDY5R15mB4cz6mk7XNW
XuF+S6ZYsjiMdVSRYDtPkUih6Y59fIQehFcnIJ9yNzg89roqYLiyUEIo2gRRV1BH
BWMoW7pmSwJIektoIIoGyaH+33jxnOWxzPtRCwhnJCWwKHG0AF4WT4b36u2uIoiS
FXUewzvSPsdXxaUlx5XTW2ko1THPNw05e9FFtb/3m7il4LBFJoHZoHdJYB33yYqm
g9IB+Vs4pNlHx2yZYIqFJYwy7VltUwn98i+pKkcICG4lWsCKJbgV45JZvATv7hIk
8yuH1bsX00dp9L+QVD6muO+02M2LeFAYofbbmhSjGFkYBVyGXQj2e2pNNmojEMHv
/omppZyWWRpVhJjqTEHOocW9p61pybpxhqvlbICDVvFwo3l9GnOF3escDqmw+wMa
Be4ApQmm/PboNx+zzC7BcTzd8cXQF6b3y2bgP9ejSBhu5yZa5jgA+0/0bOWrBg7E
anEfX5XOR8yxOCzWYIOsQeiI50dOKtbKI5uPbNuNMmbIS2lhkIm5LBJ7IqrzxdLH
IH8jRhVCqStLmsBxAF1/xgVG/QtC9wMMUXwMhO+OUm2sbm0JC9puLqQ6VaZGkp4P
c6I1X9sKnpVEBPQni4DdnqT+ySzNUZFfIMQgf7c0XbzB9XW2ukW68brluZR2rz1I
51Ngrcqsn4Yeams3w4K9BNKmwwzBjpFF0j8UPqz2iGuZIiJ7v9BUWclitkVWgevS
Rn6yh1TeNAEqHFfaLLptYIE2TXfZD9JBJvKzvPvBFjYc7zvQqQ4oLwwCowziEkfa
PgRrhtlNGSDzr81Ca+zPT6jahHRS0t51YvXVAHfBNJsBrLN0CS0nzfsZ2PbRU2GF
6K4ti/g7wlBnSf7rdyPnT8zUthF8iMlu2WFoyjKduo5LL27AMefrEe4U5qDwLsGN
2b8bUD2e6QOsKRbnWM3FbTVSPosjv8DyAoGOgGVF60/ux9gEi29/Epo2CNqfv2M1
afZ5QIJKx8IqTKlPpUrMyJwr6C0a8W3yJFrWgbJuVmbXVfFi7cMVeD14cgpJ/pZF
r+bvLCDBtezVprMAaa3+s1cuaVS3K99DZhwLXnkUWcH8c6YVDdsgTWilpfT665gW
ygim0M+wGpy7Vy0yJ/eHbkX8ApB2jm+C52B/UA/lpETggriqrshJZXBxBGNVIgfv
0Taou8ZRq2JBE8UxVygRbVf3YUVoMRuZ8O/80HQZg/yLglt33aVns/eFwhFxJy+q
jgSlMiSxK78gEmnfdTFcIYI5Nd/ghWgo0kkkPK15YJj9iRYr/Xs2hrBzYqUkHZxt
XASU+gDcA5TOV8VOtjfpkXMZAF9cpqTz6zI7qYaebuPOuVcbpkIRMwxECLQwFF2T
qikwiCez1Y6gFNxdHseEfbHGDEmK/LHYvsgA6uo4RAHSHGdt8iTYS8tZ6v/vNKtv
DUH7Ial9pxMfyd+wNK5CjD28VtF3ah1PwTcE6jzWVxEs7I90VQIzkhbIf8bz086f
Yc0ebELLPm1mpMSq/CQcV6OWCfbdr7FLH9atldVDCZ+vXQHAucxWi9vv8F/S/ak6
sHdDarFF7PcU180Xme6cnDJ6TwlxDUlwJpiCxjQfXnVsgA/jQ4qXGSK8URl8uQWV
GsR9ElrKV1scUI+Wa8uTnhoyAkiodwsBUINwi2sJnY/Dyy3IPmWbvJftrs9zKJDd
etd/o8DCH/bksgqld6Cc3GR10xxowIZ+XTJ47zYVn3L3xZiaiHD/QtCmqZEtZvoL
FgSlXj46P8ImGJvFLTN0+VutjXOf2aNL9pkAi8PEzsRHVWXCUQ58tWK76SiQkzog
PP/jUEzhBZZxg1K+7zihYehkSLcsKb/HjLP2Y9B/sP9LVwDxk/7gusFGl1XrBNzH
d096x4qYHk9J/rSJhG2eFzPa3LHWr3q9lIFX5KR2pWrXut0xOUv5qR4IAVXEWsdl
eAYPOncPrfy0Lcpwd6zDeO4NrOTXzbfQxh6Gbn4UHH/0gCQSMF8gHdUM/iSNzxyY
z+uJ0d85n+F6t0O2buoC/MTuqFQZfV2v4QeArahzz2YtI6n69Uv1IK4eB+xDTnbx
ogWc2WI3WRRi/dT7iPOn+0LuTU3ky2ug74dlWB5jZtEVEY17qhDqswlreKdhlZ6x
TFAZ+H4KOrkKJgAe0RqXgic7WZVXETaNgeEMmq50NIqrCEmN3h6NkeamMTm+ihLh
WAVvhhmEt5DQMBzdQnWV0cOThDF2S9nliIl0MtuHX/C4a5Hn4ar+1+IASg1SC9ge
wGdbVZHBaWOrN2obwlEAP9Jqx0lJ+Inbiu7j5hzpY0Y1gB7RdN7iMq5cDwsdtuKE
D++4MKO58wtyAWCjmiMIuVsmK+WDwncQR3u76Vc2HGF3dfBCzMOwHnzsP2+0nf09
1Nqv6LhvOYDg3gR84ph3oLgv9A0t6i4MLzDf++kX8MUll7q8I2xZd3Vr0/QgObRI
ZHR2BCXLXfl/1DgCIEx/AwxedF/GUUo0z+Pt/ZqzXIzwDhep5PLhc7XFkqND4DK5
l56NoAioMTNyf0f/Z+2+nZb+hpAr54txVYLXOMKs9CNMvZ8W8BTut/wtTbd9k+f2
2heY4cNijV58OBNLo6SlriKswy599lK/d4raT3dfkqCvNvfn73Pva4TMQK3emjel
E4YB9lTUYxuKC2ZqZPqiyPgFHeQYndGDodlyNZd1A5EGwQjbuEC/gzAkZeZHljld
fTAWXe0vpmjrYQixm6J3f4rz+qOdyg/wKJjUz5B/9zJn7xDC9524WGxERvUW6SE0
Tq9IsX4p5h6ynjHoybmUNotlnGDf1aowaMjAyyMnTqjuke63gOxKLmWJ1Yd5tRRa
ViHFBKOtxdDP7Qs7DDvXxkPoqm01mSbMO92znwpwZ/2vF92l+SHquAVZz4gWsrdL
hbkx3SgU4PxqBt+QASXPFeE0is1Qct8bp5dyc0DJ6yN5elnoz8gUVxRqY0ydA6Xs
bL8+/EkDDfADAmtq5rBo49Mr9WMjutrYE51qDGdjXpacpst+E1MFFPUxQzvxFTmc
/9UTsrJx19NtMMBhsDWAVxRNWNddHGbbjnxu/NaLMv6sExSzYYRhTC+Sl6alZjd8
dtT17Y6BGTQpJsKFXmFeKZDTfD2pxzjlQy7m2/Zf3MpzQZ7M6Tf6h4SzTksPtn8F
oiqUjwqFIhbsFwhWiKC4ObtMu4/v9Jm+bNtM+gUJ7bFmvIJMAvkxemyfEPPR/asc
y/IaE07AL8vnTqN7+LHlhtJ80PlJh/59P/vJvOAcqzd6e/jUjXauGAwnpRxUkzE5
Bb87RmIMBA/UtliCyTaBI7yc2YUxNiVv3TfEXLDI5Ge650sGwWmgcGOo4rw2REbW
NH2lR3CjHDB92g97VdrEhVZ9vP68oSQRydfwOUO9Ced+7iP8tXpxJzOGb4KHn9+m
bXi8S7QV4WjAIQ16fi7UifILqE5EO5zLFxqtvIXpx2huq+rLm8JSLzEkE4l+tm8L
snrsN2yVN7KSG262dWH65uXYiWGIIpe6VmcJE9EKu7hJCK8XVrYI0EJntBhYRjaV
zGFcsIU8myl06TIZGFZho41AoZMYsSxFPFNyi01WNSxrVNCn5X0LaEjHJ/66kXgM
3VLYRs6C1CpJA8EwVg3FyygA3VO239CSJyGb4Cg/InM2Vkn6puL25Bja9QgV0DKY
5a8uc2ugJrT3N/vP8//G3nxkFn7HtoLoFDyNpO4VXWBTZKoS+2iKhwmaGLW1LKTC
rfzaPzBlzieyp4RHuhhh6GI+VvMa6rrgPbD3R/Zc5FuE9yGG6rqPifJuzyvlGMPd
VMawUdo352wGopIbn0mmSvgMLmsQ9mToVNmrouGvRDKsx79cug2kWh6SwUMWPXom
rVGkxPfQgMuTvVy/oNJnSBMBSGR8wpDjPlQOpnJfP0bfozf+zkCl/6j0Gi7jiHDp
TCXF3dhg5HJUQiCnt/GkKRAtq/5nkqXO1NXfUbB0CbVVKVBmc4wYyCG/3McBi75Y
2YH/Qqvsrb410bmlt8Z0AvZLF+puEz2OAMoOW2GGQEWxGwM4TlYt7xrjYCVPWoQC
NlweQZDJQ9ad0AXn95Nxz3ukVDtWFFDGo5lHtGiHJ9cnA9rvy0kRgkngTvB5H5cw
m+M1ZJLYNFK0UOGpMb3XAlpHWujbTSOxeODanmuuYkSJYJIuBxIEYZhUkjhmumNw
oNkJELeehjdLFvclEdo6RmEfyEhOowPtSV8uZfsfg1NbN4hy1kNCjrk3eqol61aD
/hl/JVZKTkXYzkqGTnePV8VYxMmWI2MMlCZqeVEtXcKtsnyYbOW/lsyHbppK2gBY
1PWbraopWXfTWRg0ATT7JBgUwW3N60syiDP/0qwPDm0MhIPvtYQNz+RgKXeCBEPT
5iR/h59JqMHCBQuBWxstllS95FfiOZPWibtXQQIcW2CV20BzQy8R6tw+Wc/pcFVy
YUS1NvNZ0lMIbOSkNp9GHBmGAiNajfRs6xc9T+jDBS+S7bk+A3kkylmUjQVMDBzr
k/8XF5m19+QO6sJRGP8B2yJ67fWYtQIm28f6xQrOabEYNj2aYXohM847ZnzfJcKd
uqYtJcQKjBDDZUysJ7S+OnaPxD+qQVus67lCwxDCyU1P2StHrp55TT01v2Vqd855
MUk6HBe6NQUJnSaUeSmKnlFnWZEG3wiE/AptDTpaggL86Qno3tNpPbJ5RQDrJS3c
yAuR81+RhobNVK9oPjRIiLxWSmpNf/7U07mJEqurXX5J2uqZIjLBbisJ1i5Fls4/
IRGNB+jXioXv3QWCWThOjMZVc2EPpz5zySslKraOVvVSS/A/WOdM3RY+uYXuahUv
EggBoqTWaBc9E748S156eac2XzkfLKNvdIvWgzcN9GoSHphoKfV985ssfKrrVSWE
pcy/P/Ed4w2gEFcuJncwQUK2HIP4rVat94/bs7Y1DoRkwMld5yP6CdbM0sd47o0U
H4ntewWXTBnehXAAnL6FoO9nO1MMmh90thfejKZTJ4lFXeO4sN02uLWIc1aEqkmb
5Z840ZOLqPQQZlxcsnOvvnYgKtMmU4sTjeUhZjx4PVDd+KWwArlN4XMcNa5Ks8Ok
YK1QgJD6lGAPaYYnsr4tJxN/E07lLvBqnmdrTZS6SzbFv/PMbrCoE9AmVUbrFwH7
ANQl0XROCyQAuwKSZ95m2FGh2MV+2137Vz6P5vWdIgPlhHHDpEZUL+DcRy6Aaxcv
DHkaaIEJrKiA1rNx9q8WiAMQjOAVkSgCz815lsIaWdGHKVOxC95lF/vF3KKe9Lqt
b67WIN6tEZQy2bs7YWVLzTK0WcZbtFAfUrgS8ricsmWeSEr4vdwIQUA3WM4GznuR
haG+qiMx99/Lm8wZk4iFpiKjcXYLB0q6BjgHhMzpk6OogWNntaLNlgvv2XHxYYV3
QQLNwQhLI5cQlgM2nd9eeLxLEbYqHFrVkpeCd/zaBXGi3kgbdbdUqvYbc4464uHs
HzaOWuTijPXLG4rjaydvRFOVg7s54niOqtZ1RiUo68GdBQIcqXZGuvMGc1klTt9g
ZACI7HcjdkilOaR65yWGBYn0p9I3iQ2xo3TL/e5a0nbQoagFp85aGW6aqIUKTwZr
DOl1Jq2h58oE9IZxXQ+Q898aaxMsOxX+xQwkt6rboe9oHlelSR3IYWz9+Ff3dLfY
x2eVfE2cAG6i5SdpEGMTucQSsQerZRP5rWG51SJK8jbsQjWbJOLTGv5Ofe4MMHj+
IBufSDbJi1LKiaKuHG5E87vySB/IueuMwN+09MLJIcivLnOYHyl6+97ERxZpaxSu
t7sUDHry51jdDGUHZ9oMcUb5GmiCty4O+bniIbizw5U4OQg+y7hU1N7qLffffVbp
GTUgmthoHcSWYDBhZzTzJaQq6nl4Yc6RR/YZ7McG905cJyeEk2rAT0oXZMjTLq4L
hNOSqTkbtRQlqPZKj6xAimEkj9Dinp4/WwDXuf+zM/TIUIR0w+4BCxVSudTvy2Q4
5Q4bxsTiTeaErDogJALdumP4fPg4xPiVWyHReEMK2E+s+Qi8YHRSdeuDJSusS18i
A91OAHmiAA9phYlHNgqQ6IsdKn3eUIiW38V9v7jgDuyuBLOZU9M5MP7x0SQDlGFG
g57m6gysRXquPrOUHv0qoEa5k/BTr8jpiNJuXLyI+ovXt5PcLSnvd0gLgkuddCVB
UXMkrVwnKCO2V6vjKA+lp5LxTqLPJY1JI5RTFb+9qiJpXbG51PFuKe0w/MDsx1x1
leDA5c5SOEzMzO6lkKI8YIgNP8S3HGBsvtqsoSFQ8bX/H4OX20G3jYe7WPcKf8cV
muzGnODdyqy75mCl+cPzsSFd4WX7mV7hT/t1U16atQvfura09f6JvaHQp+qav47P
Nt1DWd3gb5dp5u/Plu+klD71DqALgmgC75fE0Y9Ia3JVHOTscyIjIJ5LsPTuAcpt
A5fXG86l1IwdtQ48SHsnpuhr1EyEod2/pmsT6pMjxCOgTh3Qr2m29gsNCMTE6FOx
3fRsm8uNhuFuaqTyuGUwQmY7Jyw9FOwKzpdkkVosTeXpL/JB8PP8Yu4kIelIXfaR
vW4l1Va8mSoBkKjwM1n2zuTswrSxnOC4U2gx1rBvRy9fu2nrgpaXfal/E8DGbQdp
V9wyUsUDgDSWm+DP/QvCph9ZRC6yltnsw9NCIz2gaVVUbZCEe9m2iSjDZlw2ksOM
z5KIXANC/XESNp3rD7KJL2+qrV0813aclW44vzeUZNosKS5eurF+FvbzqDYGrHKs
iIPbRM5sznYEVkcaHEfhd2yagqNjaz5q880gqS3b3PIBwZTFIawnktNjGztClDQq
4Kl421JJrJ0e0xG6fxjyVi68TI4GpGrN4P9KxYbqNjPE0j9MwMkk+vAD4Ua8toPc
2STiY4HMVSNW4BF4KtnB/VKhrwSA8Y3U/HdDqIFGKQOAmcdSdbVLU4rKFfGmUh98
B33xNea5Y0lDDPyQr+AMrIS9zcCOAuvGbgT4sLLssGOU7byHS8Symg7q1URexB48
zQI+u8F6WOA99tlKLLG8DjXy95I9miCNODHPYzxsVTTO0kiEL+k/MxGV3WQOudq+
J9tBygMGK71TBorgf3o+Im7X+LiCCiUbYZ0wJkJLh6bzMBsKwCOrwlRVyvXrWAea
C7qfVqNzZd/uo8lufyFUtHSzgZ74PnpCAtO03f9Edn3fDScT6cFGMot9fe7GXUCo
FsQM6WALlO5CU5vGp+HhXyqO9CvtGusRjxNoniXPCIML78rLBJ76YG+VEaLOR5lQ
3I0CzHspt9ee7kCkyjfN7AR6Y+hbWPZrwHgpNX3/HA4LtLiU9t+o45MRqqlGC6CV
P7oXK+QTMgM1JBpleG0GTpHHhYrK82qDUlyiF3ikbc8YQBh98t2zihBHLbQumDbH
oGY/EOQDiClAFcN30Mycy6Gl61VIdcIFlhwSK+9JV8f5Ja9Szu1TSf5gzyb30Pdf
8SK8U3M5odftuRNMe9EarozHZhTrZSG5VVwrz5pSbOvvwRnia+vAvPbj8217X3Ia
b4MjiPzkUhii4yPMS8qPseGm5kRgdM5+eBK14/kjyl1ZC1uUNL0S8/GH4yDtncMK
6eYRmzbtOkKRHlQXXuVkuMwATJKETXMqfhzTFRHRnJHIBpdPilTYUBDPmV5RWTLt
fI+dv8ri64vI9j80zjJhhrdx9JetVgSIY9DFzhAMY476E3/3fYsvNN4L3z/Gn6x7
115vt89brfzeJ9mgJGHRcYWakP+5DT4HdT6S3Kt2D7CG2g+IbJoi+MX5Fr6cTzgV
Xp+Dl8XvgNlpnpjvr0zd8Jils0XQhAtV11CjvZOeY4W/VedoHJRBsy5xviwFvrV3
+JAa3crIllA9BkY3xa4tfwEXoERW1wWPTNsmCoc+rMS+/PXYNK9F6tt2RBsBPvUt
L6eFQtojNWxaLh4EPgo9Hpjwoue5Ixo/1ZoJyKc3OLbXy+6v/5/2skeOdcsmeWZn
nELeiAqNSAG5h9pP8DkWznhlcNDn9wte+z6oe7lt4rRTGJvwMJpVz1kzMvi8rxjG
kGsEoB8AxUsVD7IHg1KX+huC5QL0qa5eWGVTO1lxMRre3rl7VOWsdQRtPuXVPzT5
xlzrS0q6+TmDuyEwc3BYnEEmT/Ksk3O4C37YqaHwuy43lwfQMprbZAS7jYSOdQFe
H3iH1q9ELUun24whp/HTgm/sXWipkh530iZgv1IY2m/db2CZ/HlbfiEU5ATCIQ6Q
DGxDn4hyJbpsgywzSSPds2sbXhjlqw+XAKq1W6oh5+nMkBlPdqge6O3IOCRebKAD
UzLkgISyWJ5qIYceHldfoDHtAIemEuXLXKpGMdVfKo+uYuEFIUf26epi58uDNNUZ
2IEAxYuL1yG5Ji3lL65YM0SqXR2nsHsu78GoS9olwxph1RqX3inJpZcg9d52+rMF
ikd/1ieXCXnex4AyBjeKpMCi910CDytUXEZGTOZrUD9gKCHCRG9RzkklfA+IwCLw
RBJXWNDHHoyFYWNlNPW7NJ5lbN9K/99XG60FV5yEqWp45upj/ATayZyVjQqJx1h3
J5xgzQT9fx2c1ro4JHovT/svVV/059o+4y7RwDK2m8/osxYIdXwS9hBxBxMpC5iL
JvttvOoFYNVqZnJv7uKHoVTKpJ+aGI3vgmm5mcbflhLF21xMLsdhVmtWTXsuoDs0
KxXfVU10vO4jHUICrv33N3fLVXT6Di+b0NBpi9iI1VFM7b6VJsLmifObs/Q/zHGE
4aeXJQvDaR2Dv2jHbK9Sbmf96AiDfEjJWgJuvU/GBkfNE2oujisCsmTmDsRuDUDH
5AnKnJKXj7eTlTNnhHAx1bgakb1AFHXPO4mclBaGjj35GHIYXkxdbgMmG34/F9Zu
MjhcMCnbfB+amGMTrl6xlWG9FWuzhoP/Md1cikWFHa8EgE9fsO6UQxQM2hWy9YHm
hxVpMPeNed/kmHHjG5KK2xSg94SFMXK4VDWBqXhe9sNY6OboS4BQraDcBk6U5tby
VIgsqGIc0KYta02zOgV9gL7hkjagIgWpbfrqWjx8Pzx3/OIBStysf/jAVCjQkMIB
U4rP9ekqriXOmRaXz4HKXLDfF7b7n0bM4siIZF7u+EadTTpvo+4/UlsAM/GRiytX
mpG3BbGMUc+UN66jjvcoCginKjyOqYjzhLzJHtN7lNX1QbL/eAJt2exV0KEU8Voe
LBVfOlpibiLcADvYNxMcoDIJmzxYJYi5EgrOqe+3GcyQJiKGOkNcXax/9ZD99Xf2
tU/uR0EZALuRv9jHpMqeSlsJjP+K2mN6oB0ZJTTi/KKfE7hmU9itBwSQiXQnXPgt
FLlQB51QYkGzEaEcnYfLIETS5AEWOptKCoe2ERQD/7ftz27Gl0XJ8FSBC0p7KAqK
Ba6yKVkZgAEAlXkj0ga8VCEZ3H2j18RFdvO8uGyKyCQVEuiK3pv0s6Y3pUqQBAIQ
hu0fobU/5Ua4QUb626BUvpEdzL7Db+JkQjL755rR6LYC2hokgllmN/eUCQeWB2DS
Up4PzuDh0AVXdfuzgs1kcZcnfX69BVeeJYPAe1v6StFPGu1QzF8XpRL1JHlEHlnj
Ui6jA30TQjhLlRNFc0R0hRzkYEADEQe4C29CaKeLnlSVrrMstVRsKEeW6bLmGUi5
IFf3DYfrBzhP/iOHE5BMXlcYUlwd1/TCJYTnVVS8+Z/63jcFhgEd+NPz6w/jNYmb
wDARqGAyWZSZKdxOxLAqszqnWQe1/bcRZnR26CkC5yyjqI1l4BjZPr/7pF/AjmIW
+JzMRWxYSBicGFj5UXHQMr/8ZX/DHKlhmBbiJHYlErWJniySrmgaB03N+to4b5nj
RZ6AvD9TeyXl9sWwazfJVfZln4ryJCES9mWz9jTgxMpCTA5HjX9jfIdvSvmB9yuE
a2dZSclmoUjOSqaC+MBLpNnJ/SIfVU0Xt1slz8OMSDrvKzN8K55jDspmcgn82kVZ
tUjuY5yrJynjVpqEy29mql71+BFQFeYOnjU7q815p/z177xwh1JmX6kW2JlLxkru
P62A5fu//nwtQdM09i5MpSTbkjIkGl0x//XhP9mhSRMCtySyzKrDv9MvRYrsSlTJ
OXUeic1N8XMw20IKGB7kQDWeYkxqEW+rI+1Q/WjjPuqH3ZempWfUZhoCUqcDdeOC
m3waurl0t6kdZrnU/YzkHMB+wvvW3uQQ98pHwYs11xtShWQWFtEOx+4D4Nh09AhD
Yht/MwbqQCuJ8K4kDh5D2W6EQX867+yqAkk3SXyrVKUBFBr8Rty12N+lCkXGgQ9F
ZwKWj4s/0HSsI/c5eq1vGt1BrRVWqaUCjgfhepj2Hv1g4dFcv3TzNG+UorQpKT56
s/bGb5Kr8+rfvxvsP0IL8G2+tXMkhhfyMuarQybN2EhKZxPzr23TYsYcPnzIJxrT
eXW/nVQJSrmOcw59gPFjlSl9zGj4APWH9sfFihgEOW/CQFiew9KwP/uwzaL1iTlW
rfoNPtPcRGZHjxXhGZfuoWBD+8ZdeAOJDPMPrdRvUxNbc2l2FI12NPtjOQsDMrgT
+hpUr/tsHt4itvSISE6KlwJJ1QQXS0gIHMq4RbC4v3HIPG/LV0k9ATLVpO7kb/fF
Uz2ls3mT3KjhnDoKz6934HiIFgfc4K4abBIvdG/1pqCc65CdMPoS42jj4cJ+67qH
Qyp+lp7DF80vWqhSTh6QtoJcEZKkmGsm0njnqb9nrEmPjJH21M9mtI9252Gnqn9/
/zyyxIjJ55c2zVGdsfem5dbeB7Tg6JbNn1pwt5UlB+MDARb+uCzupjsYcWGp+xZT
xMy/F7vw7t/WbVkAJyD46sI7sC0pUMOCu0rqHS7obDPe7NCS7z3D0FxgY8eRO92g
vkvRJpRBrYf8j+k9nR4pA7RjNTh3R47er5qMC9WnZ/bTuzktxRnpjW8lzJ9pnMtN
racgjRSDR+Bia2jMXm8jIhSbYudNeZGGNGQ3lvfbq98dwvPdvabAtNfHu1mBSNuH
ih9j97SpjiwqZkHatXVp4Noik4/DidyYTeGRFJeLYPuIcJw8QFrKrLbeRCGuH7XA
7o5LW2L+355HGQzyFvqnNLJqhA3yA7kAPfDmljQGhCqhyYbttwroxwQbh9EWbFpg
z5R9npRD+gz7N5i0+apMk3KWmaPE0uSguCtD8KXhvjT5sB+IpWxeRakJsdggA+yO
psdTSA5BeuH7r6kghT8/4TDVTXLcdHNNi3MJVyMQ8S+0KlHvEfCPb2a9BgWGa6+/
l0oFSXJZJ08f0wzhXhtHsqE4TMHGTTxhkSvE8TJdyO1LAeki8xuvWjQblzc81SM3
BEaZ7yAsRaBDL4DnN9J9ABTfp6e7fbpLBb3ZTn/cvP1t4AH9M0cKDOM5+iFQZKCS
S2u9/MaKm3g4ZrQxWBUBpxZLBT2hzBo0WAGrb2vF+RInLhwSM6Sbk6O7Bad+gJsU
Cv6yBVxU5zxJC4/EJVZbTSUY5CTjfSYLqYradxLVAb+OBUcZ4AI7QsGx1tNioFAK
952RJTvmZFa58W6Wr5Klk/IstkjhYmDPAeEGo0SZ9XYTnc3NN85E/L+/kfFXpAXg
bY9aexj3hBdH8W6NOjaXOrBAu/Ovj+pxhqtLlCn4apnJaU/F4V6QteO8MPrlpZFB
fUGUr6uJYSTqBtPownpDSAjLD1hCQDF5CB5xaP+1yWhuamQkf+4jb9i7HNFuZhgS
n59aZvbeC+grM6Yxt1AbVocBCQ5ufBVHuNdoa7gSNb0U+LaCcCPe59xjPPypt/xy
p2qYheuzACJniwprBdyORVwehZvcJ0JdmVwIv5yBQQsQczrv3ODRn5st6xGpeYG/
OIIm78KCG2PNBjUS1nCVrHgnWqz6rfI1/QUaHeikpUguIKfCYAufev5N3FZBBXcG
39qBc+8Pe5uQE3hCVLS3dsu3w30VaGxsUoEUi+WRV+fDFp7neE6+NuHqvm2HjLCz
d6K5Dco0CnWeTA11yl8pZktmHdhTbruDnSbG9ECOIq0LXJC/RGe5F0RIW5So7uVU
stu61U7kEnyLahc//dvrTnVN6Nem+rqOqi3jHc5uQquicjwTb8TPcfx3jJYmanL+
sEsVa6/T4WEqXdSPeDs56NTL5uD70mojq3UIDtN+NrOufFPsaGsmGByWslsWnDQs
jqnTgIg6qVJRcdJsxOnPoH3/JZl4ZGtiBU11FlxpO40QgNHuXGSFSx1c7277GUHq
LDJjVuEmWQJ1tk8u/RMm9e5hUxp1JrOGkzQr+7dOKEhsxAjJQbudeVbJ/KXMnZhd
TaLJW/b46cQviNzVT3TVpgn8IsqP5+hHLF0LDbRKdD0s2VZqaCo0XQQSZCuPUREL
/U/0Lvbu4NfY5Wer/+XjX7fdv7uBTFjF0sYivQUu09N+GV1p4GolcH0SfX8vZM9W
8eD2ga/PxJ+uBdr3i468qm47YiR7xKxGPh6ed9FBWlKBsSRCvD51FJXiS0XTgzkC
5V7HviCOAgKAtYYJQSUim2kYPs2vCbvbn0Mc72ybaGfLsbPGvf17DcVqvkR8fXUj
RlfYWd3VRnSgX484Bo4pMRrGptJSlGGATEuZebyVAaats9bMFytOHw/pD0843WWQ
Skupi3g8GIb4tJT8wEa68OuSiBTVBk2+9hjZY00yO894PU5IibGy7kbYCDgFw0Ud
drH6ikfsZ6pSfDOv4ceXdeZYPW5j7nOaLYeQOOXgo5mc3od5PKwJKQSvZLdh1I2g
fcVn6NY4f25dL4ySbLCFe1ZcqfEyh9ivlDKIm9099gFCJO+0Mg27Aif1LZy83cKo
imXX+THlX7+jpvf4n03N+EFx+nLHdm/ZfWm1xynBgs1BBZB9AqXcEZJ5kqk03yYY
N6m95TA7ikwqpclCHJ4QVrf69E9v3d/GolMo7zS+RtAZLbSJqGXo38s7xw4oVvE6
gWo5RR/unpW2D+PD4LTcin5IkoQw1urOesHXg2oaH9d0+1jRrj0f6sw87FR0tzTB
aIlAKmTXJ9eOAI868eLazaiLHZpfqoikW2ae8CdCK184KTtZ/RhmYYrhS+Y3kYKp
xHh9RQljmeH1kOs6miG42S6pkB3/z7u6mzq2IW88wfInNz6KOvmPqoKPrEz0vZZy
lkBhYgHAjvV0zSIf9lVtBDpfQyX3GHUfRANk8LKViEGDZ72KsCptTh9ZKwPX6L4m
LN5A1eeXvE3EOQ62y6TU+LdmLT+UouXZLA6xIe9hfSQo0k70C/7M2nJc8AEbnbAU
/4/tNqPNtLAI8NvV9UQRw217jlR3vXBBSBd5+mqdFaW+NJ2k7/IicBxuBANavz/8
1rCDW474dwu0aA+KxHSCAqzSSbwes1eXOPO8diuQa2atsw+gnPN07YnaDGm6DelW
z/pfTl5MkGjtzNg7NALrORdh6Y/PrV6sBAW0BFTZJjtm/YaTK0qLoBvK0M88UrDs
o98yFif1GA2CzVIwdeZkdysZMkefiKu2cGiexskE+w9oWqvhjN4SxXIZFDbY8UK2
6YUQlujZXCL2EvXIfsv9r6wkgDuhTewPVs16c6V6WkZTJie02dxac0c2UMllG5bt
3AaOK34tsE44xWUBPmB2GOav3wopRyB1oyi8xn1GT447G7MehCLE+NwhsXbQY7vU
0+ddzJC/EJpjzasLC1UFSuCNRpEOdbwMDVBMSf6C/IZCB3hOq37DctbyKyzttHpn
8kIZPrBgSRzEAcXWt7R9jwk0qaqEMdKsj4Zn0cUTT0aBq6laKXE6Yt+4fBxiEjdV
LD4O2R5DXdEUSVUSZxgUBEW4dsKJOgsOFT7uRhz4n/iWhIXB+6Q99wCT+0YyAzml
njFX28O3CErTC685y6dLNmrgiZyt+QEidGDV0lkje83YpNfSxjXtdR7yi4DtgUK8
igR+zQBbsj6kT7X3WC8flN5UsCJEbgf60RAWufQ0KWmEEdJj6pVF4b+n/wzbXvMQ
POPdT7Z80tBcYbn+TMMPiJta0CIK34fg5WKR3piciS3HvrETzz4BrSDHyYR/TUXf
opBT/abcTfyKS9He9GBK+bK1UazEQOsY0UByHXLmqMvaSLzLyQsm5/UsIcnV4jup
cJ+swYB1Rl1g7g8lnVlj6xH4MMjUFc56LxMp7VH6gRbfbF/B+1ES6xTbYa4ItgHB
WvxhZRA01mkb7lih4hC4aGaKcb4fl/eFVfrK7s0muiA8uLCdv3xIm0bvaEwmZ6QR
MYPk2RD1fE2auEFWmmlx6vOU13JZZpWWCdi6ZIGddXlElUj25Kc7Idrlqw5Ddk9Z
CxcUngEwTXYhKvDcizvnQK7hdGijMZ6COB9XI8GXCTd7l769TBbQ63F5jJfUeBm4
jR5HCN8w6bXsQytk5uLi0UT64CAiazGKHvbx39TGIvm39ePONMu9Zw/V8LzfS/67
ALGx65HUtudkD+71ALAyG+UN5mRzzKXcqxmBcfWUw+Ids/ivLI1QNLVQYIJZXxZz
i/vIfie0hbgYhiqN0CN6S+f3KO3Rjv1+Md9g1IPPUwf12LXBKMYmhoZCfNVvyesS
fpbVixGDxOhh/cI1+8jnOj3vFdwDv0RKNdKadJFKu7nz2PtJiREoy2uWxRRNn7NM
J8Of7vGu9fn1EX5eMANDIsSw6rSKF+RqlYhSCDLCMnV7qp7N9oha30+BdxeWZLOE
hDjLUv+IsRDHsa9Q5FIdatGDEr2Lguz1PVqp7SopTwv1OEgbQLhnfMCORjHFQnWx
9OFCTpsF6u58ivdi4+q1RnW1g9ANyrb/pv175BgpDpVKBGTh4QkNad2JQYinb8CH
33lfwD4oMaS1AigkScq/KevgLkOhIQv9ZIr7YgyEScMzzk7CbX/CmHMlqp6Gq+e1
1nGczuuOX39Qsvc5SBDWEWqyI4/Y2WPz0TSjktvF3A1e2fAsdE9prp5ZCxTWlrsj
aPNaiVSuhWa9OxRGsDFINIyHbawBZZ6cxZ9OKlL6Ssz2sC/J6mysLzA5TX5T/i8I
q6T8wuzIZt/HaHSU7B/qb9XVywPPw3TQL7CIVmJtIS7Qiop05SoNvr99wuJVyrqL
uQTzLw21mQDhIOplAbW5yk1kjEstsuHudHXzHV6hTw86QHYVb/gjHyG55LfwooWq
MCq/iMR7FTrre7KUm2yMfJZwuq7BNI/zA693m+Opt0UhbI2GLmjBlNSsAVinJjis
3zQTqKWBiQTCQRKgqy/FuAYcLqlY/+MN8UNa8Qbh6c14Kg4loPuKra5sxWmu7OEY
L6lMDWHequ0bjM7ie3mm/2JOQ6Tb7BqHjMULtoev/kL3GXu1auPZt+nMeOsPkL4/
fNzbPPKPD0Nyc66yHXtmHR30AcrzlDnS0MUyrC4Di2nD+AasXTISBUgLqI7tE6Ud
BRC7tJkATcvazAnFQoHeydd/xj76yH2o/mH8LAVVUnFEGpLhXRqbPbFi9eDZ9IMw
Xv29/TgjEvlbj/wRWtomUorc8BCvndtqriZ4caUFD21L9KRMULxZKg58mxNHKBco
99C41btAu1DMYvuWT97SQC7LYZsalusmjUPmWDLnLI9BmcNla6rz5o6aztHjceu7
PolGFa6hf7+ftDINimO1HgaZ/9e8um6rZNoHmnzMuQt2RotJWBUFjAUwTXmhwPCO
xSgxEO4RqGY2/fgxvYomSV4ym62qjhcNkX+a5oyqwNPqIlPSDnhK8ertwwux277O
CuPW9+ScdFujjQ+Kb5tyi0yr0BsYGL+OwMwN4zxhfyiGBo+jzEBwBB055D1OyNg2
LYzX1/+059M9+w3qZyoU3kvxQqvWOMggHxnPd8t2nFUq+CiED1456T4DtMaAvUlE
GF2YNtkXm7qBzkL95HVJx6GA1w07YX8ocQr5ktDgcTekHmEWXLfCeoUaG/fOEAR4
/CmLmbnPe2MNVr33yYp1eszGVg1/N8/KqKPczC0L+ckSWFbtCm13EeH/raoZvxZJ
Oe1ipSeGCxqJtsKbkopdsZB3EHM/90/HAoI0c/vLbfwLXvftNV/kyUeJbjnCOoqQ
/D0V2CbXmylNwMw1tfBeG/0+5OLCR1VkvLkCGEg2z7D6CFNbyBHTCemSgXHYgwPC
eB2mTtXPXSkWl49g0Vz28uxzCtkJLQJHFNDkiwaeMqfyQdCoiA0pAknoeMHByjI0
zboAAQskX1eV9apZmuTDX+U1xzRT7KiKwNIDlfscyKUOWumPMGe9pGNoCA2ChrSz
HG5RO3+Qn/YR8Olk382wYlSYInK7Q8KSj4UcryavtADfbX7RJntGVSHfCn4zO1jl
0ETZYPu9WB2W5A1YDQP1xgvkEwmNB9RHuadfcQhw5Ne98eMDTq6QxEKrYCvZOxtn
7QJ2DPCY82XIrjHLdJqlJBdqq8c2n/sgKp9SEseu+gjkwAJbq/bin92EFRSuxq0U
k6uCOJkNZum1JlgBEKugTQI4mSjw0PXsG0UbhYYW3TPKyFAJLLP877uBlM8fgpV9
3nSDQf8OsUjZ/k4gms11DRzVjJbhDiGT7jOBKVbZusbUPxNI1fufGiSAznNZru+r
KnM4ZrtgaiQmShpUXeLM14Yz1MX3Tgwsdf4z0NPYxrkPXzPm3KZIsXgfcVjZRjxu
W5A6W4etlFxD6nXDjLgOvSVCJjdYHazphPlPpxDbQ7IHsRenEE4LWa71Y6micKc9
itebYXVkRNGpXLca4jYJJLEGT9bFh0Yiz8glgGGrJaErRN3i3+5bEUid2xENELuZ
lIYxkw0R1F21F4sDgh1eiIR5QglEUNlzP3ZmARjZ8Dhj9qtKtB7uv4wKMT9CWu2E
sav1sIZbr/ZCSmwzEYRX93VZAc/WP3DBsFOlbcPUGyAY+iJEs3udPm6v39r2/xb4
PyFEyUkPJkZKYfgTPpJyxR4DMrN8NFQK9lEM0Jt78VtGS5UCTvL7UjYOx/3x7VRr
yzWF+0fGKR/HWuJ/Pza7O0bjJzcltevLwM6YqE+CoTadqhUAhOu/C5UYjIf8Xbad
WZqRqPZo5RQcvfcSjO3ltgW4hfDr33UtbeX74jcWCq3Ey+46Vj/hZoYqNlBEE6pq
wSw/gDo+r0+l/dCIAzlAzfnu9nc9Pxt9buuJRcuICudyov8Ho9LHsBgdCQUDg3ow
p88DyA0aAkA1mW+OARjbKANUkoJR9ntEaGfc6u/bEf9a7b0ZcaXSfNjA94OqUTG/
cbXIm1PFK2+SYEEDqEvUUH3cZatGlVyXSsP/xdwPL+ToTexY69DZ6pfjosAaLWMe
70wliUf0GxXFGyT2y+vMhxFtzU9tirjPvpU3itv8gCl/qvJN3L3u5p+uczKe+b2W
ZiD2sMS/LcpR6yl3ftynKfJIuFdI9i6t6cmwcOkTXref8QdpNle2VlUM/M8orcGo
l4rozap3hl4tMPBLxczFCERNKjBsYgsijNcpbi6dZW2Q3T73hna2JmQLsyL0IPyL
8u0B4wKC0aEgCksB1zGbzGgX36hxTnBAkqqi5qH2/eXDphBAZpR9bbKiTgaFmPUz
0ir/1xG6zeOUFZFTbdQPVS1SqE6iMkYpMvQ9ptrP/DqaMLsH1JszArF1gjJ1jKTv
k9fUE/WVvIGg3B3XHGQSLtReu9meruzTviCu51tZfGPRHhDOqSTT/vHdCXd6VXv3
PwiQIRMdGByAERF8XCaWhgyWA9hy2Ejh0xVwR+XDdZNyi5JSJbC+2eNJCmkXhXLS
Fk/kwMS8nfqVGRYM8wrrZcBYycRwiV/dWLbO+t3ssDlugeMc6Uh8O3zLG1vas2GH
63fvAa5vZraMcWFY0g0CaHtFTBUahuyVBUJB5t/WumkfU1ElVFBPM1/lmpPA9E4z
VsgSfaI+LlahsOOQs+v5TifQHKffV8QGyE8kfQ0wVYlwHqSQaPeUn/m4sJ3A59GK
dauufWRGST5zsU3sZCY/erzMASaw0M2kx/l493kZjfTfKxLk1sBZkA5vfN1oga92
gMd6euO4BCRT0StfeKcVhiMLLuw1y9ufeAfnUXRXyyJ6dKh+Eg+bsu8yxhJ0KoJ4
1Rtwy3v7z+wegbPvUzEbXHlD2bYn2MjRjvdv0RBr5PS8igGgi76E5s4ohnOZFXbX
EmcvxMVBAkDMqr/7ir6445qxaF+MajAL+um6IPaoU7c7LNxBvhU9aK/D7G9sp0eH
SxxFBm9bXPTO42N2NboNR5B89apKaTsRcLP7DjdyVWssZuSMNgFwqP/0VGZXJEsG
8sRhb3lQij+ii6Qlofi2epEjJkNYpmPE+PSLNEZQedRPa6VpKBSkRgJl5pqssqpZ
k+7dvLsZoeNKEOSqMdHoHgMFwBWKyqTEo4/fDTzKFa8yCrthvl1RZAmbVk8nir+t
/2B86YC7FBNZ6g6kQsaDqaILHhwZrcyjdRa9lhOFWn+O9XQyBNR+UaLkwW5qtvJ8
OOw2iR/FYLRIj7nAMnIXKlScf1j5SDBENOV+uv2hXIwwvHzunRkT7DDYV8x4HqCH
1iRAF+tBf6LMhk6sIJFywhzvkJzucHs0YZxhrQ1qEObOBR8+E18VJtGYzLjZewyI
z4MhjGfNLkceqqo8BBW2K9cIes902TjDU5VjnLOs3Wb0KvyziH0eVpF/8DUV5WNZ
t4O31+15SddjUVrnNBThyunAY1Nx3O9TRtlueLZ+x15xI5Ri+hCg0p+2f5JUvhHZ
riodxH6ZXcdIvrejWK8QLmrSaY1nysOTU7alAwplzRMbC/GFDGHCGxpijLna48FF
8plDX3WmZMH9M5xHUQiUFKR6WP1KNjCrh33/ZiAHca/xVg/rdWYgixaI9dabtrV3
jfSKYjpT5e+arfFpI+6jUOIFQFw8+N63VML90hdJVII+xsMzukZ50nmAhiAPdUGS
6ntO6ux3uxogLIxJg4EnyMAV1q1Xu8dEkeFjOxLHKDtqm6CWXObiP+ijdNjcn185
1tjNIUtuxFL5Hj3VUw0s6th9QlUKJIF+zbosIfrJQ6LIFRCRtCGqo9S9LhF4eOOQ
HDxAR1f3blCjZ6ihdxATq8e0vfkzd7gNlNqJZZOEyUDTkJDXfOQhkpWzeZnqAhWN
HY58B/NC5SPg3B8YMZOaQeylXtUuuvHFFgOKFPrzhBVjSpNfB2M3+zOCQI6Ybchh
GEW2rUuTZpYDa/IUfwG4HVWwj0rSo8MdX3N2VcGHsOeB2MUkUxlFQT/y1v2pITez
FB4YYcwGJFY056OIrUheBC2IIbjbBxy54Nm7S9XHVHV7PxdK7dqlw3cm95gbK+Mq
BoXlAiOODMYn+AnBHGPevqikNn8pu/eWcN0EcfVna0+HMD5arVS54R37Jd2Q438N
wBiWGBr8cWXm2IP5Yt797P4Y9WH1eSzqthU/p/DGLebN2U+BtUzB/gIzcOB4fBOn
Kr1O2m5+6P954fn2xYr2XkleJu6xdW3wbFlxj1fjEgICtddgozVxRbeWa3esNKCJ
FL3H98st39Rk++sfW4dkZSouwRyFiBZC+GB6tB4sh+HNd5La3o82nVMDatpr40QG
VTNcfOxg5j2ZQCBY9HP+AlzTEFkEFLr2KQ5od+t6v31tTpX3/6E7f/8KC0sRMbO4
U1UQ6ZPEcmxV/mNAmxyacE2YUuOI0uBrtS82wySYqEijheqp7T9k7dL3+hXuSjpo
KNzPtBE4MTsJXfAU/Dt/wej33xiRvEvHMZCOioju3cARh0FqUTJukIhKnKJTlee/
jljBbFVBrrxmUvcvob60fMgrfgeUsW6JVPMhBdQdlZPV9/ULi9xOJm27hU36qneY
8SKSbZu98PJHgMlFos0vR+lgLsdnKf9d3bImSgQbbVsHmb6O4r1SzJ2SEDHqRO69
pIoDK3hWDCwTL+jle0xd2JhRb3f72sWsseulAu/x5upsS6YvFA7m0KY3ioD/aerV
g8V0TFziOAuLmBc4K2Pq96vbruRMgnmTQbrO6f/PM+B6j8wmAI26ZLKAwgT2pG/P
J6VWMlHm0IourS94WDNoDbIxxN/sfZxtZxeuRbkrss35tCew84xec/2M1tzVXf4M
xqjyc/LT5aZP8SK7iKTryHMIBpX+iqF36s/hDIvmBgZ1BPO6UlGBdCQPHsplDjsz
oK/m4VSqLrXBBVAk8txd7NqunCOKxulVMtN3dYZ8akD6oHMhxFrf8u/D77p5czvx
zaTs9tMjP3TfWsIKgP6QMv5Lqo5egb/QBe9nXDH/+MbtyRP4SOAQOUyPrbKfjebk
38eO18iaNQ3AiGojOac4JvaPJ3qMkG7/Vsqu+X++/qTY7saSOQMvCDV6j/I8OQPA
pZCCRFkZ+U+ZMGW2UzOP5fo9AfUkgA1Wtpg/5bmPZuJpu5oRc/IrMaHw7sAOIZp4
JaOK08WCB8nV2uwnIGxKgr7CMtLNUco4QX0rNDkcAY4Mq+7Y/M67wDEKimsfrLZX
2hVYqUPCmM5c5O7zqNJrSFr1rQ81u40FkoVU23z3yBLslRv8kCWTy9sq9WKz/tNv
505918C/8sv3HIBTsYnI5syUGZYpjd440kTFz7CMa1HDr/zyI101niMQuZXn1tav
/j3CMNnlDLOeGpy/iPNTIccMhnGja6i/zGkuFoE+AWBBjX8JxJoQigvtpvanQ28O
K22N5fgLfXrIvT8jXI1rxCRJXr34NhiAojBqsOaLyPM+ItIF0OihcQlEQnP3/r5O
tivZlRNEHG3CRm6QckVNKiEzwNQLFUrnZDsCSxb117BQobe/D5wAh6+OYS6/WwMY
AAhdgO+WV4mS/fI0DVzD9Dz1oMguuyvJ43dZGeoyBes474DioijMZntHj5H9x4mt
YrgGmD4Y5Rxpl9/h58tyQP1CzcBplI9RubxXuhGdT/9B1matY/FGzSwlZKsdXYqN
pdwSu82DFyVZlx2L8H6NCjUOhxT1F7LLpOuzo01yEyqY0dlR3HjC1HFCL3/Bi2Gx
ugnvLwiULq/tt1FOUQHelNvbYOrxwtc4miOfB17fkJa8flwj1IOhVMbZjjL0+aKH
rCrJAje401CFa1QVgCmNDOTa5rehL2wH0ai7VtVUFOnJSiEI/OgtCekTJoI1iP6u
PeZ4ELdIIgHONsvPG2/xbYx43/KIe9ly0I8eMm2A0l9Hm2XZWy6vmumrqQBnaRIs
BYvvwimSMjmhRm0yhata7psmoq7CKcE/kKmUvLfOQdZj96JA1K/x9gdg8J1nJNg6
sLIYCqHl4NRPcIGNU0qp9oou052Cz3zyQBJ+XRgNTiMHGT4/0XCfQUML1bY2B53v
+amZrEUW3sbB7+W6Xn+WtTJiIg8YIjFfr/4oaW2aIZmRiihVrqqJxicAfoY0g4ZJ
9NqibqCbKf3cn3bqBGycWzUswqPw0PipmkXa5jjg+eNY8mzgzZWICV5yYble8mF9
u5FrbROqmd5U01TyB1nObkUVv9VE3fZtPezM5PJgaKb2odBgzAxlp4iGDsX7Uzvj
HGFvxuC+DuDWsM9zmC654FourwdcHyNaMXKH633ysBUfeOIpGSWDq1outEYRsV7m
NXzkugVN6eIHPOKwcBKw3Az5COvaxD5t4LzwZCB81RxazQ5RafNd0MvrELlD02h3
k/BfIdG954879E5ve0/w+yK6ebCtsm7JdBp231DOQaVg2W1HPb7w+MgcSDVrp7Db
3+g3w+0XheDW2RWBUBmR+dnM5Vwt2M4zRIxhVvGpzVcBN8jlDNXwpfD7qMeYYX9g
P6QXC08pIIR2nzTNm932L5DEQraQK1FLYlxKdAgCBO2anra26yYBEerrR9KAnAPo
1Pxmr8X575lgmLb77ImWwYiFnUr9xExp3LlToCRl1o7lGXriUYxdxshjCQix4KKw
tzTOD1ItiMuBg9YXq/X24xT42jZpwui85wsiWXFp5JVOxGqUSaY2Y3uqwnPlEgMg
JVfIizNBrh8GAHQ+kp+1DdGXleNyzNrXvOEWJWa2LS3/wjAPYrc5jupLs0OGRm+N
UeDjMYJXDOto26GaLLj2nLlI+rbOqvLNVsLan1SiiVtLKtE1gADJ36hsGblTFJUX
18xXRxCFVULABF3pUi0B5nf5BbryLVJXnePiTO7UWb6Be7O3oqbw4BQQSYgd8479
nQI+XvKQeh5y/ogwFpyD5wDd86qWhVgUb5qA5bxhUeTwzJ5Oh/8VKiBieSxyhZ8s
5BK7uq/ynn65XAFxN7KJgTgqsBW4ZvvMTtpcQuJjlim7sPmBDTBnSLmXJ//ejoGF
0OqX14IYONXnHHKOyZ+tjtDt2790Nqd2f6WnSWuOtO4TCtnTw41O/Rwme58Z/4w3
sflY5w08jBV6avfMODlIJXnXCmUYLly/jrWIaRNyMzzOm6wgH4cug6JWEIdC5ndd
85pD0zKE5P7OfTydQR7V2QipZe9PnbgFwdWpf1sUP88TayHbc+dWTlR6lft8jQZ5
hPKcPy1VatPibgOLoBgdgeFNxvPc89OO0Q5bg+i/5lWH3YUydyjUc0leRL0LT5Pe
jw+XcE0UagRgjIQENfx+GVVO3b2YOFCvQ3NI9LmA/7w1prv1VFHTyfwddvm6iz9U
rHxoeQXOy2qfxrTuGNwrjdEPdAbAA45aE0fdI3pYcGBqs++IccCpluqr20eGxJAz
oBaAvEGZHLubsOq1u2qCorxvl3xblfVmj6Mw6aaNoaiayrJ2xAOAPHegfBACSr8F
v/FxE1lX5esZ/38kkJoDM3Qek6SJrBJb11X4MVGkTRifjNB4murTvBlB5kx3lUG5
Q15zOZ6/2RanMQM7C5/KYnKTTCaAMs4YrLq0EaJMi+LzxbVE5tZiRmSXAekbl/cV
27pKOLwmnVGBGm7H2avnamzJ3qVz0u8J/iWdB+itMYXwWdY8nq0f9C3RZEAJDo0g
lDmRZ3e6+S5pOz5UsP0It51cBd1n3+S5B9Am9t5tP7seWS3KTz8f/ljcg1osVc26
6OzVbxGBoeuVvezzpGcbG2oZHGuwaW032NOmGYFvGY/bekd2B8KuHaEUz78EqEOd
gStz+3xJz25p1/Ce+ySpgoAZG4alZwb7up33mcXHZckA5cyxC3PUYqSodjE9jRyp
U01U4nBf/6aXw3mNcGS9Nw3xG8kVEAfv5OUQyx1nsyixwepepahR7Xz3Z4mP7Ewq
6Ee7SUU+m/dj+1eA3H52HRw3+QvLoY0Ijs3vPcEGc2/eDW/mfv2opbhZAL5sK/hX
83E6QNF04K5YK2XnL85lESuhEeFsa56uX2REskAiclHYw/YBM9IALsGayRazrMbo
9nxv3L66oysH00q+/mQain27UeD9YPYKACAHWzMgdJdHqN48EG4Zq8s/Lveltkzc
vhOfvdUknomMJO81+XDl9IOve6Wx7Bs29nu6fbo5Xk2ycCbUmQZC9g4SAb/Ym5kf
SNxZ90Wcrlh5OuXgIlMu2WmF0y4isTZ5QFagEnKPAiLCKvxgz53n4f+1eS2Q7ERj
nlwPYSe74sSESJtq1ZftmVEGZxwTuUoDgewZgerjCRlX/kVbfX2+WrWdXsQLkab7
0qs4HI0fcFRft6flA0q8kBFRHK59qzpBHuhuJwjfAFhMePaPqjo5UxOJ10g/cvjN
t2YLgS9L+8kzlO9D3H/NQ11+IojGAgeGYuKxq5kelFbDDb5TcL9/X+C7wDcbI4fw
DUlLpRYjzStDktGuy12GAJyU4PhNKlEp6kwYaIsJDD7QV1NyR2KJM1ddYSVf0mfi
xAwzGOWweHeIKhW1343+tv0ASs4GbPmqbgxxMn95RY+xDb56GxkDLOsAb6D4QgM9
1Kanrra8cXl6IIiBaE8rD0YGzwHiPBvKXw5fp7SLXFPx5nBBwp3vk3yWLZ5riJvR
esvRxgsDcbrcTdtFrVzqQfMy5aIaMQC66WyW8EkfK0LDzbZQLGHQ8t5LBrPqwbyk
rS0mS5U9sWfE0c/gUpxcNe7yBQIrTlz3WwbF8QzyR1c/wWg/ZtDPyTUGvUl2w8Cj
q6/X3nchOgz3NGU4D8ZuHKlXoRblLxBs7T1Q6vQ37Hc5hioSfVHXs/i/nRIHFbeL
qeApWcdwKhKN9RDlLKaq1PiNZNc73C/gOBWXBAWiqYvD7kkjwc3eC3ljLfoy1E8f
XggHdTX9x9laHXFyrrgfaweFrv9wGhG0Ljmfdm9nIEzD0P2+FhcZvptjLN0WaW8d
zATjcXA0NTedMU70nTOGqWueI0w/YBqlJaN7NTZ7IrjSLBfoUaObPCpCNc4pQMlX
GZQSJZMXOi2ZZZAzuhf0wv57cPtIaaoi9uwS8cbHPqtWxtFTVKGvXxYJveH/T60B
5PFICKiZMj/Er5J89gqrExWgElOOylipJWuzrXfvug9P8ustRsPzdu+tJnppRVhe
lAsQxKCeeQ3rjDHvMsuQjjoA0o8ZYGCpxkRREVz0WeiIeFphl/O7MAeG6xvtYfuz
AIhST/ZKTh2yKdswquafogZ3KKSOCfExn2aIMBfsZrpA5Gx0cxQ2lgYTd9ZSFznG
IsiP+PlZgM/BbcaYwPaM05vfm4pvFsuVCZV/uPe3xztRCANgzrGOlIQc0fVw8Gbf
uPH/KgZrDd/i7ARQFLjyg8VdiQwyvauHQaqWK73Km09LsEMSVjLAIxB6lqZMtwQ2
zQkrSQmo9KuAj9glXDkyKBDCbovF6L9NN3Oa2khdNn/eNP7+xYIfG4kIYQePhTZy
PaVtVO4lUH/ZHMD2IDWP6EtVgqTNpbEbRojFnmifhF2rKOsaBsPURzJ3SaG3kTsX
9rOwgDQ1XDTTMWwfVCMnd138qP29NNunyektTdulXyVcDrVKlerOW0H3Aimmkznc
X73cNWUd52YZ3wDjdiXvNdLciye/c7X585A8QWTsLsRzdGdL5JFc4s+KICYK0viF
f6gvSSjxWZlE9JPnxjoGwAs4TEA+G1OycTMqxWcQn/dH4wSQwrLs1Yygo4GOlhQi
zgEhtrHtFgZ143BDK9GvbaTpx8Gjm/1KXLut5ixlox3UIga8hjLjjxgjA2dt3wzT
LSAwk+Vn4K+f/POgpcrr+wRxhM1JNZU3sTDTolM6J5omL5t0imRz1TQC/BweoUK9
26I89upxFl5Eam4zAmZajinFZCNCzJlGZSgjWF5G0VIahwlFTjBHDDWCqtppk0Fc
lMAjIJOApl6AxKKXBGSP9X6gnvRAlPksv/i4URQyD0Pzuir+uIO/RK6f95LwaXTS
Fa2mD9xjQ31arlr7Nx2Ms3oO0VYsdMEWkr9NWjovcwRV07JzRyvyLltbnmtWq+x8
rOMHlXB4YPP5HAjO0Lh7dmnGajhH4+qrXRSEIMFOmmpzQQrKts3/pc0ocPXrA3jy
In/kWR222n/6+tAhYUMbWS5FtbCwsoRFGGKJ8arDg0hNnCEYJJKM2jBZlvnsOfJE
GxRE+34jINCuw9AYUGaI/jIex8LWziiVGhCwyOnZzf24vA22QpH6KmW9QfOOlFzj
/DoLhBvk5ObEos2UmA+7bmmEy4eW5r91WQkpIB42yWVzY9AjKHY4/TgLc35MVspU
ZKccr02EBz5fxRWWO4Y4JJLLvl38eYIewXbsja6CimpFQMQZMn5i/cyiZzcXxWy/
YwneeDKxfkP/ANB+O4IfY9QDHYlUpwlzBPStpcQg4+7HeYsn5z2MHtufLo1RWl4l
cAeKlhUHsmL5vvdQSYoHoVogqUULOYhbUI9pG96GaJS3/gKHJM5fDOGUa7TzYF60
IANsh7l0dcn5UuWXXEVTSMZb73YdMOCg1SgS8hcU+veXrpG8QQcFJjOMMwHsM7az
ZXZmb/hGAzEql3gDRdaQuqwv51KFwxLekc2ImAh0uEI6+zifZkiZVI5KMryUe/FS
zy2XixcQ7KVNvh/Zglgcb2QgXjPMezJkd5+HRlO2FHnlGKPLGsuLkD/R03TPUldI
ianIkXDhT8q23i9ItXX3OrN7FAPuQT9igIwIo8SCW7o/5RTQGuF0+CsrL+ykcnMY
kDUUYQl2jDVyAT93IYMesh0vuBbbFUO6+GqsyUSh+b8lav5SssE/1gWo/3RXuTn0
IGKIZHGcOmWPGJ78Zz8uKpTqTz0AbxuhjWHxG4y3tCITVeDFyJjqZittQKK5jugY
uAxxhFo77389aM9RXiySonZIx6I0eYAW+8n3zMtjekXs420+oROZxPvSENHz6O9v
rmMwr/y8UuTtLr4fwhm4OHSpoRYxQDp3TZJpurKVAciRd3Y+5QDHtnA1HOd2TadN
ZhxkuiQgWiCcivOGMaZj5jQ0OZrmxIS5DREYTJhJ75XIedIHdk3oCVlE6u9KLSiI
hx2AF1n6sEtVFg26qi19SMpNzAa9RavNcjOml2U2oraYZo5GYqI5M/WXm0//Ktqe
EWV6YFmrgiv9GH7B+ybwpfRdFNdII199jN1kf4DZn/3Cv2jqGQktyRCxAwcLIlOI
pMJ6ABjdYncROeqp6bPZUVQVoaiioHR+A8QK5lvupt0Xaopqr8ETuF8VwlIogw5U
tHtUgtceKnEWvzSUfCZQVUSnN1i7T4+WgT8YuKTpIlgxw/IXKRfHn0nJ4bVM4WO7
H4D7OL53pCiaOn0ns34nRGyv/pCrECt5/oKgB8CaZ87taiU0NRZWUUhJvQwJ4gx0
Ng+8onY8ww3UaK3RUhtiWjv5BCKSojJUquFFR0kbvx99wXGIpMKM33Xc10SqAjJU
NhF1BSEmEmxxdFTc8GY/mWelhJ7ZfygKWZzgWZOBG6QLOXZkQzkyxnqB/P76/gBN
40XAbYqC6ys6S3f3vLoLuniT0QeCdV3AnU5TeAY0z440kox2tBecJGOtu2zuPr3Z
TQT9plWzv+HjVa7uM6Mbx8MG2jrARzSXxOKUXR0I+FuT6zsnRhiCJKPVHoavuA3b
l3St9joH1TpauMAttFTUBFdvxu2Ql6VVVx0qGzRZJRdUcmVPXfW9AFkNqQDED+bj
RMzYhtGY9izUcECUUdq2ENmqImwprSsYbjD4E9Ha1uHIurA6CKBimfc3UW8lG8bV
VFws+p63NRN6ZYE2Huwcksen2qQLwddDAGv6K2zFqNJ80IAOKSaZDEfzcOkia+Ut
KvNWjOh0COsgwTKxcG7ONpDtNsygf6Zksm4YCkR873GOwB+NGMgtresOPaPRaE19
YkeGqUyQIpgVM6B2N2Mo7i+XyeWvbFG5NT99yz4R/0LE6o16LkPgxrjcZoOUHGfl
SrlzyXLp4EugLxeimgAQ6+cYDQ6sSRVAlr9tbGNcrRg8Zw4LzBdOtpcPkUAh7U6d
KDiwOeUYM62dRCZ6I63CHKrYSZwLi2V2zknLL3HfW1lYAJKhJrrptZHI75xLGXaP
3u8oG3QsRW6ncvrQW/7YXzDACd/3FNBsX6g5mr9uKMnc0AlgwPolTo/CqW7szZFH
grm26t/zqaArHbzl3z3XPP7q7QfTRd1K7WqBgESv9oGZX83YEEVzMgYtbkWl6Qiq
QgCIhHpCcyqUFMfHsFKojLhpszgR3LdN2DKTOaf+ykjiQ+C1wWKWrjijDQapsEkI
rAtYbmd7BALtlEUabGllXk3zyF37bDGK1GjD2STLuKkP7oG3RyKdu/o6o/uWzEP3
MUu/oAYczAtxceTkVvpaMEruQaW7+eyF1x4IQFCp2COLJXDhgzjIehqD0Z7Lqx3z
hUdjUaNT4FkSM39ZWJKz4VmAyNDXFQboiEo6O4OhThFb4eLQsEDY2AR67cH1LVtv
M5PAivTz/l5Gc/FnFYyr/f3wCD2F5iXmP3SjORlkpm1necDd8Gajm0TT2COJKV16
hulBR0VHw3P04Z0ZAnG/Pe3xUDqSXeRQV6dnEPZ2k9U31DBWIf3NVFcNEs4YiBPp
9rhvi2+DSvykxevGwiDVaTlh03FxfgmHPhS72odjG0qUH8hil/mW/66vlG8EqRiB
hluRBEOp97pZ8ykd9aqBznM1xFdadFHkDnDvgRrRp91AHoOauKLvBgNOAFGWCEfs
EcOao+gXAak5SwJOT/EAnSvfLN/oE9kMvvhxyHVG7SRoc3BnFzf7oZE90rgArHRY
1st5i2Jz/S3NIq6qWDS8s60nbiaPW0M67vYKiLfT6aasfoA48QxrpJVhTcl9SK3z
27k2JJp6JWKkU92cN+ZanQ7m2SjbCsJRaLCKQgeovlyJrxv/0Ym5B85I968sK2s0
skZYDp1N34joRxgbFQZzXQmUotjBPqmGgXXE8bsj0YgwtXaAONMs4Qp6mOQAp7NZ
FxI1+UiB4nloKyXlhiL8emWfKL7DUtWBueht28uLGx5mVED1y/s8iHc6wWqiCqC2
5eMAo1lH9JCoDbgscgSUPYsxNrLoRxzs9sRGrRWxNcutOXYgU2TgDQ6JRinI1YlA
5K68pKYishlXsi3g5u5inorOqKA0L/9TL98R6jMTEUUEL/swJwRpNmOK8ZwdKraH
DSBEemxUmgZ7IkDkbnhFBpxPO5LjJa/455YAxqO9PM5OXc/Qo9N+9fWijEUM9fft
haeIrkCoYmhIM+bdLqwB9gOtnLazD7udd6VR7HPnuB5Ie8UFIl49FUPUKv5ktR8+
PvgTS6arYW4haOQ9OjXZIsOH9aqDIHhS8CDV0sEweu6Jx5C3WACFoIW2d4RWIkVl
+gZYVhX1Wjh24/okptH+GtaHLCKNQTpLt+3vqoFC68uHBLN68jP8YzKdJ2B8L/Bt
WJtEgmlEAbrk5RGVBy5jCarIkIX4xQFH7XOH6bppIPn/UMNRLdOmegNFCmcLVPl4
93G8b67NhfP391eC5bjyjnktCOSasKw1uQiOowF1K0j70HyXcwjH9KJbjjV0k/kT
z5UXVFNn+jQ5tUF9TRXnSv6VrgCvXlXdYwrzGQdXdLRytZ5bk106S0jI4Uwr03cZ
TSEyxxQ4aNTXRzAs7NmBNCOTryKLKS/Z56kPzrWBZh5SGyKdveQoB09JbvCNW7Dd
+bNXfbUO9uOuh1YKqlChiWc0IyeJUjgxCEnFgdfTYaW2gkYvt5wwoSzGqXultpJH
GxGJv10sM/b51m0T/QDVMz6YjXKSCszjKyRGmNzaSFWnlmfMQASyRAuNzoPZiczb
emd9gxDUoFFzoByMa9aJFLKWYdbbNV3QO5vtz0oADXmBGsKwtiq+xg49BLZLRLVe
VgGiT1reOugn1LUufyKzRVC+Wr7C+tZnBkhq6xPxWhJLfL2VZvwd3FqVu5pfNdrH
SzsdDFRLsp3NYzFUug2NNJJswplrzC2i30bxnBJyRmqKb/4UX80qlyfCu2W2q52G
3ToknK6gly1QM5PPxRm076hIYXBoM43SQl4L3eLjdxLEo7R8c+jlA81LRxuVO6r7
DpiXgOdBRNLvPkoL51Py61rSiIZgVzrHR+3P9P6kmANiNyLexeaDtfJYmY21RPI6
0He2XIfrW4r48/KzYw6PUwyBjIrqeUQ8aVnxM3Uks+YYZ9N64CeOktOr5WIFSOOF
Q4RiHrMsfe/0ykMA03viD66cgKkYqSurcElVbFk0iwDTmFUsY+Mpua2J9X/GCpt6
GlQkpw/VercMImEXjjJioKLnYDE/juAL9g7bXKpKH1JYhCldNRHskrHDNWX2TEi4
0n9091Z/xQ/08WTpm36TrT1vmUIiHsrdRRZqZHEbGfI37+4zOOKxNfxguEgOWywx
/B9TWyGA18YUm8vN336ALN481LbylTmDFIKXwTFByO3Jec1tAIbAXX/r7LfX6Q/x
TSl/lSYGVTey5hPiyRfNQuNfaEVTtqN4/7HZ71cI9ngpZdlGBPpLXu9+MEyRp4Rd
s6DTBP1aPtZTKkYx7R56RrW7D00LAZPv0acF7ZoM2dbNR7QjK/1vNczB6j6akpV+
CBkAfDg0iDNrp6Bfq3wLUlYuZzY0oWVRqwyzh3q17luEb1crKkBPm1mSI0SVBnH2
1otgkrAyEnP+NbGRMxkxUwELITxMDrBLYEs0z40qaIi4bDCcXXJhz/ZAAu4o78ig
dDHhNNiwa8Lh3irCYAIizsUV82PPRLiqSc7nw0Ypp9JpYguBrNK0Vmtoe1+O65Jg
+ZoCwX9BrNvt6cBZ2C0OXpzeg+Xrp7A73Xo5i162zDTfqZKOcG/+jY3YkqacJeIu
h40MUO5JtzaXuy3GDr9yGZrJd18TQMsip6FogK1+dGm7bFkeK0f1rZ23YQyu5kgM
TrQDX4WAtA8de9InWb0TILLOlrO7fNL+uuk5A+pU8pxy4YLHhgzjP5YHwv/37iQ5
SHPDLEaZLTJ6e6mnfEH4VUqpLpqBVtuvrKp+o0KPOg/ArUqIkvm86QzcDz37vmFK
pGygN+M9vU0juy8V/Bcv/EhOLNz7YAA8mbbOWkBU+SAnPe1r8rHmVoLsLCYY4Rux
ClD+NCkCgXSmek0Ff1pdQn1LWpen+JAKptEmMWyYX225dRO+rKdwkZXIOhwBuEhr
VnIXxBnO1q9BxEyIEptBBfKhyPRr1OloA8v5vFutcuPi9fULvLY7RTaD8KI7kmr1
ap6zZGUE9T3RTvq5sU68n+P0pAvWTYC4PNviiDJKsnfQvYtDfjEuMP4atqJCuZin
2MHJG65MuimqYUF0ulTshMi5nWVw3IZRDWktLRZkck9FdqTwMZRQ4NSfhDIY+7V1
R5B6O/5wb0CsHPRYmAYK94ptW0ZsJN1fEDwufi2kejZKGDyW6N6rnwMDa5bHc8G4
LfkWB2UX5AhqXOnWGeC2mHk6FfGr+pLdEGvzT8qEQsKe0REcMvwwMDlkt9VX5Gnn
Li/mZV5HASm4TqwB2A5/4Zsl9l8fLT5rhIm3xwhVSeg0vRxvS6IZXbXrPwjEFPzl
/hx+xLllNUheyLPq7gvSIB6j/ZCaZbkLvz8adP3QAh7GYuA+yJV+jjZXRAcY9PJF
CpkPze6K1354WUtHJetN8Qs5yUy7G/jVES+LihflqKJ7ioa4/GfK3RupexnYz1ds
eISMjiCBMBD8FLUfgCBPS+L3zPIMgG9eHeRNsT9STu0XuQf1mWMi6YL6ukWFZyJS
swpw2XaxzI8mf2dNiMpHdG9LKFnKRHBqaD9pNaMgFcRDjCOOSNvyeZmzZNqzXW+2
QkEaKXdSpjJBS77X/IH/R5trb+TzaT16Y6R7V5EGinTEyVQCJiVdFFOxv8/lgyfw
IBKZmKquOBkdcImsC3AtrwcFcUWV8ByBcfqCQDTZMHi/EPwl0u9esUSNIpqjK3Yw
BYvXbOxU64/BRvJHmjmWsblSlPq0zrcjWZTkwVywslnVDbOtoy1kNm3/k2z1N1Qt
w0/Za/N2+Ip/bANwUWmsFvjC9IGXYFUCsE+jviPutxIElXd+NrT4lzvOmRC4FEpQ
TxT+KqHIAiToHX6PexcwW5OqwZGlGeL2DfhGg36gMaUpBY5JaVRDPBRYXcBi0Ckd
rwXdYvBaupOeiwz64J7SkBFAkeXtqU/kfvTfsX+GJaCIZrgeG3uQj1T0CD+gwXra
0vX1/mtVWzPYTy3zLCrbBih3+3o5cTf/5FgiXCJSdwYCxIajkLL4uQT75VfJUO8J
CpyKm4aQXPsUQ95siRartfdWUZSH0kvyn0j47vuadPunezoMvev4JSjcyc1qhfYK
9kT5DLMYJBq6o5DDj5i5mVNG2AE7Z9XrYkcharUF8V8IvFPpTOly6w0PANMqtqU8
koVM59Rj/wFmida5ExtFqHncw9D1e2S3ypLAFhj1XNZ3wGMizak42B19mDiXY9CY
cCNC3rZtWfDXyWTkmgvrCw3P00YZKahLSKSsja4fFnd5i5MBDU/qI74k3J5tSgwy
LR2FZlQZj1xqQ+go1j1UvTAqqxs1rt47LNsopEffiAZu5c/2/UR3UhSRQsWE6WuU
ny+csFaYreuWHw5OdT7mCxYmLYXpJlv7F9EGyF83bMYymWPocVJllinUF0wwK+Kx
P2gXF1wb55Gz91OQk/XAeSjIsTCpL/THE7WeidcMa37ojJMTlE9gg9vd6/pC8ZLH
0GWvPJNmacZPQy2k+76WCHGsr8yBtlhsRItfJtOi9B+pH5o5dtzwSYL9zXKnG1A1
r7WJbX61hLAHJakRICMfp6NyxgdFN2jfA6318rkSq9JBEJQ7xDoms3ZOrtzbDDVc
ZtVVg8Q04JRk57xD0aK+fc5HipHt/5r3p/E57zaA5O8b7NKZ3BcGEd+UzSvoHDzR
BQAmWj3MUt8V4I0jSgpVU8nW7QOBIEnfBgYhS+UVYByq/HoTQwYDvxnfdZ083d3x
Lfzzl4I4SAWzxLiQ+yM8a/E/N04atiIViHIshSQMVMD0MQ8DQ3hvw5pd92cAcLJ4
sSNMr/T9oINnsDMupNGAoe4Tf06zKx7r49m+JCPBmNFDFJnFSHWq3wHvnb7TKxA+
7ZjqnRGu6Dp4jHJHlUdI+1aZwFafCtnwFVrKmaYSdstUaArg0c0eO+KNAdnqlUrc
TCGmLmlqwoESId/mfQPNupC9NGa+P0nrTNBnczwACi+dvYjKFmfoF3DRQmR5DTHW
RkEMc838WGNJ41kR/hgtXE57PUrv6t7csdcPfu/ay7YrmvmqdSKM0QcMsv28W4y/
7A1ETs0XLHONB+4UNVlhcuVmuCFWjTrIkoa+CjPX62hSIomr48YiZshMrN5RgD58
MKc3fbFHcw/mI9bIhcG6Q9jPT7t+HWAw5u3ygUMWyIZlfRs+GhEYN5OGESM6kOYv
QG0z52uq06hLjqaj9xhUoQS1MtOWPHtnCSLtnUHJ4xbi+6nNtn3hPrOoauz5D4t2
pNXTijYZ2KLENY2V2q5+rSlTu3NY3/4IGo2WHs69xbtnCyUsDAyQv6scNYJNAEdO
NCXJICnAfFnZxsjP6Q/TKrC1+F/8pq8BfD/INe3LLBwkS3OtZ9bu032ap+WzNrdJ
Gyp+vT3cn8j9xVqtFtD9ruN7FwliGeC/ONySIppWeXcpl6RFocYldaw+YZlIGCH/
finlL9irYRGXPi1Qveo7WS9s0jH+IYvZbBm+oqk388pyFK2kXLrAu2broMrE5g0x
yAG0YJOQ5wIJUthhSmfM6lwMKXkuz/b+DuXLZZyObLQoUPEs/4pkYS8HKjCZauMl
q5sWU6NLCKiSPet2DwrFa3N0TKJBFD4RQCZJdKKhN4NtG1ZOXOUMe0PcMdIsvzAD
1/IRqnGdGHScZjd+lGKN2bf6XHs9UGzGrCZPeJ9KU+I4BJP95sirBVlGHCz5lo95
oRitFqYiQ6mmUmW9xOeJyz8x7fyQD+dBFBiQv1w3FL9BqUM9qohs00nc6XeRwYMy
Z8Mx68UVS78+5PGipbSvgBfsyPrdyff/aTt8WQ2unBlsPNH26ZBIjWoqaapwe7K5
cy7TD88GvFZJSqFBSRJOqZsHU70falV5AK3OFu9+cT6jD7qBrtsz56PtoGCSB9H4
sa0r8v7bYXrgwdW9xaXacE8/Z0tjEJGWFgvdZ56lz+pV8CVsG9700T2cWUM1hBWm
Gc08dxIlhmyK47ISN3RxWzNoCSM8bwqEuUuJHu/lVXNrpFiKnUpkV5tywnxoAeHu
AU68S2QYk44HQx73sNJ+i1G5MxWx8wVVujijTwoDkLu+paUjq6XmsDY5HtyWzH6Q
H/8gECDt85F18sUw65RHBzuyZdPg7iRQOVcKbup0xxvSuwwnDce+LsCfXafN5uop
1FChlceAdCE2FK41Id6Nm7lalgZhmG4dM18F2k689jFExSl2+R/LDiCFDkkbK5ZZ
FntpUHymtTaD7xj58UHGjepEDwFkYSkP2hb6Anio0fx59f9e7yQ/X2Ob19wTSOzH
412KofYFXgl6Gi3XTIxoRX/yXUrJWSnvupg3HAvwfEdtcDEcpH7jfQTgFR4GnIba
yDRm4xXTtEuK33a1HKo048inoOlmQevv61TbVap/kpZacDrLZF3SrnEv5T/8C/9O
FYTNFsgswQyyXntM65XG6biLshJnpbfkpNCOi7w88m7U20rwHt1cVoHhDT60WSdw
98Zu7RdGkuXkxoZ3r1rmNEB6N1lPvVIeDNlT5dZ1UvpMfL6g2G/vsu9qwgvaxDK8
STitkjOf0TnXhuqRXqI+JwSKSo/i6SzkyzGwFbD08FRqmieCsrzUky2Z3TgYw6gb
iPKv8CvRIe/Of2Pe914W63ruP3ySAOfjeIuHUBG7ikhQFPs7UQB2tK2s9Z12ikct
d500j+ayXK6BmLPTC57tLIN25q0lr2lFUrNNkWRllYbTcfV7UY0BBmmb6BkGoi6W
3OQr1zQh0Hc5IYQzlcXyLdojaAp3oROhSG6SKnfvabtzlWoM/s5OAqlXysFTHZzi
xfpoBRJwi7V4D3FN8HMrf5SGKr1W1sfQIkSWrDYITW7ydRmonGBzx+K70xqOtrF3
0J99A1SmHbnYYpZtLeiI80zVAXNnHewKVkIfZvWW8ioiCqLgNQj01RsOmqui86jk
xYh9RNM5pWss1pLfWjiLCCE2x14EMiuidcYIE+a7nwYrr3VgOZtJbn63U6Wo7FaB
hA/Z9zIWzNOT76NIYepPbdOKrhxy0g0W8f6trpo232KvHPfZ/9XX40zqadOz9FRr
1x1Io6tCh4MxC8bh33RKdBTmABgjDXWLIgPcpZGiQjhNvPhWrD7YAxpiR9otqmhg
cSSTcR+X0jOd5jk1OHd/swhR4O5VzAD95On+n/o7Q+0U+FUXNRKDMxqOxhyD7Hij
YreOhJSo3X07mNntD7DauwXIbjIm4KVRCiNxv7b5vfitRSI+2FceCd29iUS16w02
/fo+ElmUPDBYmzXB9SyP/oMUaP7ypo6E6ioRtQsmnM/JjCpOwlisCdtg37XeZm/o
Gu/lxc/JlU1Jyyfi/8e/TIYmjURi9bYC9M8HJMxuZpSvN3Q5l7M6cOlet0CgfEo9
+ev2mNfziYD0XAfOUhtGTk3UXZt1AyJ01S3+LNvXP6/tzSbJ5VzF1bM2c2GLY/Nu
4uW/rjmjrSyxmUJgN2AyQxmj09jlhQtvdb7NqR5RpwaJEO4MARJ8M7OWvY5+BXRE
peSzBjdK1Axa+wNWFDHa6uaurHPWVmC6t3DfaSc67x7N/PnP2r+S4FIF5+2xRkPC
OiVdl9YouCof8vmHVmAilueQI4nqTDQV51Bvnn5sys9FHKEQmPuQwj41a0A24FOC
A3Ou6xKvRGal6fEjULE+g3EY70KDiUuvQU54Ip6p9QVhaAAqdwUIX96HLuOYOVPs
gXtAsCUGNECXs956i66tYfYPcsuolJqsrJH4mMsfA0VEvXzu+u6mY1nwwcIdruuj
k2ZXTIz2qfkYbGd4/sdq/XpW1bonbkVO0tIEOGrVW7ITkTfCSEX7iiJWmaHfqeiG
IPOXSBZ73q8/PaadoCAAjWUftK9JjOOptBVzJWnaQbU6wbx9+X0pkcPP151kss7W
p9IKVCRwXqq4X+nE+rqe85hw8Y0nFB7BRrov3B7Z/kAbin6R1+36TKaosQ3wmZMz
0WDzMmwrHYhRaYFL19pt8TRs8gQFadfMCJp8O2U6Yka45A8JmiuNCqnguBueMUI5
W/Jp0GyQkKcgI9UU22Oc/776J2b/H++yvNin9P9y30LbuTCYI8QB/w1jTynhxIak
euKCoodW1ObPdv3sD4LXIU4+0nttzx4naBUxpANFJ1tLx6XyorUpKX43WA57bBHE
cm5k6qqjiIxIQUXi2svR4uk3YebawgX76bOhYpWN/v8L+WaohcDz5KsrO54ZNW1Z
+brJ4sCSTaoNSWn00Z/0QxyrEDa3C1WjlGDaka4jTOb5jIQQbDNyv5OWwGkv0CHD
4xjGxh/itcM3ZdkkalzQfhSr72aU3k6zr7TI588kY2j4AdiMvtPC497Au5G9byPq
D+M057YJd54Ys+x4Y5fFRVu22EaqmpSgy+gzbtzJv/JMDG41UOJngvcoOKSdQ1Vs
QYISF3jZPq/DeqNdwtV3H2JjxvINoU+BG+VBcmjadmyQTfkMIiePYE2NVl4X5IX0
9o113+UDqzWBCHSn543SV4L19cqujco95hf/KiTgFeOLxDoYQ0cMh+IHs/bcmEs1
faxoZiKz8BTZ1BAcqabmRt3BVWTXtLojE3GCiWiP2IQ37lIBFek0DdKz4j4whTsE
xziZ1GVm9+1y6KGpyJMhep1qan/JzmESpng3r6JNPfdOJBhK6TWqCW8MRr0T22Ui
vLnEuK/49njqyWhZTXjnVVpdsmDJCXhSDXKlh0prWgVNw4ng5O4QakZFHK1mV534
quH17idnN4aRrfaOQAdMkEq73JtwsLXFSo5C0erUlYqqczX7bGrmzGafi5MFqeGa
xkStFxkTbWKrTcQ8WARGLDQDVym2hmAu/tObZT7Kpy9g6vPasXR7TEftYjWtHkJT
36q6iKOH0Kd3zbVOjv1SI1GZS+U3MEb2MYfU9MsHCZbq/v3PrL99wvR0alpsEgsV
sTiYKMdp1T2aqFvhv1gMv0eNrjevBJKt6uKJx51SZvzKJ0imLsuBIrvJNk9xnZ3f
3Ks5Gz1ywrjA2pKMPTeiMdMaCP9dV7LsbDTVkuHkD0ZjT4UN/NgA9inPA8F7P6JQ
QIRFmwQ7F8EPKdRZzn8aUfW0rB4R2F7CiojSPAg6FMXqj5XurTSsGSRsNJ376z7j
BcKWuRbXnVkVYKXM26M++GXx9ONWioC/QDi9j5eRZFvL+NYl6J8D3AsFi9mCxI7+
1c5XOj4afjPjuXzLb7V3e2Ih0gUcxKuQ3LluOKk6JWaEDGEauh/zyDP6DoW/mhMT
jFWPb6FqGndu5992jrE+MU51O+oQmVHUfNowjH+BCjbmbg164+1cLvWl/G832ZtJ
j3tI4MalwPP1PqjW2uWDUtS22MTInpHtiYJkpgZ1mxG/H9uduegdBkJGTm6JYuW/
0PrLxhXPFg6UU7SeK/13A49nPPS9d1e4uMBCYFZ6N8IJPilTp9Xh41qj3mPtcVnE
+vyv9wGZ2iZeCIr44qTYlwK4WDwCq1yOix90Snyf8dgT/Gcuj9aUPSYtIVvbz0PU
AJbj+rG6Saj41UPSd13Tj4/uekThZqUBODzILDVbCFTkwj4GkR3KS5qchIXh9J/p
/u9EKFdyjXGBwdYrusMXYMMnEU6yIuHiV7c1/ds0CwAJrOqYHDyMQyK6iMxnYIuN
SZdWYmyhkvGABm49fOsbr+Fju3ZDlHz4B48+7vU1cTuzkZETUtKcv0IRY8ET9LWo
OZp14m9J30Ap7jE24ziR7uTJs2+YXgE1JnjX/6a8LVfXZZmtjgudlLuOom0Js3Tj
iCvkJpMtLpVpYImEkgmg13JiXDfK8ayIaSLSZF0bGEAI8wA2r67wuI4V6YD125no
Qe8PNzyRt7kkMHiX4Yn+4q9BIW14JpWqo8xmuDA6o9eLr50aKQp2b4ivQw328/Ew
m3ycnHeHgu4nw2L79P2FvQPaXvwyfWxA8ut6xZXbtErjzR0q/3IzfQKzrNRpdbls
ge6NasAKn0iC0xpstsFQcBEX/olhzQMYXu7TXidkjBwJWalZGX6UCZYdmcA0OuXU
3Rrsykp8C7N7HIIawp6brdDcGwEpzRrm+tyIeRSGV8V7snyFYET/B2GwtvKELKXz
nGhErqj6k2Wfs7+U9jtg2t93LB90L1PGhzW6WZGN3r0mVabu5mm7Vd7KHGHu2l5V
97qJEOG983qKkKL7jPuRRDVHVUWd+NllI4h2eyaZBwGyVpy1c+xjV90h5Hz/ABPz
0Lu9+bRuJ+CkRD5InYmfBZQVoP1T0cdXRl+d1D4nsD+GBT539YpwqaZfp7uu28R2
OepioBBuX46rG867qLt4z/RC6mOc16UBMB6tznjiEnGajE/KeTvm29qIY3gdcfkA
obF0skyS89m2e/rSzCLmFQTvzO/1WSp//2xHwTLqfJGObU6qQhazwCSWAWjIe1HE
mWXskHZouzhsKzZQoz8/IZUV/TNnV6gEkN3XQDDEIHI9kLztxPYCZ4aeGAiZDG0D
lDqS6npt/QKfdXgbse88irRuIKeV6uYIFrUjvzYfPZFEmgEmSIuJZEeyGS+gimaP
O/IiYnnR/lKsoiQ7FrMRCCDrY2CZxDhXPPT/JfEXa1Y5u0NOyB2e7t2O6IlFwkB6
UhzZg2Q3/ZpUPTCl3/OgK5gCijMexdeceJey5bq8M7rOz9H3XuqL5igORfwMl1Bb
YvqPVYBPgdQTuJkfnexvioM1qf4Mh1bdiegtjalTXwkqgCa5tZjK7fCLwNHoGfFV
9NfqJl6o8Wm6WGzCpjaXjH8cgftpLX3rqww3IrsKd9HbsQmXGYl0Vyad/OGkmrx4
/+5dibYBUH8BT24glZniq/u8dmOCA/5uUEh/DT3cLVgpOy57UeC1SmhyUDYkaUNC
vKZF4cqSUsSJNK9woJvTCQuuJZ8MwlNF9lqG8mV/e+dLcFJuFAZ88UvgPpO2Y7Vj
/LPG66KS1qKEF/CSBCaWp4wK2p+pEEElGxoes1gKBSuzphRAWXnjJ6aX9dOII3pQ
FtfhjDnRw0iYvkpQZ6iZM+pj1EsYAkbUhP8XSOGqF5cPLVlUSGnxhwN+hrHF8Bf9
/07Q61sjfjt8a4HAozXdK+VxwSQq+Bu+fFvDz5pMcCoqC90Qn7LBAWgoXxHc4YVm
C4kUAnmcKx7OxCOUmPSS1DAciO21sPqhd1rGfG8OXAMHz5fl1b/dB/nf6WSQ7GAI
GoaQ4V6H/of6oc17Np4MdkIV8FPUOCnMmpnyc6UQnLgWXQyUeSeXjV/srG3w7jlG
mN5V2RBrJk0Az00gx2ZedB7VNRFgTXgJwfNnRMloVmFkvzRAYs1QAfz/9TORh6pO
e4oT4TgLQuce9+SyLsHlrEagWW4FfAj4UQFwine54KIqM/UW2CJ9iMl5ST0dsKRo
BYs9XKXspoxyaSjF4rcfTxvBE+l70ZfXkYxGURIwCmDEpv7s01FeE67suTycG+dM
cpOLjZBBz200sh6YcsxOLL+Yxmacv+fOwnjdfXpp9MXBmWbHEjVArBJ2G9YfFwnn
NjeAGNgJwq7JMGPmIWYYU6GpGjzZXPskr7j10QkVo/e2hTYa3t+aR8IDf/3jb6r9
9iQHV5SKyBwAKNsT2ONsjeUDXNB9+s+DNsQoN2993sZXdZgEEcUstatzs5TvTa0U
mWkSEZwCv1OTfasvAyJJNQ8D6oOXPJyAkSJKBObfQbAEsqFlzsLoUzBYfq1pkk92
ijtmMP5qR3rujyUNXoWyu1GZY0sXAOL2qCBj+NEYhQ6JVCknNVL1CvJc0XfL2EzD
/dl6RSv+PkmonAQDbNOCXTF+RgIWo8+gwXSJxx9ytrP3k4pEXpzy3ZwIFbXiIrVn
BJ/COQMsonE/clHIB/Unm23jvTMnL3siWiRo5j3BeSFM89oRfBE9IlYKVgyMqqfn
3RrhJY811JVgeRXF1eHv3+91dxyPvCAUuTEBCWQcOgY2gIAqC+CQNo+wDGY5dfh+
qRE15elMkSBXU0qexsgsSMAAQ5//eilDrfD00JGOXhOkK3Y3ddzuwJ0l9UJFA/5A
B7DdRlPTtialHY3j1XB3i7rHgRNd0sMeN42JyJJLJoJh8wngUESK2Hat7QvCT+Kf
UyqayyhB8DJy0bmfMhR7zyjgC85hprsPqdRGD+ZGKNIkAsG7pFeLc8Zg/ayeAvcF
xmBcleK+xkpkGPtMYh46fXnLDpuc+3vjv5gtEFculjI4yYGmgef40l61DIZYnhx6
XiJ6SE28qN7ZLqp8RYMW3P6u+EtD94gVdeFnkpsd0ROM8mG+1f30n+ihaMvqRQHW
Zk7mYD6VJfFMzFbfh/DcA0xy/hKiQX/BqVrBJx7JElXxz2+SRvuRja4p22GDGLb4
hB17pb68u3XTvUdIraOH9CZe6tr6wXSSQEgDz2xCgVfyrww5zLV/SWMIPin88CpY
8Irc0OMVRrTlt0pgO/HKgDLZonz+hmPwpFacuNXfT2tHIv53cMjSMDGblG0rIbXs
lYKVconMOuTaeradIG/Kv1Tn2PEktjjGDu4WQWKo/4MQPc/uKWy7vruklbaWpRpb
MapjrcD8jl7kvfL6YY2WSmSvsqZr6h0ilvbXm95hOj3YmATVa/IStBjoESeUpTSC
BOJYGjC5vWHf2FISIGWEyd+2/n/7F54PkV7m+EERpx9biJ1/h+IqozccCNcu2vII
9gYMKvIsqbhG/qDe0jaB8IG1scE9CVRoG6rXj7ReeB9lxmx4MHdya0KD/Nu85b3A
Gkwom0L4dgMtyxXrMns6rFASC7aOHwvvJcA+exTwnoa3H28x8cfprkalA1u5bDwU
lZWFiwX42hktDrPFzAWDCWPoozL2tYG0LnNKuP/zGDt0u70cARIsCt+ajfp1GdAI
AKu+wbQ5b4j9qaTz0U3h6rhQpbrwwfe2Zx6yx3ZOfgAEAam7RZj7rxA2O9UJ3tEg
U4WiWJ63PCJ8qgEiA6uJSnecOYbQ8lQoNOuL2jOtq/msEunkC+zAKIqmLfYDosQd
x7baBIKp6RcvZs6TbNnjtDUrZbfO6LAb/M1fxesCKIlvAb7s8Amzf0pope5IXOFG
uFHEzsnD/e16DrYT1ZIpz51WvZ+hwlJKomNtQedJvLen++wDvx61Ix9kbMmCdVAc
DoTvm77N9b2JzfFPrPUqOmnsYYWMHYrOQvKxf2NWZnNBtasv7Dd+xh0LOpgAmLAw
H32ubPIi/QenfTdKdhoGtcOUBaKOOmyAQWlmJFjdZSLUK2Fz5skHsQhkelk0vl3v
Wk5JDYmgFV1JVKX8Ac1ahkmsOtKkgd3YFTgv1guykhhrwFHHpyCMnVlNwQi7aEzS
4JsRAHzg6EswLH9mXrs/soci0Wb/vbTeoGYdMtNIq7BlKK16MJGYJ0PyXLyCGdp0
jD64qT5zhhVpC1Efd3uAuQOLgX7QrMEbpLLs43C3I4UNjzEqyc4Eu7xJzhgMbTNR
gY3t4//lROwhocjQmtPkeRln7cWjRs4Jz/YpOJdGrpTvyR+PoNBNsGsUfDyEpY00
eJdW0kvgDi6Dv2rpeinnGDAntwf8gi9HS10j69542C26iF5WurkCNjdlZWZzWTX7
lo3n7i1OmKIwP3EbuOyCBQqro9RxYCEenAVUDONFwlSja224F/pZVeGF+V+HxzGA
BKKvVZ0HsuFYHoC0ZBX0KBcYHbFiQ65IPKNSH6QBRvw3AWUVb7w6OahMFruTkyxS
qiOmXHWp7d1Ypqdlvria9qlrilYRo0d6Sd4gG1+/8R4T6Fp94FASjMiRTY+5j1E6
CmEPhwh091e4z6KtSStEOr+DXnHmg7zWlwrogkCLVQQ9GiN9nyFOTNwMVGpCcBnQ
PadH2sl2bTaXzEvUgS5qUiAy4UthoskxiutzGm8R1aUv4WSYVV4gYhF5dgaerSyN
o5HJfmtKbHTUQM279Os3GLGIh75XgUVam1v0sMtggQO0UmdkG05IfTGl3mBt2N94
pTXegdhb7QMbP0WhXuNqpXdbY8r27xECjuN5xwRakv/C/FtIIHlEiCzMkXb07PY6
HZ6Qfr+h633hcvnNn1zAK7D/Pyw8Rb5o72AGCjVkZSpCCq40q5uxjkeseKha9viQ
gUBciNq1rEmU7s9G5QD8FIdZnx5qB0AeotHOh/1VYOczQn+2dJq2jIs/fzT6PCKu
zfG9RGhzVNQADV//UKSL/9bWIocGUjZ1WUDia756+A4AJ0Mi1WZO/mNTcW6D4OIc
Qvauata1D0nSQo42EGqJNI1GbbpbPzb07xnuEicSM8zXOrIZk8URJ+35GlmnKdBX
w/V+ZfM7wMNZhV3+iDJq84kzHnCDRSBs8LiTglx5qUNKllGGO3tzc+SxmyBy0vrP
7L10326a0dauSoOVLLl/MmQvCyytPLloxfPK6UkwesoTT+fSMNxyh7QNA68kxdoG
oNJJLt0dcO5lnyXQLjUNbwXGuSWoYGiVkE9cy1dPkV2ShdT0t8PLMjrLICpFvhJk
c/A6vU+obopCf/5+7aORSVYNLEDin+u+zLJTCI/E3Emur5FZZSNTxrwhfwzILIED
GzegFUfBSaBkEzo7nwDiDK83Ne5wtMwF67VuV5i4BZtVLVYoSFPtvUAOx2k3GGd2
lisFQNMozFyKpvxCOTxgQ43Y67x0teaHrkUsqXGr/eNyIQIc+rcGyzZ9QNSsRd1d
ppzOGUCkrbaLhQfse/08N28ukRW0VCQ7pOhvnB+NQRKb+uqxAaQ9pHNxB1E5loXN
ECfdaqbmKthLP+3FYbaUQyREG8iPYQAiAQiYn+cd1hYafxSqsfOhph9Hkvizeu83
xcfKwMGR3XPYHNXMzm4la4ABVzIQlBaj7L7/R4FqEwDl6A9Fe5gMsfqAcEjg1zex
zcCxQ/UT+egwCuA//dJG5uUbKAWf2+oEpE2VCNuygllyPTocHoy44TLkIQJ+FcmE
BhK45rCa6AMnJ22Eb/NQUyc6xerrYAbevhLT+K5cI2NGrw4mNLGErpN8ifpCAIY0
vp1Xn+nGR7Pm2IhPz6bz5QfUHfDzd0oCn4J1xpp2iFNbYMmluEZYPjwuE8EAn87j
ELtWcnUr/tOBVc0aITI1f6pFvm8Y7i06bkeBJLg0PEWYYmJlYShrohOLY5cD/T9z
BzW7g1zdIxPTTmPA994jz24W7ReMNWeeca8CjmV7lOfj1CeL7BHC4YU5U3etk6WR
xrFNpcrV3iWMN1RsdmbCkBw2xB57/idYYjxpYorvw/2GcYRXaFDCZoVDYjQbVO6s
zqCTizdGhAOvYTlqA/gZhmzh7hanUTEvWR0c4TI9tHYbeaQgrHPRRLLC2g0qpfpa
KCpI4coY9sVm842s69dhmDjLVJViNjyPi13vrwaA7Omzhk3vG9WrcWlheyL+xwh6
kvqyObs9zb6Sd9Dfmgi6CUOTb2V/1xUpYwtgZo7jAi+iiL/wLOUhlnNc5hAeq091
BT/XKOyWifshMDYfUi4KAl9sO2FiRNzDb/tOrIJbugsbKAQk/8rKSkppdtH+sr3n
kB0EFHj0jPROhVotr2yX4eWi/cdKOE+gkPnz8n7E/5VVb+g5fyCpm23Q+8P7esv8
qMCOvvxkItXYJpAz0g5t4FxufwrdkaTDWOEw0frwET12n/555ejzrJRXESAm4YSz
CByv8wwSlEQs8K+qox69dzYV/tlTpSHwE/vQUiE8kJdoMw9dkuJj/W4JaNNlE/T7
1RdBFVyBzWIqDt6t98LYkJy2Xd3sP1eWhsBWeRnWcUvdrmVRR+CSx4BZnse6iRj5
NXQfau8BT5ZymMJxZTGpNlRXU00vRkf1oODzFO44aq3ftTkaWntLLvlovxIl0jxV
2xnE9NVZ1uWe/B4ObUUNVcx/j/Ipp0iYjkL2crdihfcm84Cv+j78WLukS7Cj/Jg8
hAtexlczGyVCTZGI4suvfycWENwWS1sowWWPr8dyO2JT7O2M5uR3ibixrwtujJ+e
V8UYzOLF8hheTNX2Ej1mmwPzfEhT4yGERE+rRK4adsHHsXYA1VJI2+aDY4HSgF9+
pW5UMKy6XetJQqoko2tZICpfg/jJOl1jGVPUXcWo5pGSsJFx4wRSlj1xcDComuxa
GhiWqkRxZOLlv0kYUXigvkAUjsGRX70zJ6RQono9WNFJgSU5fIRsan6QaNV6MQbj
SCRE6vO3PawEjfOha+2CeJwN2IEjKqccbsfYiFDvDGeyXXpT1Dss9mObD7Q/m68w
5b/en0pvSEUfm1VYAE1TFGBpz2AbZx/x5mbOtZnk3Nf3Np2ygwrZjAdOnFwGXwlR
QdymtLc+/+7OCC3B8GTkiman9trjGst3rXc9nSzOOu2itnqHE+NWb5FX1tF8FxqW
5B2UTvvMfLx1rBsY76FQF4vz8oNbxXQhIDipg0Jd18P4wHMNbUadmmfKiBzS0Hal
YElKzENOAavP3RR0V9uQDRvPW+pBKN+kTEiEBnF6Mu7cV2IhpvsvNWRvIhf43Tke
PwxQvhUkZjLsOVHjRKM4XuZWSyj8Vh/ZfRj1o6M4lHsuzHSJyMoLFEAQCwBTUFcq
t3zpXqiveNTSbH08tr7FGAC/AjWYnv/YHmx2Repl1Vnv3qYdFjjZCnVlbb87ijtr
Voll5hCvZCwgW74yz5eWSnEEzq4f3TDxEg9/gEJvoGXhNO9VTLjAbbGDvWVHGRGk
okSlACBOVl0DZn1VmueGhz5NkU+nKthJRbxS/rrVvGuZMpeGOSCA7j8KGcH7Q8gR
HlFGbW0QlubN7i0spYc6zUKlhgpleZFQCn7kHtr8UEyCgGL+pVeyVnYfTEkV6uMH
7W/7Zf3s2bDoE8U1R+ALlIdV+XQtH78262p0j0O7CjnjLgn27NbPPXTC1vKC5LFH
soYlJmT3s5RffM7gayZg/wxWQ7Mat7IFzeV6ZOfO76zaOuh9fcH5goeNQCXbSOCv
bO+8NUpLjXy9OadDq2Jx1KTNxh+Vvu/8+9uEaAF2vnRefu2Cfqcuobx550qIdX7y
U8pddjeJsPTx/b4kuV7OXd2mpnH0ugGHVx6buDqd475WplQzLybaisWUdZoI9QNo
tfzlswzsLMcZGj4ynW6Lpq0ZjhpGr3m3nMV3JwN880e2ww9uXTohhllZKMXtI+fA
qJjSxnG8Y+KURBxrr9gxSqx6PjiaVMBV5dGpz4KHuFEV2TQk4UhO9HAoaEZOHV2p
lguzEAe43p3zJCZOCjP2xXmHBxr9SRqIeQnrRE9Kpu6JabqSLSW2FBMPlQ+lolP1
cLi6nx9vjmN1blzXgLgQHSoV/VDMLQZeZoy7ysqLCd4GQd0VchuHDSrS10JkkGdf
+UtqdcUPdy3LD74ikUBWHYsn1rInkAMT6kZGBTDZxFaU3HtVmatE2EFcIpWDQ46V
tFKEysk05dbKuyfoHlHJnSzBRXmiIoKV3CsWJWZPxNuuasMADrdu2b53QWJ/8XIu
R5hfFXekb0gUZlfkkBsvYF91kJYmDufMhEJyMrVLeSIKENw4+j2GmZc3T+FfR2gr
RadiZOlGCw7XQI0G7z2VqxpCfoPOxM+2i2R9dJ9Wi7Pj/aAdU7L6zzRQ9r9tR6VV
MNu5IXI64fZ1PKNHUQ9BYfs+Ftwl5iqwuYhPLsgn7y+KgYGzNRBA71yDjTaKu4gs
ic+YEcopXQKFSeyvgboO/vk2T8Tcc/SPZYNgOBVMqtMstN/zeSi0csh7GxJT7ABt
URAdZpKBpNVysYMQsOm03sx7voAUl2aswTUjzK5n7SLAuTgDtLOw3UdNLpp3US2m
M+yLuPInubKwtHzpeccsnA7yh5PRNe9p9nVfsNZDjiV5ulbsPFeTZtbPtjh2IeMk
Y09zNsL5M16vT6ANspaTLu52xASlNkmG2bCTfHLc96sdURR2ZwH1N5Ez6jJ8v+sG
NMe5ZOn2cAJy02dldHpxvu/7hQBmjVgq9KKYZFwiV4yxlPn5VsbECPR59HW4a52u
6sITLPoRsYOxNqpHCcD56I4PdNoPuMMTgJTpLkHERZ6SasvZC/7HHubEQSV0KQBF
HNCwKqXyQX05Ep2deRolZwUVX1ivY2lBS4zw0k+9mrqbBw+wre+t7smiHz8in60L
mzIAT/Osr+oIkizjyB/nJM3uvKA9JlrRylTHzvWRBv+BDwb5PN/Yek8ro0/65IOe
tT48AKlyeuKsvy72c2bWQmXCN8IsDGUszq52aN5b7HX1qNKklxIQhKvM49E/5Joo
FH8ehkbIM0mvuopwFJpQ5R8tGMEJB77rPU0zaobdU7rA8qyuejCEQ1zUMcsDaxvF
Gmo4o9zFIsohFk5L+E3KS4wSCLojNPLTCwzSXqvkXq2PXDJtUgHSCZWimnlpJ/q4
HkgOYZwUTqiuxLnc5RkHqT9OB6SrK1PdFvYQqhjXAIQwgfVYYFVdo0OW3npY9iKN
QDA2LAeM+xL0MVIEMe7jgoEZbQfLgwy/aWMQuYtzEORQZohKzRECfjJ0F2wZ2e4h
7FU5j4t7VF650D+d4lMeQ5mx3WeYAs4N8xipILzCeM0lkeFNzqwYGRDmNughNC3h
IL8sCeuH0ukDiwfjPJVOf/slSoNl3j9LTYfmxu/fuC45Z+6A1FGLxdyb05i56OPb
GmLN2t5rJssQxHqua2hwWok0aKW4VsQBMihkyrL4RBAVxQt5NLhkkLf3EykFaiIK
Rv8kK1zptsI2HZBnoFs30OEqADNovWN5VZu31ZZEcytOuia5pdK/7izxbgzP+4yb
c+n83CCEMldJwIvP3JY3phAsyPH4shZSzGSPukoZoM/D8ICF+xhPlrM57v1K7uJu
fHAFtcCxHuFKXSHK08q3eLxdHtHWt7XXmf4bXZTR6s7Xnbvldr58n7c52bcrDAGw
/PBpws/PfJ4WNrYdHwFr7/gxP1oT/XHBtK3aEU8CGvnbQT4QqQv/GKRnO6YfmBmm
eieJLkIJcOQ+Jjivn/FPld6d7s/Mc5gZH5zJEnuaWHPRugg5+zKs0nSBOjjkBeyT
/UfKg4v6mEOipWDUL5EH1L5mXUClPO3Oe+8Sl02hAHEYC3XruPR3HADQG3zhnNlm
XE7gx/CFBmpQSN6JbdR5XIEr6DDHYQXjvSMnQemvA6/mvoIz3kp+QqiHHomcKPiU
H4fne7Z3BxDn8fDmFPFFifto0TCUqRRa0XWNl88kdedOaFZVoYQ9FlTGDU3meoTz
KAfYg89Ja04NvUDGrRA1fnGN60aGyY4OzRvlh4G2GMoQAfYdBBp5Zn/Rqf31BVVH
3sWHHYVe3JnKXomS7a62yeicGQYBuNm99b3k15NP5mPGRO4s8Dz8SyxBFIvZPwef
Qqyg7CgYP+D9zon5VBIAs3daRNm9sUga4GxBJtXY0oYP8TDNxN0L9gejFoa1kNk7
SfAj/G2o3pEZGM3a7D6gp8B54wq6owJStvFCdOqVGzGgTaO8bKVNgu7+0pYqX/0r
MEqSDpAJrzrIWC4K6+1gM1q78PvkejeHNaguCN9FjV+GU0IFddDxCIQXVlfjoCqC
O9vTUwjTsK4w1wASBCX65MJPdfWTEizpgWWVR9UJLVOsVcD8Qt/QZ8ClNYeVjUff
eRAAQcuS0B64MRsFg+WSqxJs8W3Q6T2DYutbSjuLD/4UobW0zeJHw1qEwgMN6Cnq
Nb4xqlQAn6ri8YmBds+Ni2IDeeGUoNKkNXTZEBR20zUhW8NT5+ugo+V1+sQUcWbD
295t5xJNKYmEPfOpLT9bP4ZkWAnXy9QulJ3emO9ALGpPJ5FPtRAHbQBEk2LfZOiH
6O76M+OvWYmTwOBcFTARXW5bbWpxy19TZV6rR/9NJJqN63VM60F7vZQAAdCJqICJ
XyDa2Wv7jaF9n53Uqs7feXTLRu9LgI79Ib550tpaoVXlVlVd7oTV/WmlVmkJOebT
UPAzR9EHIhm3KfwcN6EevbCrgUU+JaqDiUDsXyzgiP3CBZJElBz1l83zMfBjF07Z
Wyk/TEwqk3a9DEU5XkykGYEISYgXa6vQsMNrPurfGAhy9jN0PLLZdyEeLKP9JARN
R+kt30XujBdntgXAr3dJgOo+8WTrAFMCzrE9yyrtTbSoDiBrmYwQolo8zWJR7XFj
GL56eb+0rLtH+1AHuukVD+PHGlO4iIb5lM4DhRErlPvCxplEvUak8g4I9fVMutGI
NWUEsRP1UBsdymzHUcf+J5rA8dBjUPRYl9BGyAPC2oJxRoT+owkCTOTnuSrqdju2
AVhFoBcbw3mkbRlNpYcWff/hXkSlFzd3lfnB8enwWHu8UU8fMqvF7FqciDVh1l/7
jnexlpz9lNEqEk7TYljAiUFisAPB5bBamWnrmlrpQdtgLZf7Qk/L9wjfasUjlYTK
itC1ZzvK3snsrUF+TLlcR/WGmld3LOl7BgM1ozLN/pT4q+/UxJV9F75tdTlYHqpK
RXr55tNBN0bQh115LkU5Wk822TkxhCNeRpwh/AH4sFoCy2Tzzlbam5Tgabu8Q07Q
Acu49oYUO2dDLRom9YpzR6QU57WEqqgsWhtCkrLQcmP0J+P/1AFpjy305QzToK4H
/1rZQW61215tWxGfurDnj8zPMgY1r+lVDbUI8oJXgpMtHREqL2YJT46koj8rAlpV
h4k/Ys2W0anoMqpYFRCWeyxX48N3gNHUkKxNS7HKlzSEI6Vbvx664inyoEcUTmrb
Hat+opa+OLPUsqC3g0XW3S+hx9y32ayqWKYgqo4H2usAK5/ptPPnNVtojF2wqqTM
1OnixgW0NYo9LxqOgvEpIpoBsip2VLlcvaolflxB/3EZ4NHHLJAK3jEw/W/VrzZs
ew0AsqyfoxO701EOZFDSlzafz9fOIauIm+F+09VabJchFCZhKd6qMQP9W0m63XKX
DUbl0441Kq7QvChGtuSvuM+yUZs8K9TSCIfHZy+3lrfqcSUKfGvw9bN40P/vovHW
kW5HpcJUBe7q2tC/53UeMU4Ck1CJpSTlvgIXf0nUJ0pSgLL/bevPUweHJjYAnGRI
VHP6b3b1eZ/tECUE/y1w6bK/9W/iFLVl8ET7h5MJ+Nv3LSIEm/79dc5EX4D31gfI
qtNyfjXyUgJN4K2UehysyTLI2kN8K1gUPvXTuR2g7eWYH7c4u7ONBL49WyeE+IWm
jAepJFcBq2eo1kqCN6+NpdohXRvVjwYZx+zeVm1fenZbunTnLxGlKtZdUh/1HCyf
uSXApB9tOqBhAiMnG4wYUII5pgugblr8TAezQEloSbRW7xFsirP9BMwIpaR7A5+4
RaNQwUUUsKvULKpIWxVxRlcddjTmkMzhXPED9nng+rC91n/Sl+omwTGGnS53PNjJ
1S/FthnwbFfmWlmS5JXdaC9/npZKIVU5jmsnTwMeV4RRRlFmEhByRebfdjn3vBCZ
ZkigwR0e5KcbZlTJ3mwwW9f6R7bsF+yiaTvQPDG+abjeLmTqXn/333pXG9sN5+Lm
IhJ1b1YRNFVHAbBXtj51Tp4RLITnTJtQgCn0MCRlfTOgI/npJVGHF/qM/55Tz+jh
8MZgBaE2f+QvXn40gGFVxz2ihO8eHuKoTEy63zZVAK//o8USvhod+1V0+VhAKeTa
Cj9CoW96DXhi6GEyYfNFhGAfLC55URk+F/iUmbuKjo3u+x3cC9ujctkAEVozSPC/
JcotXEncDlLmNpiLPuXAz5a6/50NUJybQfObu9bhWE7scInFlervNZiOcjEvgtMz
qScjIXF2obQDNvuTGohP4VmJJorbzlVEmvS6Rp47nGHkI9JCXZGXZH5vnVSMxeVr
T/UJKZ1MyHe+peq+eOCLiwi/KwrBXu7jjtYRnEdg4//IPNmznj61kJ2fg8Pizrca
u54b09E2+ScUjfUO1zN43ZKwmgK++lRJ3PX3nZAt8NBt9a+mwj7yhrJsDMriDeiI
aeoUYXCzoh5WfsIqSwX/nhFToUjzQyZrfqlYx/YO95NL4aizFuUlQpqSMta1hvp5
NW0yvlLhScmjX8qvRUaKlNuE/fJniYiSfwlqvgQM9OfTmiqSYtqGB3VkAhEzoXHe
wi8jdKE4x8DUwUO7U/fjuEN38EQhM/CHuSsn+nfaEgr2hPZBxu1XDiwO2HvQSy2b
Vppa9r3s7109q8u/QGicBDUzbCCB+iTI/wD61rpwtlf+5nQWukZF4LUojqfiLXAv
TT6jRUl0YOBUnbiKiCkGpVl2e7NbWGcnYGcNVXo/Mb0E8iE6/fhrCkd5PGowT51R
iMQXAT6SBcGdBvJH09GCV/b2tjfty/5RgRajlcr5XHzbU0caKBKDgBIn40ns0XD7
EznNElHEkKAKzaKNzP2qusPM2cMHR1tPPNTVBr8uZWuE/nvCBPyRjiS9GXX2bncE
Qcyo+NqftjiXc5g0H4lqU31KqHYOydZV8LtqZILMYHxh6qiGLi3+v/EvOZi2jVDF
a43ARgkicsekd8r5//Ln4y892/SPMdSpu7/8eEdn40OA8GgKGfuM3RPmaLUzo+2U
7DRgnJ3G+GTUwtwK1MKK6t3uP1MwC8pzHt+PU9MCTHz68Ocbt4E5iB6Gfxk1EgIF
YG4wdLxvRb15sDtBMcjGqX352PleOJn4GI034E+1CI9Y/gXOEiHaNm5/QoKqKGN+
CsijSX+POgnQEmLgjHnGQ6GzQ/52tfmCXR9IxkrjZOw2EjUL7o35hBx46ELSMrUu
trWCk9BZ6tXu4FHSgHs31ob1Y4sizLKdK0Om30+UuotxkzOpAzIQL9lDv9/5bBOA
n5oWAfblneO7EnrKoNy1a4emqovsuIPt1e+WOhySNzsi+kq1S6yap6pTLdmSxivh
8foTF220D8KN+jJaa25/wAu8HJ0WD79o7JspuBTGREQm0hJDcGO4+lQEeJ81Z+Vj
lVPJHGz3/Tdw0J6psXL9ZiOgvdbjKgPjN3/h5UBUcFqPy0itC68eRZ1utfYbtkBu
o6UmGBOvLf8pyZSYu/EifBZkZhRkossuDXNXzkwUwofuUa0RNT19gUyr6/lBPuK8
OJfqayADm7xuuXnb48U27CTiLBULkl/fPij6E8sFcqNMkA6swoskz4jM44nJ62L0
/2QrofJU3+FuOAwbOQOym5X9rONDunX0gIIuzEl9K45kASjOCD0f3kXYWgR4hWGp
mT8FIoXfn5ps9FsLUSwCbLsKZ14atI+RVhfI6lmNZjbIhty+L7CzfZYunwgYvgJU
HajliXElUj7RcjzluyBNcrTD+M7H+Ol7WM26hFE7dhPK/R84PcLLMMGMdqcQnbhr
bZfzgRsyOXfaL08fWyRbJhlQ9a4AmHJZjdylGcxRubqGcyynAmKjolZTHar3Iw6R
wC23IgXR1bA1ILl5joOd+IVh5rBS2UOWmyyN4AzcnSNE4eDwVikGO0m8nn9bRfsN
hOiwBGCJki1ZwJSN6dTRB3Xjx8vFko0yWgp1qv7PqFlC/u33KYhsRVBDAOaf20nR
vwH3cfED4+LoQgOdm8SvtAR10LmRN1ud0dGXwVlv77PDr8saoLG7uptmssMZvUVd
tQ+CCYg3BV1yHL2IDN5rHCyqEC4trWhonvBJy4baxMf9Li+TWPY5OPG9fKXnFRnG
ZhXkSLgYGxR8ljz0ywh8f13yn6x6ArrbkraBgLCx8vFfTidOGn2ThjelVHBhJ0kO
/96zNh2CAsl7lKxqw1X9rbJjNM4O0BymMwURThAMm0avCrDDWAscFP1sZObhkZdV
ZdoCFD/rNdKoAU0yWapv5kUMMaULg6h0/xFUYxJ6GqdpTFHmsBGl4YOVsgTXh8Cm
hk4RBBWqYOfmpQwcUpB/LsOMLf6k4lV2Ss/FMfW+1iwqEuHcGuiOsC4UV4ljEzLj
NObKwfHbdyK6p9MphvxQDQX8UHWkZ8P14IPz2rjA8ONYqsV8LnmrQ+JiK3CUMLPL
+dkyiOs+lbHSlkQFOTB+Zd9eQewMv1d/Bmj3hzXI89OzLNauwmd2speEqfq8BU8O
MrFHqPURH2plcyaSncrHQRQNTX3gEp2lVSRhgbm2RDsovRGbX+xNJ/BG0OfvmWR0
LPuqnGXeZ684uGIuN9n9tv4mEMg8OkzsbhF4fOXNzyFuW5likF+BA+ox1rPBK5lJ
jpNkDGuA2y9jcQvEH/rWPvKYC1geuHVaVd6dLhVsOtrDqa2NmsWrEVkL1P0LovV/
GrFY0YcyWQ5Mvgb/YJXm4ysTy/n4mK19iaNMAWqwUKg1XRxSw1urCMGviI3K+c+0
KKWbXPVfLOtm7kcK6Dt26diQxJJl/JIQZgriZQA2qn9n2Cs4V0BGbjDqEJGGEpac
ThK6XpYAt3TeiBcZL3pPT9TIgfMxYi3Jy65BV028SEpAH+I9fqvjyjlPSSMIAUpr
1Jj0xnGy/JI4gZUFmjdYxTjWv+JlCod6hmxtANmlYZmqFolSnyEHr0hvlYANoIh8
ITcxJpBIXEr7bEJSiLsiebekAkdS6w61HOzHM97kyUoJKHhV+MsN0/qdEhwe3xjS
rYi4NCevpPYmLAi5ANt7RfJHR9KT3RwS9GQIVWNpT7dktJ40UHRDGDXI3vgSusn8
eWepO+OexKn2/FFngHzi0zd5ZFk/EifQT7CY/J+Cl7k0yWjGrrpe/X+LcPqBODrc
ZGwfgJo4H2SAtRXaxLlc9/MQVNyBevuKQ7Z9TUEB96GJyw2P/C9Jt3iVnuQVXxnZ
in19i/w2Ws7OAfE3ykU+hSN47L7cPm3/qCfXkNgX8iWqhy54nbd31ams+M1AMs0a
t0cI140RfxErZ92bRhIUfjyc3dMwF11349Y28tcB5WCK8ae0XWhcmlygF/PuWFWT
BYfkZfylEviK91Ha+HjUSQJlWkZc7cRP3GANzv2RjLL3bZZBBwYE5vfNV7ftaMAr
6PNOyisD54oT+8uCjG6gn6N7FKo64exBoitl0hRFHyKqUcfVXTxcKSecaGRBxCe4
hVOVLlaJVAY+50lkHraR39nm4qSkaAuhH/rX6jm/SY5T4BRX8PqUmKQoqNWFdfEm
q6U09aw97beq2ncZbU9V4nSAnsAWM+lCoyC2OysRMxQIjycz1x94Kgdk5118xHv8
8Ae4mKhSrVvu+4nvCV7xCajVG2lGpAjwn2w9an5nWckrTYLGhKZ7hxZIElkhKJNz
HO8JOrcj2rjLetLEKwR9ifgAyjOBkqYS10UZSVohTcJ+tjPQ0NXozd5WG2dX2o5B
L8pcet/fXsTdGPnkD2zagaJf0soBRtcPSWVcuEvEx4R9gII/YgcF5oDNCbR53OV+
5O00Ho1j+xFYzOa8p87nhI/+aZcoBdViANZqpJxrduEE3H4aqO+ZDbhobjm9ZHSR
G1xcTrQGbj7v6t6RCQchX6qX/mXLsvYNaWfaX4WWGJJpkZi+PvlB7eU7b5p1ZsOF
WY/Eyz4axONjzbnkwKmaqvhE1mfYHIAF57COJeOixlR7B6bgwp52kuNZDML5kTO/
BC7me7IlE4K/BculSk8cs7v2//xhjwsqdvZMXRF1FLwTVzXlaRnCFoF2Yqf0BJ9V
cG3kWH49CAygPzyBh7WxkDQ7kTfkFyjtM/cAmBENiYwS1HtnaHKhaJcaIll0OiEn
tYGsSVy9wz6V8ZupJe96rd7n6Nq83qIxBQ05W9T538hj2YhPb5LtDGrocr0RnNxF
F1X4N71mFpynWTQued7R1xTSwV/sV1rZn2uoOfwUKT5erYc06XmZOcJzkcdz+Xy/
PgGgAgGV6pj3WQ0aFfPdzvtrl7D+MstM0q/rxync7Y9Qjm1c3hC6p2ftkoOhSfu1
jsI7EH/YFagaZJLHBFk+FPtapyCwa27cOL5HOkPirgI3VaeGo0J5BsijKatc65jx
yleFqz8KiJkFOzM3V/7fMMCtImJYTTdZOi00qk4GOB291t/StQ0IHp9NRm1jcK0q
5DqSP0qLrsDRrzFRZRJcE8wQT5Dl+hPl+fJ5nOd50tOKTzGKtICJq7dJXcCIB0sk
k9aAv+y1SF4unhHM0aMStcP4zcxDfF8u/AbfIHLKa0nXGFSa5tQzgbK8ciZm6pzU
DpE2NTq/xp6x0W/pOhVgx0wITScC4Vu2vyT79N37xs6MuV8xLwbkFDfCf4/iHhmd
OVSwguOWWDlVEgBBCBDwv6JJsbIiVMsujcoFNsB98+mdEDrSIXLtwkp3DyKdL3qq
zvQwgmuXVgfSLc9HuO7bk+tdWEmK/RbbD8CRQo8L3S3YiDe05qK849agXhXrofnY
WNJomJtp2/4CIDr36nnx8mbG8pTzx3UGGdu3yX+X3HSM1gF4LnKyJ/Vjz1yckYFY
7i4sGE1S+Jr4fDs7N940N1OAQuh5EfY4KGYnyXbOAvgca9R/rFtq6QiQ1hbWoETt
On4vycCmeZi9ErVlJlCXUW0AB5hq27dnSlr38DWxQJWeCZs/hL+6qQOpkFR5o4+p
UxKzC8VsUh5jmgR+GeoW1T5JMj3j0ElK4fJyPvSaqkUvFNLc6R3cymUL2RRtC6ak
iwriyQ6k299Q+iiWE+Sjsdn3qFlVKX1K2Lxq892fqHUfz/cEFwzXP9b0kAfxA1w8
v3bDmp/yqb/76ChHv75pHMG28scRO3jqFxCsS81rtudzETnSkRcsvVsEipdli4Fs
yW1yG4hDywzUDDysIGBzaL+5OPJiCzFpWzZHTDXqRg1UPxmtPJttIHKPpvGjcFay
AmXUlEp+SCnfmUrpmThOw3OjuAWRwPgqNYLqwh9NAg0NTBazt9ULUjmVFbULouKH
SwHc5HjvRzBKwVE5j+o5fJF8FhMRqrP/tRYISmJ+Vx1xbtTKkZuAqVRFlmYQoude
qbwXI4jIeSn2irtagTIrCAjZ2zNHw98alDaVryATxJmGpOq81HUwnOFdCskGZBpZ
78Qs+DTQ+x1ggyJShSBUWc4/RTUzkF8G5qMSaDtbSYv3r6YZOSKs5cHjz7jZN8b8
TU/GAupcBXiFtrqpr+DQezd7oBB99sk+N+Txz37uJl1ih3Hg1ybN/i5PIO2Y9Xum
pCGjM7bi6DWVlDOYRmKAE8xAmnvsSv9ktt5oZP81KIRRT9nNkD8eTyybQxJ8ZT/p
/vo8/7WjggIQGXeXVCsUJwusxweuwjoS/cT1N6BDNmAVchKsSoxsJTS4IEZUoCeL
c9Xo68c0D3tqXc/NZ69IapchqZFyXALmfAoliRFA3aVbubiAni3Rarml6e9CUoob
iFQYmpgIkzsmLZVpN3OyWqD4/Z0t+WIRTYiLEFPeel8berAwWP6k1mP0EXxBi2M7
6GcXcf4oaqAfLSXyviulQn/ViB/gSp1vht7nCF944K1tJmKdw9i1EYzrlkKLTxE2
En+4DTeg6lHgleKdcKyipHVVNJDnu+s/2DmBydJKOvJG2FG7FzTi8/siTKU7Rl59
aaU6zezsQpAhxg8xQfLxoAlqCENqGDCeeHJJ19kYdYWf9edciniWPhnokcyLyV1i
ZbsOqGzIZVr+kcZaLnNK5n1eMV3UM49KpOBO+od8XPXHgbnk/8LBNI1EV2nFrOUb
nQS/JpqY44+ZldXIskY5wLhtzQ83/lP9mXmID3hV6lY7DmT3FV8djsDzDjmfU9IW
BY2OZiXAibbVQQbmyT4aRNeCJJZQV8gBiQ06gTD1Uu6xWLvKUtzLQnWJ/bNMYn4k
1hH4EXF0N+OPXxqqM/Dcc5pKEvfl4BUWhonN6prOrYq42LUAOA79t5UBtkYhx53J
u2AkWoh2IX8VQ71FzT39+JrHBCPos78HgTLTOvXCEk9XN/OYMjbq8kalx/bYixwa
D/FPP7tGg+hjOpJ2lIOVIUMXaF/H0ojAcRP5l7BcJmk/+L54plMH17DFiVZZBdzq
6uvunGQo/81gZwzYlnCq4+C5sUUcShFP2IW5MAsVOClrwxUMHn46uyUWktVHfVP2
yHMjeDWYW/htptS3woFNVnE5yuuK3vyMGnXjeDo8Yx3qzGxN8i4rn1jcwAbMlrsS
6hLN0AfXwdfwujogFmHf/1Fo3W/2Htjf8yKrL1cWWJRSYT4AVYrkvUra6Iq1I/r4
Yu+nHkubgFInnvNSOwHudLHojrc3DG9bbsBshnVZyxDDE1wF/16iLiKmDIBq1UD3
or6+uNNvysCmagEWl21zU7vfqw/mQFpAHrJnoKEJrf5SZ2k/jkEQTCHYxXlJTHdH
c495ItVk6wTUJgO0JNuqSZzKaDlUTL/8azNzalnymKgX/JG8MWlncqFhl0MtZXuZ
8oFM5Xp9B0ye/edJIgBOheYi/dSLFRYFu0eBCy3uXGa1YeFZdcqSyfLVSawN32LE
+2Mxmj/ly9AhnvYM56triTHSHaFyvq+P8pDGMBDjoTqyHJchyDvSwfrQo92GmNER
0MVV1RL83TNFhYjZ1S56yMPE4H9DqzwVMz8lSEB+sx+dglvyMe5FekYjaEfqAysa
yzbOLcqzvraqRh+u44MZDKDZ+8f9PL5t0CXk+eisn6WMIqBfUb6yMIb7lml/L37n
ljuqyotv8cX+hZ1fY1w914fXX+X1xmbDiK0c70WtW3cBbXyQ/SYupA50tZE5Vey5
u0oOxuECuQ/bXHsYZlp/NMAY5U2oXgFsvzBaC3QA2Sm7/L/tdWppQFKr0QvA1Dx2
z+h/R4Kn2sQlxzVZhszD2fR9EFZV5f0mi3iNUQa1LVzbi1hrKmgABMlY16e219Wd
QfXiqVUIfJZFnFHeBSqWtzkXEMwSZgUpO6EiGb9tJ0CQYzqiGYJ7yfMRkeOBoDvO
vWpyR6aYLQaVQ8Zja68/Ub8OFg/RhszLtOP7x8O0D0IlsLsqotuL6ZQC8GZi868m
+5wJP+jZPa1rz5H4iv3iwxo8nyrmU7geB+SsLBiQCkKTlgSFokK9//RKfiILdnPk
tVM6hz8k8/T/r9i/jT61Ws3QKCUXvhRq2tevvnMTLCQSrrJ7qagx6pl0YNl8zpzr
9NvqHHLwsIEZBBwKuwdv8B1UP7roqtHVUl4ma1A9Zlbxl2aBR4OFRynycRTkL/9N
48MbVtmPOH+U8DwOsZe2Rung+gTRUEQZ5lCh4N3waU12SZjLlc6Pin1qnWexXNTF
0fYQwSZqpUMcGciTciccxXolaigL88WenK6yd7aJpltHiSo++YG+gPMAuPAAb5Ky
dokuUqycAg4+6hlSk29zbwAbdnVYBTzuFoyyJ96wywg6rHRbq2+jV9c4rEK/XXCK
Hx30V6HTsKGKftkvTcOf/vTYOqh/Wcvv2VRrswsBj9ZRSAQAQmndgWyUkEzHlycc
+cZbCipNaDd6KQgsEYBQYPR+z1yA7C2QwBitW2R4GJ8VHK0gV4B4Gdy2NNfDr+10
o3b5nRySzPNXXdKIfpu8A8f6KUdKBTYy3MHbXfrw4GXaaYQL4xCZknCWWC32Gh7A
SbFYtHsX3IkJDdLH7FVK1QrSBZvYittTfEQbbFngCxnYyZWXQW01456+ZAMnnuTN
eb6z4OHI+k/8hoHfXYZ8wO9qwMB/qOSOd+luKDIgtkl75N827KHeDXYEsxKF0AeB
6PwTodjJhr0aYa33c6i30WARY7kmMeeych6pmpGHOKem7x43Hz3DaeskoYnMlCsl
tEo107hY2lrCsX1DvduhyOAQPNnjrspTt7H9dlr2czhcb5BJY+1Lrr5K9g5CL0O4
tlshGgouse+l0idK+WRbzJ6CUv09ZfymPjpZcATpjILSe2CtlPjt2QCH1lbONsQV
+tZEf/9k7TEO3qEDN8Hn5WnTDsDZ4liZ7KwbCQLhfQDYLDxZaYGbxtPzomV1o1GW
1eX4/+HXmMRIPeSGRpYMPuVLeDZMy1EGt3SIXlNsdNQHYDYeSMRpNFSYqLjm21pa
rev93s/HPGJdEvimJM1TASI9vgGXb1AC3WZCG4YhQOHQUyBBsOcTcFYhgE0MwRH1
FbzxN4JmJLx5iESlW4rHIVCzK8JZsOR3Y5H8ly73Wo8mJbdQ9OgU/DIxEMvdIOAO
4VSPAnlan8IQnFF+Jmh1dpnBJmMmC9wxLLjMNakjQl/zPOPXtiQzQJCrTT2RFN/o
Bg33Nb4d+jvFiIq/kRpRYJ6PNP7hPa1nRWL4SmsE/Pe0de1Kfyh06O8I3KnrhGue
QRj0oDwSVqeDc6q146xN/T1nJhA+UC68UpsxUXWL5OOvB7EgfsZijGcsmHjJb7hl
t3RtGEzKQE9FOaC0JjOz1JvZB+nboxVSnk6RNmvQL2fj65Ejdv1RqWn7cuSLOC3l
66P4WsVGSPIIzKLnlbvvY2i+sBdUv8ouCsvI1e286kWyaq09uquQV4HYXV9G4hjd
RULRGfCktdEF+N/kMRlovnLD4KKVgyaXjoRWAy0afRWFVFLdSP0qh/qNZ8yk/N0F
Orzacn8epRc6noAApsjccMWg3gY/Jq0Fiyo43P7HpbUsFUtXK3UD/zi5cIrWAiD8
X69fIsWPv68SVxu9mdOuA8D7di0uHsjm+ICyG/hB6yidF7hVgnnUvoh6iCAih+ut
9VnIQsTUBP2tlVG2mqnW7Cv7OJqGxmv2cqhakONUjofYdA4dgD9OugZSBBIEM29u
VOEekz6dw/3mghVTTWwARZj8pdHnSFDVcA88Hkpprt2fXeCjOoJhxSq9uth4rlz8
Vrye2BcAGcaQ6/ead9nR6qYoVwkhEe8IiBVAd9NxqrtfgXqDUUDMA0Cxjsio23IU
kctd3r6PrEOHJuulLp+lvqkbzN6YpC6o6Pj9uppPRPsWIrO98hjxnfq8eEtrjTX1
7VtHdAxEOzdWKkbWrYhjmnwAdjjUIR3tTDO2LoWlJh/Iyw+g11T45LXekNq+RMao
WEKb+4hC8DoQ259cTXQTWZ2b3ACEjyB6g8bXn+qhCbrZurstaXCwV2rnkZhUfOKc
4X9v2aeBX+fcsA1mJkrBlPO8rJCuVQD7vy2ClP86TNQzPJ4LkfVr+7U6fPghgGvz
TK7VYImbY6xXLfGHCLGm7zS3fEQIiORl5k65LBEXjiGxb+ByvcYMgIX4CRHWq518
FwrmcQohSs0i+bKMIGB0J3Rbu4Ak0U/QRBSmf8lqkIx/tQ7bsjnL1tAOr8BJCBCq
OLSMbq7hJtcoSCRGAqj0/mQepYXSgsaaN4+POAstMOr6ppITklc0VE+Z7eLW96OH
n+sVmoMt7WVGho95UZGSOQFsZtyCENVSiM+cgMdMfy0sKPPyHz8l7pDunLdIrx1P
sWuVUtnnkTE8QpmSV1mO5AIJNkMLgP7wWN7dv9XwB70x3AKlPbF3H2oEvLkQj0fr
saBvQZJZIoW3+FrpI7dFBallezwbZMlZfZIB9rNVeDX9Qo0GO58QfHLEFQqmAj8C
xDaxZ2ojkllcBDtsADsTFp2KWBnest27UQKL2WEM/ADrCIRqJNUFzl+kCjon71nE
7j8PDvVO2Ci687Z9phqtmArfT8rYZEUDw/UyBF5nzeEEJ6XH3lKY/adTtuB9UqSb
07R+/CeCdcuRkMMa+GnRwamiAf+8Y7r4AqTlZXDLSUhSjDtUb2iKArIqma7P3fZ4
YpNKqnlR756LI2FPONuhzsv5tLE4pXdc3ryeL4BoK5+cRKph0XGOYMewA4MytjaG
MwmcPhPeUg7l910CGJpE9SKQSUSUs1BrGylbN9NSWGbnWY4S8BkkMmKzu9tRbdqU
mwRaZy5thThjRHiFS+QiWjQeNU5zjldJldoUZ35nLmUc6068FZOcyk9b1ssLah1N
xT5qO4onXtN333uVZ1k+X+sy5ljK+s1HIENOHry0UL/4R+Q9cM7UE5MOFL8yeWQm
mvYJRBjFQamAMsiqImat0TTkkZVGLmO1MsAcVQU1s6zHoaMnWeJ7jJdFlZKlc9x+
7hcqojt25Iy20O6IID7h2J75Rr2F8o6Dhf4blcR2C8A9omrdFR07zbunQQW8nq2H
6pEDKLK7HsoeryBN6AVl3o375gDtRbtpC3L1mVshL4OkqpvX3mQzI6byHoVBkTJ3
rTFzG9QT16SERfuhThojS/g4uv9yuMTeUB09GLIeLq6ylKJ4jdvNRNimb2oHqvBW
x4eEit0f1Y9IsTz46zTR5Y3O3IVJ+JgSYBHN4aoteYqL58OvQ4lSFx7E8QLw3g+f
j5bedpj8Rm1qNihUzu9tAm9c50Mrl8lBXZSAZOKjnnVuaegNZXgBs/rgULOVwN5i
fWVCfoVC+2np/z0hWnpldcgj5DwDIH4ZVuyLM0Ql6CX5tDqiV/u2ED9w403dUOoI
Ptb2RgkQr8dhXRZDBurN9cfLMl/jrnvWhzCWwfYi9e26aMxTRoqEnX9LRougmlea
HMpwZedKSee5X6CNxi+gp7SeqUm8BvaYeOpd6QIKG8ZIHpEkmevoL9pB+lSmHWnZ
Oso1KHQ2Rj66WcMqDvixpOFODYFYI/GfxlUMvbYXbBdui/xMKWQrdXoQYK8rMDvh
+WvX+3p0JyjaQTN2rXW4i/JAMy+4c0kSbktOMU0aycPAwVxJN/syIol5WjXIXr6i
9SqhFsvzEMaADl2NMARTtqdX2xHwsbH6v7tsxvyTcCYG0F6sbHNA7RR6f+qCqw/5
A6W9bFupMDiax+7ifEuXtdkNnQwKvZ1AoIruBchJTvA2jZpLzGMAR6fNgDNGuw3S
LzAAC0LOsazVl4sSj6aD+bJ6Hl8oEJ/Q2SNIzROkFWIFMbKyvHfuumjYuWaLYLVG
txSooCAs5QKM7nucvLYzvkpz48F962rsMvLARuvvUxMH/gL3v4Zmq4PkEaSFkis4
jqvTAWwB/KJt2vdiSBEzwXyHLqAaq6z5bAyCHFFRojEdcHT1tTR1mkPydYVzm8IM
FiN6A1KhIjbkAYDwgcgp8M0SnF2vHZ5O6PUyF0VUB3XbmbAxNh/+PKPB6neySkv7
vW18uO5NbjcfgdAhY1QCBDNdrI3PL1OA8B6dyI1Q3DOgExGpjX2PC43NroG1SkNy
Bkyy70P8OwMklTHQchClk6FJxIrXRmKfpI5IVKwxspln8DPTKZdx/3MohNoueUuU
7J5evpHwCEpGtA0ZPqXJsw5N7mNP3SJ36EBKWtLHqAdsEBBX1Oa7e6+8tOcQ0e5D
gqpN4Ef/pqoJ9UpYfyvKYFtvL4Q05pvaVq0uCSfPqWofax1JGLHTrXBjhVP4xadH
o2jN8cWs1rmZgt6kz9XdhxqtjL/QMx5k+p3awsc4SkqVIAYY9vjS0U+JeR6WcysC
Rj0rk6KJa3MQB6Hyi3bQGnJPQMuk76RlJn2PbXvmYKRiQTrAhZjrkECJ2oMxv5i1
rCrmgP422UzGgju8AhyJndCKS6uDR4bGiEjF/m5WZpxaDDOTYkW3dhdi9dkSyvco
GflyM/hCbW/1/jClSLJWjQmMXP6gHzBvpufT6Q9CAMeLfUnW3ddL4NJRZRZko1g0
CKhhwROHKMXw6M3wz+VFgzY/d3P4TILMXL5gYOqQbjSo52LRkU/z8rp68JNc1QwU
J0Y0Ff/TKNT2isKdv5qTTHoSRvqK+8fh053bwSW1YvFpGuUyeJCpYbTMZafRWmJJ
mDgse1tmGZZTSpRaEtF2Ya5tFHtDhvJHIx8JqqfVCdum1ufA+ckAhmH2SeWEnhcf
RBZbaU2H5nPks6lo2Op/QPl0FPlfbC7wi1p/hKSYUPqKrYyxOls5UX3pz12mp+yB
goVqZEztCPhCvaXJyV98RVuthDvbRGcNj2akZMadu5yuawrNCbM73KjE6iefaOuw
KXtYTmPYFeEBiCLC4D5h+86ch7MxHucdLjX6fiL9RWwvbBhYp/7Vf6tL0JTSfVyG
4X5g9Gi9kqfwkcnon3+1CfMn9QoW7LS98FKl4Qi2PNaoKp/Vuzt7lBYPzcvAiiHX
ohXn5Ds5nJp8MHQPK0Qq21qFpqLlhRpTgV4KXmJETZ+co2nH46L/5a1IEI9dBZpD
vLawowYgWQ7rM1hhnFyYUOtu9oegQgBkYEiSoRTCLdpgumlczc5JCqL79s+U5lKc
/az4IXZcLLWYZjCiBkq0DPCUXDnuI0pgtNl0nIeucopqvNwWNp/4nqY2x2NqSRb5
QPqxQw0zIKHLUmwdsqVTDa+WopWhVyLUO42XvIrLJfgSoPkwBh+gxrylunKchMMr
vUSpk1WDi/7mvqBPG7T6NcLDjSYYuU7xk4+jYyRPVdkpniXUonz1EcmKoAq95PYO
WVqedGAE2yP00snvo3NI+mKQL9Wb/LBThSAYhM3jPWDvH0tiu8I8GDWxQKN1Se8c
EfWvWKRKn9wOS6HXCXT5L2bI1cZl+buMBkyZmgARUmyzFfTjJ0tv2Q7K7ZjQnTEE
WJDlcyO24jCAxKx0ecWKjYdloINjZbMmMVgAFyvQMJlHqcWqi5jS9QQG4sIW5waI
G0Wnf32lENHtv7SjeZOFfyhNhulCdbLYbtcYgZkOT1E4OwWGlksmOXTmAvOAE2Lu
Sv/NDLE+eKS9x5mjjyNnKhw4gnibXTOpPt7KGj3iYyd3ywKObWnRJ5oDdGjtpv+R
rHOA1xEeozuHnwvEeSCozbCEy4nRnphS8GzH7bJitx2tVNGUK1kpTqbm2MmnXMm7
G8VnicclzWP3tElGp8i4cD8Zcf0cDufZ1IoCcgSRqz/lvEMYWc818V1QH+adUKs3
qL7dw2kuyEmPyAIIvph66ADCH54R+YD5T43sXwxvLNohPo1tkN3JjaBKCofqNoq5
h8TnL7zMXbqboKQKIbAugJdFIasIjqh3jlvZTO2iU6V/8z3YhWSRMnOUAuRBfgcY
/qdIIcFH1EydcFmwScCK+o1gSELeP3HZ9O9a0gcMCtuXh/2NpJRMj14bjozW/GVG
K0TD8zKEtnfkE29oQgHP93HkJGUzp0dJPL2bvjSNCxMChAHmWQ1OvLP4wXH7KyJF
N8getwlPJwmpflTK8Xdqnv7suHfs9KXdtTISfaEMGkPcYlS9nzvTuiXTLQXmAqHq
PN7O9yvhM+Jqs+k1RlMABKosw65s6nUj4K8GsF64YWn71wlakukdGbNFcL3fkXvu
rVH2uTlY7XfgiMwCW+gyl7eLxAtHCdKDbUh0QAHLeG6NcPRaBP4ysXOqlkGTuuwS
yWgcAnWscB0HVc3rfWbGhcRc90g3+6ap6QUMhSXXgZn8KUXcxrxJLWP8Z3DMWrCp
uK5QHWCiIvKJ1gVoF6vJIOC/9Q3JWAdcJwbg2qSG2uB7b28oRIe0BPp7zUqprlox
hkt2UmycgXW4TpqkcUVJfA8jzb7eqCs3s5K/xK+UkKiE2i+y0hsMtNAV3W+aBRb9
CkiMb4y52ESXb9MPpQTsKNCM49Q/67/uu6D9YlvtEgciAXMt0G+adv4St/pksv1s
fCueUXH3xTut49285+xxb68wObVQfpX2GKa3QvUmd3nW2D3KWJoJVIZdrHJHUhmv
1A9OF9/tvLtsdQkOZsGllelYK0wc4V2RZSKRUxKYt8B0sdkR/FAomg7VTZ0836/7
LbIXDhslGkYGwFRr3iHSixQGHf92rTi5zW+aYZjaa2wjB3tTIZVEAdZ9KkVkengd
gUWyINawETNa9Zq7gevsh6FFFZs8J3QIotfW5Kzj8chgGUTA/50KO3rUuIRFNdVt
mGp1hokCtmk8PBFHzkcUbWEWpj+OwtvSOjjDox7FXBuM0vp/kKKxuayar0FvgFwa
KZtGR7N6i1f4QPb4v9Sr7PvuCoPwZUyatF231CPstxr6ucORUsFCbhE6cP9FQAnB
DtcN6OJ7yvocz/52DXbuFaXOQdpXJQJDeitzqJ+7DkaBT+L+Z2PAiCPkR41hWo7R
njv/iVvtaSyhjMe4AvPDpfz4vIMfR5QRUhC8XJ2MjgAhqoTvghWr880LxHVWFNUS
brf0WpCnQvh+Q8eld0ne5cOWM6o9bENI/FUysrYPtI9wjsjAC5sl/OlB0qJ59SCf
LHAQKWH4mKfkobjajC/cZEtnyC4bA6Fy+yxudDSJjh0s74SvfcB4F0GlSxOX6Vvu
wmvV49ZcqbI93ggZ5HJ1kisE1nkMCw5GLd1qScDiRV8H4kcbWtw4gGE2RsmdWAXQ
3TFwL6xcr1343dNXrXePCu0TX8+Ui0gUPJ/J4sNW1O0mUNT9J/iHKdKVg5Q1pvxJ
jTWHDWFvrD2/rWN8imDcsesjvOSifyWp17H2kFd/Vse3v5I0/8cQYkTuMuVTJ64r
VNTNwt6GLgtMgHa8ygZDf0p1SERsPW7yHFeQMxhYb918P6KXrF8+1thhmCyxVmMf
wy5fMn5Hv1d0QMEbFtz/cGX6EMRvnREATp1MJna4yl8ja0TKlULMb563H7H/Y+1r
M2TPISMqr4DC685ohLONREdhbStNCA8UCHq6D+owLGNrqS0bi6ajmhX/cE3IqoGg
6sS2TCyEgwB0xdf5Mc5vGfNAJLxzL42ErEKRaiBDdxWhgKGsxH4EcHFSWa3CSq9Z
EAlJyq5FmzCK2OopP/y8g00cXapgr7WXCPTJnMdzhCQJglX/VqLqVCCm+BpwOlnz
neOXKSkOazmqCqBEBMSDPL2wBhQW/POFjY4YIJ9JP+XkEgEQS+LaoelF/0HIrObr
vihAKuwpg94xd/7OLPMFlEsDs+mUQzrcZBHI5/lpiF+eOia+6VZxTDlTA7GTjbi4
HRkfZC3kNA6RdSbMLgzZ357N5TYtxYM70h3OS1CCBVZ5gjvvWBqddV2bSK72OErG
uflzZc1o9A1gPgBf8bun3ANhaxzQUg6wspcy6Xl09kvOT0or7JrzSH3K2XAuLtkM
et6pjbu1TNyUuTSyf4FxF39Z+BLgyiOpqj68y0ZL24B8wTrHiszTFrHhk54Me0bm
oEwEzLCQW0QeHRDq21O/zSnVG8BDdI/kH3rC3CeFWNkScM7Q5WdVZbIYfyB2oSZb
QB9/3t9F9kRyUoygdO9H0Ic67G0yIuK4VKuxO7GlvD5eiyfjarAEnt0T4IL4AHQQ
reOZMEzIzPewWivxGbSsLLLlWJsYVxGQJHmNsnfeqinn8hTo6pE92poQw9uEEJuk
X1kuKHFwaSSmhaEM4Q3kWYF3sOpZRlCTuGvEr0QXNH04vkcS5mzy789ruIswYRoA
WgdgOr/idzd2VmBAI4UV8u18dc9OZLQzyVYk67P1sKZrRC9yEnDcOLndH/z5PSzh
JqXaX9UOqpKVOkSeKkuy0vLyXyylaNU9zmUzekKhVeU3B4HBh6v/UyjO2aNzkXLw
NX2bLg7YbfWh8yPCZLl6CutQzxUiUn5+N1Wu8sIFnnMtEsbXzyz4NcmKexBT1ARM
8p867jTSs63ScT3MRHWBQyeeYT+KBbO9Nd3WMc8IjujmzTW5he/jNLLt/oorxD61
iMqywTyhQsBq35ZeTh7BLUCoQ/emb5v/m0KIM51D1dNG5t8As+bbRF2SzTpaCt4c
1YAw9ziBRhzdq36t28g4PO78UjLHba4PNXtrxV21susVS2lMSloen8tcm4xI/w5z
1gsG9Z9VcSMBlrZvk/FM6Pff22MiqwMeQmyzgiJbRSvRfs5QJJ5Sp57uLB+h7KKG
/+hJS/OkXdAHlDl+81XLp7BqZuQXTF+/+iLFJ/Ob+ys+g3ieKNW2ELu6RmLba3Ge
uXmf+fpOXJTIAN0KaoIXif7jP0I7hgly9LI8ALwEveSzmAGjkHbxeDz/nk3MrNVr
CwR0081BHPD5MTAfd+fkrJq00PTvYCATjLNKP9CzI3+JxWQCCmfEw7mIDbFvu2KW
RrpZSsCCaftepEiSNQREz8kU1Wi0Da+lxegmofhNAv9paWuiDNeIZrB4ciGjzWIe
fsOte5MCZ8ALX7hSB5HxvwrMxpbHY66h77Os2zHYNCyxYjR94I3RaDPAGvHq8ofS
1XUkyLPXppbSx4l8NX7xEJgd2D1XodGf7abiD3lXj6iaZB4jzuom3S9xExGN8X8b
fTUZ+3pwo+0aFUQoug2t9BBpBuj+JyPmvh0nrtWUzQT/EQH8s5tTnvBqAIneOACG
pc9+jfk+ECjUm4WSWhYkkC95YNLqnZk8qV1sNiWGgDaJK+SAyJv6AWGNqcnZvSev
SsEisTJ2riCmAqAmhhrcmQdZIuAoXiikg1+GsHlpLIR0Hag3jR/G0kLTIbF6fh9K
aNvTDcI19euT2Xcb0dzTdkaFeu7UdWV+5c8sBp6Ys1WztzNWad4vWDS4shbemQfk
U43A+LAsOnePHTrqySTawju+ELq9jp+7F+c0zyxa5aHbnv+7sudo3VqsPr5VqQcS
4UCuwF4TPOrmTx2W2E4FO1LNid3VuOR3T5iS1RqOtqPsnVVu/V0y3H75bg38IEKL
AL8D3PcuSxFEa+NSOf4Dfcyrs2spXeJSsMem2g9yCFJPtw10Gj/W7qNtl6EX/ARO
5JXEZnITsP9kwR3Nf924gOBVn3cZ7zIou+urCgS276L2EvDhkveLEZElhiqVdNz3
umjBS4HFXIDBqR7a/Bx1h7hAc+XU+icr5EZ9wHf2zRJrMGaMuMXlFuKb2U0Kim7/
fyRo8jKUkctaMY+J2PMnPNjeK9/a7bHCpa2tZnShwpBNqhSg8mr9dBcdzKob4HND
jHMx/HfJiRnV3ctsqB99wGRLPY6OYAjLfNd9jkssCYpDIEOTZ3BI6PfQvmtxEVwY
T05E7/Y934VN4K4VSRMRmvUdml1aDi0dOwqeqEPFRqSpjswm+fWZKy01eXQaIQR+
RBtZeBOTeElTYj/H5luVnWgr8lma/rlo6KR54WOd2ce3rXon+aqxxpMp7L5fhL17
RTRP/LgAIhK/iPfU8dndUotgUbsxwUEYnbfvaf2mq4lPBiiV2BSOxMPHXFv/pSYl
mpSNcWwYgPAjsJIiPONE8IX4CAB7z77okHZFiOf/a4BqsbEQcXuOo0NN5ZsYugQp
i35dtVW5t4rPXR0Fio8+FTdDH8UyiUTDmVyrzhk+/v8mqf3WL8Dxa5grvSvkCLB4
Q63LkEcZHWP625bXUeKimcWnEnLsg23tJLx+Gg2rRlsz8RHX+l7a5zn/kV23M+fI
j0f1pKZL3XsdGbiwvCr+6hZlP0m1U4ArHg96dEzjy5vGlvek31C9TK41w3NxdXS/
5SLzVSRYgmBRgvQe5TjiYR7DuaCBj2WUfv5y4EOWmZZalobERzE02gzmpb+RlQ7B
yIPIn0ebhxhSdyYtRywdzbJM6N917WQ+HtqbIf9FF8NR43vikZmB0p76uxL++A3v
/N9kL1KEkUrw2BzFm+oQF5DBIUk/GuqK60xFcy7nLQeu+bdt6THVjUMsmx84j8xO
xPVjNtyLMNkwTX5w0Q1ProeV8tAoWwyL3O0of+T6fVY7ZwTDCdQnzf5n2Rs1VtZZ
oBfbfm1OD39wmwN13xhWbHdmdT24Jw5hdbaYxIeJtIMv4yM1ffhiw4iyfo3flKZd
QxuU2U0uAs7tPR2E980GtF+cHKwCCF0BVQIo6xJUH4LQX/+FmjEon783cFyk2NFP
jN7LK6M8qPeQU7UnDyOqhAgzf0nZt+d7Q2u04HJGWznnQGQL6bGk3wTnU91zLL5J
xkra1GMQpSojhRgAYlMR3zScz7HkHD7RGFlbM0CTlNzpffI013BHhAZ2o3MN6lsW
yV/6EBODomaEaFNgp6zDt9RR00PSESYPQrtxzPEtaQ+IYn9E7zgHuwBNsz7czW37
jPIsc2cpxtDd+LIPUfy5mGdNWRzMDvTLbaFJQBO7IDK/zOzXffTs/Bz3AO5aP4CF
A2Y3oJRBEfEuu0YYAIqf7KEdf84O/kiC5nIgrdYoRVqsZe189RJv07C0es4nw+aC
vUXa5IZB1z/0jolC97ucS9+qdtMZmo8XuzEKed+kgyUu/HAQNxgZVjyT2EYY+PAC
TMVhM5KLTl+UZ/tnNp4jsHa/9suW9XV9Yry2IHQ+lJxZEn1uTuG6eZWBaICgd+A3
7tZtmJtEj7KqFCGIgVSaaoqKt1eS9r6JSmOlLwtn1WbyvDazcfT7rr6kmRY/dlqi
gm68jdLrnoWe9aqizBtWkveKex1WLMsQg6apAx5M9aZyVaJa+kwakH+XsuKZspEm
7qZ1+GZvBkoOHH03nwcUgukhqFQrEmccIH7GfUZiPkVqZlKCrXlWrQ9nEfIWBudh
+2LV+oGVl4mZgFFHDMA4TUXBOL3Q2ri9n0u4/4R4wQivQJ1DI5FOs/hg1kg0YLOz
gbnRiXdwKh6mv2lQnyoDBh51ejauatLaVWXmeEyqQl6uO9/ywTi7uNelLoVFQ84C
6lqhxVh9fDSYH9H/Co27johlaGc0Xg97AQImVJ++Ie87o/8WlWXC38qth72zaU+u
F0c390Kly33lhajspEzvfQ8mX/izfJdnrWE819Z5q2tU/KfdsPzVpsm3TrWA14Vb
gEGgckz4BUUxMxjjpeJxS76N1Cfyp7uhKvZwz5amfGlDqNTFjvRqhv86Cj5yDo+g
2kT9IiMUPkPgRS2fXpQPf9AoVWwX2yFuUQe/OaSrmi3/7stvNyEKcl+wcJqA4ckp
FfqfvQS0m+odWeDNeCfqHoOYPEl2PLexrmODnGkCZOSvBT5PQdaglAO4NJ4+eOeK
sNdsWI92i+ivBHhxZFOElfxkRQ972PeDSD9r3ZKE7AVtrQsTn1+Vg3C+YJexNSpA
Vc1iWRgW93TkYfy+g3pUSWmuX4v6QH9KMi42QpBgcA8DlVHiRfswE+i+4rsB5ssj
3DQEF6IfD5KO8ZnAf0YkyIPOHeIKIqohaeDIg7Ipuc2pXX/9hVMpEh/cAA6vR9SQ
ZL11YD0AK39aBzmQul6pcphjMIl+ogVU2Tb3BBQ/yrERDebKHtegizvSlKkpSXmC
lqMqGQO3mKLaGCuEt1NFjpafR/LLqZCxH3e92WZTPS8pgxunsf40w5E7ozYLzlje
N4nvcHCjMwTLZmFgYnKQdutBVxkSw3imsiHhzQjpHKRpdnv7F0fJJIzE8XajpDtn
E5Vu3dRpl3Mjy+pmWulBriXHieURnNza7S+qgIpmuPagwiri0XiP+2jsCH30Zuu8
zJgWrfePai811Xwc7u+c46EOzblRXYS6YsUFpFWsSLaefImyE3pr3M8VmS/KIobl
QGfMEFg7pOHhoMbHbX4Wh+f2iJ797cBo6tBqAnteQnl0FJG2R5zrtuUzVOhPxUlF
ATBrOSIvOfyXJgWsYyQQDgwemJODLp+7xWZxvHEZXzOj8ne3GEqnD7XorZ9AaVoS
ymURjAC4Xx4G0Zw8e0kodbXiJZsNHSE9mz8zt5R+lR7PqeKL8jNVEn+ZQ18eSHI2
kICV+MHIQHaxeO+eCfK9h9/5an+7c5tk3JEIf1Yypr7J09SPFla2+8NGs6g8PlrJ
F7snCeJQjlM0v0kSMgHQNPv7wGeunAAQdRVA46jVSTZsbRCDsiFsm3BVPu5Lyi4u
tR6RlDc9rVbVKxegNGxGjZKP8krgO20E4o7MsYYeGvk6Bf4dBeBUxtPcZw+KjTMx
mlr+KGREB53CZA3PPGiwqfBKoGfo7/Z7zMuDcaFSyZaSljRYttQbB+QYlmEUzcgT
XHZ8lSZIurtUw0Da3t3i7GJ3xERuCitRSnd028K5QliO94lmvJzCb4ZBbkggKwKl
KY8KKp5iLcVwu//PSnZ+/Bb0VTwoEauWqf1xNgtxvebFM64y6682L8K4EPpOgZF/
7hmtAKXeDG45DlJOoqCJFmhowSoj3Zq+ro2bvzxCuNhojWg31fFB5DZykm+atZYc
4rKuB3hyt00zJ9UGXSmpARZyAsb0O8vDDLSJRZdg9867NOy/g1JJCKgESvJIp+CC
ykV/S1tfrH81d8fME88C9jLu74XZ27F1VyAdryiSLSMLj3cpc/YZN5l8jxu8u6GV
I2UgVkzzUgMeClOFJDIvKdX6qip3LG/Wsnx74O3XzSZt+GOuLC0oeL6U/VXL6oso
ns9Vc/Znt1psWElmQ7BF1F4s6RYJ+QpE5qD5v7NwmHozjG11gQ6IWtZYQidO8kUG
tdQyQyvrC6k5SmuXV5irKsK0Pb5aGDaduVjt3gnlwbvW7UYkXnEaattnuVh67DsQ
LN78SVfgE22JGJKxrVcxFeHXr/d4pLbzsy7nDVy5qzWVkgnfWpoF3L5x+DMAXG+0
eWEuYnFZENswXIpDRO7SAN7yHewYtJpwCxpg4vyEAogH5KQK6+D0qNMZBpmj97UW
K2hU1OIqoI5pTskFqB+5nO9R/LiSYJyVWls6HfpcC84zLDdljP7GiA+k04MSFKph
Y0QxELa5fSXTD3TJIm4MYDnZKwXNhGwQz4aWLrpnnlOFbRyly9LPHYzmcV5lyFL0
VAyR5x9OA/Akqe5KQr/Bw3XCkmD9vILP1CJfqxEgOL4kZN7vdkubGhrrQNmrO33N
lPUHs2a7LSBEJHw9tdw+8OPwLW0hqb4BPhb3D51Md0soLqQLm7kVyz71HM2hFx2P
LaqXIqcFllLVKudmlHCKxBNRGjQpOhA5rn4wiD0/1vGHVP7n1RsbMpJfXn8Lks0R
trU8NCpS8P/MbS2n8J/+3j0sOhF8I30md6Pp69+Tl14XQJTikE9JdPISMlZOLu+n
C61vItWLyv4cLhAipvfYgOd+Z3Lpb3ooEXHhiaqjpPQCsNpFnZWTADKJlWCeTqNT
gXuFPkVqJgidDIBztXbQ5DSEfOt+uRKd+zsivrH8n5FQwlHZ5lI0HJE0xMRuGGl1
3Bxj+iInIJH9XQll3C8Nin+MMVn2PivDnqz5llSEqKdnEmhoNK/Sm0mvWkZJWEkG
KYDqhpYs+RHYAcJv9UGZARMigOx2M6/PQUHG+n7QKuhc1bOK0lJVvV9bAD+kNwUE
kP4DmEWUNL7Lxroqbu0Utxm5u34gX/4iuNSLlwunZfHxXZfyjVI7yaSRR76+wAo8
tnQll7D7DlPquLt8YYx0cQCvUjbuWFYBNUbN5qpLCDURcj1xnbhQsrzzYg01bSDV
tAjINkSU4qdveC7DAk92SJL7AewvqpvWffGW1yTeTH2zboqJPiVDeNuCrBsQyGO9
7G2PYwy3bmUcHTfqc1B7GIEwyXUQLFe0xvlQ0rxmtbww7H4VAOSMrzJQQ6tagy/U
oXC0Js9fWcHwm2exWPFGG5ZniF074bVkWSpwMvqHmWvTKaxw7aOAebkw3odgvagG
Z5yiD63msycG+pAWyfoD1KRdHmtFihZ9icqoaJZ52Bh/gEF7TdbrmgSProeTWNeg
1Xd6Ipe8Io5PdKM6UaZto2kUQpCBU/XGPPHUKq9u1/ws8aICjwgg5qcBLGqSZ58T
j/GEiJApDorW1gf4D+hXrKv/o4pns9N8mstiqfHBBwNgCB7/spTTTpwO536Jj2Bs
m1KEAnVcwuT/CRkpoH+YFJsnHDocfv7qcYjVbmKYYdAke+Z2Gf4ebOPSssJPRkA5
yECZAL4Z8XZWcOdKcCAJKXaH0r/Cdw5nwiRxsshhvrWRwfEaooGicPRixmCa7/PK
MvSxpvQcmZopral7/I6MeMGwOY3UvHYIvGG/KaPgqChAbfLyigywC6Q8Zukrbef1
ypSnpWxNI31dFggV+nJ6CjqeAo4QsEItHCQ+XP9G25kVG2t+ugkkXtO1gHcWk1k4
BMk2Hc15ER+foFZRBK0cQY4gSl5JUEIgiMLLT0mtNpDLxmxENLM1t5OvJ5aDTMjs
dKdHaCz7S5FYj8F4HhM6CuCiVJ23vLCYjINb1HiK4rLZG9j3xoAFFZAKcSgFvcur
m0qY4adH6mYpWJ8PIJUflXyDWKjbPIEpIe31Vo6yZzuPtkd7xmV7wZ/9ooN7KM1w
csc5OUNYbkbCfKvn5VjsCgGnh0kFQY6KSIND410TrdgPBv9tCFo8euRpCwo4mvaq
0u1hWKVVg1NRoU7e3CGRYgw7qG9ziyQrvCvc+URWcHR6RGDuX3s21VeBf8xSB0kY
YUnBozZ7cWv3G5gBui0psvfXJIi3x6jgH7Zk0DbeQ8dp8Mu8mhmin7z0APSlYK9l
jL9Et12PwdH1QdM8KtstXFzxBZYWlYvDUXQiKksHo3MA2ybBu+0Xfp7++3W/EIYV
gq9pV6XJnV6dfsgEbW4LM45zHmNlPfjDesN0utcEu53AeojxWQBJWl/EC/WqeDAE
54h31SpMfjn3B753HnisAlCMd4TjgzrJyaK/EVDW2BEhLWuaUYWMrthfk0/Izxgz
hBWEWw3ORnYEIrechi+lRkh4OQKW2W5nB225Jm1ELqKHGRpA7Ot74TIqHsh0BqF1
aDi9bHhq5zsfo63brxo6G8OQ44/HoDqWHQp3wm539f/Hlkh2Y9eKpYRBM1lG/4yS
3X/7faQW3oNrc4piKWHWJFEpaaJFu0pODqtNR7fz+qiuYDScy6zffcxeYMxV7/t3
msXMt57lnFL0KZORUioYkMfUDPboYmHyBe2T0I4cEdNrqtANyn8EAaedeTezyp1n
ull0cyLMsULVRYuBtq0jgpG3yx8o2p4FhyYneKm463hHZTZzXMGmOZkTTrYUumDL
OY0rrFzoN+D/jjBqmPrfvSu7bra4cJNxO6IvkHy1k/l02NMHgtfmoOJkaeWgEqvX
72/MEsNZPPtqbBk2parLo8xgkZMMd9nQIZy8LRAsi7MVoxVBXRNYcKdUMRinIU1/
/A6cMmAj0b39WiI5GTUVJsOaHMeHBL9kh6gTVukbUSx51h6SG8jMGq+RW+QEX+62
8YlTf0Mubk9TJbB7MzTgwMerE12kse5bTH7tG8WiIpuKkPXM2jybs5V1MUPMPDtv
Iylc/1ex1ouwH30oA9yJYtKDXJuzA1h2MRbtkkYp4eWMmWf1lkgZRw3Mt1Gkw/HF
3HgDx7G9c/d7r4nTqjo39dUfFRNrBquZ/V+AV9xAM8d0MDgStuRYMOxGvcIJuAOX
aga8vbP9WQy7GCBAuiF0vGCK3OOr7OfH9shVRQVMTbgbIx6t4MW1Hk01taLIccNR
cfZLPz78sQ8zi9Olgesye1PuigvItoOuzC4EmA6yOu0v63g5jm+lLDvlbY5fXkqd
t/K/mxvXn+mjwldAR1i1zO+wvsx8CUBWOuQrohbvK+A2vjz3UxUPlmBvlGUwr2YT
/uJGSCh0bNPx41Nwu5ZqleKa+zpW+3icrqapIpTzfZZHpj2V91TUYLlAwvHOU4H2
xmCPg4mFjQfuL0Fn0A/WIe3uoKiLgCMkNXhZn+Z6Qo8FaPFkDEvctAZzaK4Uyex4
9d0B+0/zwNy2hWhgGLhscbdiMO7Ll54hXT1+K3NGjSge7AH978ep9VJuGn7/n8Bv
gJ5bpxoH0zVmDJxA3HJMoSUDQFtxnB5kMlZPhX8Hq4HjUKVQv2ki3uVwhhQQcv5Z
EhEtYjFYvsdr+QJe7uNza+pUIraPCgUXzGR5AwFY88zpxBXHuruVvIdJI5YWGeVK
Aw8yazeLEx2LhM4poCfN+Pi27W+ehwS4ONO1e2btT9p/EtF0r4/PyMFZa85XjX0O
LUwm1p1yuavLnA4OtuaDTd9TSyOCPCAoxVEJ7lcWgeBzLg0AF1Fm+/OmOhBrapuv
OLVw2WqwzkIRueJ9bjPL4u1TZLBZl8Tp2BmvkoDuwX9C4j5e/c0FGJXYIUD27r8b
kBEH66NfP4K9XVJvv3r2GMDhGNzAPLKMfEsd+ylpCZM7RH/HRafnroqa+dl20gBZ
ZYOugdZOyO+IqokQX/ZwgMVWee0HaivYhgyZmQgc8wnaxC8pDlsXuCGYv2T+rSnl
YvnKTFkRTOSaKgIfC4xfMw8Kd5rnMNlqMvbOZsM523e/XCkVSY2ofWJwyG1cgRaT
8yE3okPdM0R52ZQKbsKBB+rokIhxxq0+21vgzzd44vqqAXuFNMjXMWz5kbrvs3eR
11E1uFoTQlBbU/9egwLIXMJ4dyisdS0MIEnZRRUg//CELv6ejwGoCe3tVaNvAmGZ
QAB53mIdtTKtfoiXe1k1gBnAQ+8VDMSlkJZrEp6uk4d6HMpZEZUkLfEHxZLOsRS9
9qPddPVClShHZBAuzuuU/G9t+O5QDgWUpVBenjfvNhFB7Fy6y6fzdIwt9qzTai3A
R3O3nH7kHlP4OxGNfZyhObEgnm0POUoBSrpFG/yW86FYKlPz/bm/hZwvEfA2EmPr
Vni2vB1Gkdvd2B9DnS+efgOOoIbnyFtLl1faCz6VUcbxyPY+L/vgKLevEOqtyXRE
rEvfE35uL3iwBBa4K9WYu8Xkt1PDrLQoXr1+6IXEg6j26kJ+cy/rCpLI2yWfSxZP
V3FYexQDolR1xNC0kxWSqUNDvKZvyYC2+ofp6ox7eoYBdfDE36D/Og5eWKTq9Sul
IYh9vCLvIRdofyRAr9l6PjNtvjqu7bZyHKEsr2KFcpuKI6JZSRtg1IBY+Jyi88tq
t9zrA4Q8G22oC4zPARQGmyypmJ2iVSjezEno1xX3ODLiMq6ZO4Y7pI/4XRFXmepL
uyc9FAaQk7K/5WFbMDctzSU8xmUyELxZAhXQL5WMKhZCQvnyiH4glqUQPJUYiJvF
VexNYGLKt9Zm+1GMul25l/GqS2HpZpE1ed2FjwWbSmuk3ldXmd/0Q2kTngouOjk8
L4wOye/VTZJxY+8EPXpe5p/vurp7wcVD283eKsD3M4ha15Pq0KFQ52HzvWaolsNN
II/jDaBAjWyrszffc/AE+hDIwpmQ2Xakd4QE8yJX42ysme1zA8oLU1xL+ASW+dfq
CypiQ7w1exba1Dg5vl2QuKdJcijKH0I8+EONYh7ncnfprdiwIe6oIHBeqApzXYg/
AzEzse9dvdhKhywhqGlEm3+WTVQryvc9SA/7rilC95NDyArLIogDM3Kp7JEPvQtV
S+nhUx9E9lzuG+ssMFS/nff++DAvmpbrlVfjKPHOkUPJPVGN3Qhjws2KxEh8Ht42
K2+c2PAwqiuiA+YxSRtH2AiCMwwr6tUetiA6HPi4CHP+5kNgJmmoTVz2I/naW2y1
TDHnR0HFFINcAvHTuROTUILgD55Iw4vVBMXbaM9z4tLbgjRw0f+6pf8P4DtNS+aV
KR8qCokv2rKd4Wp3tevnczEkWHR8Fb15wCCcoRpxZSY0Ou+nuJjhaSd2mCSsITA7
cuBsw1r3IONtXLfYQ1BLhCcXJ8K2i75idN5+iCLJp+806MbXjdpyrxH/XOE0lnfm
iaV7pjq3UuHW19zoD1QPQWKJN7wvBUirb+acP7/gIdMAnuwO+JJtoCQh9cAfCAD+
T2XrQ5gs1n1fr8CfNQAg3CBgSoUgKc7E4sxMUUjMvV/woDCrdkvZkG1NTbWhbUL/
laB9yjlnvGvXSxYzysir6mr2+RlhmeAFror8/iKvuvKsrswT9WGdvHPjS2IlMcgF
XUh5+FGZBvNtOOpCG7F2lumZAoYiG/ybdZ2ckbtNBizJWewpmuA4FQQBRgW2YmB9
a54H39he+QGeY3MR08RZNgr5G26wX7udQC4I4tEsH4wbd3i0zatT7opTgqaBfnPt
k2KTas7myBCED43dlgwzXeJ9rXOm08ocw8tYWOXWsfSI2wFzhEXslxxJVd8gnmXr
d8KNtW27nXGnmFwtDhUhH8vXZfmIy96zsEYGEkO3N8QfuDij0J9Jp+RoB2VLKbRT
8XnXHeUFjdZE4h0XNAvlwUn2c4XNxa0ZSx0UQLIZc9E/u49VJHNn8NwRL82xpM45
qV2k1N28GOglpmoX6zE1iy04lQSBx31qUzDTrsFARWU7sUfJhdGze+X0n2SpaqRB
I46x42mWeAObTO3H/I4Mk2FNX7USw8VtyLAw5shpF1J4QglNME/Vw7AsQ984RO8S
UG2+PtOudamvxzae6pI2CaOpp8L1SdKIrPw6qBaib/SV6Z+3mOWWCbrh9vvRYsYn
rY1bjpiNl7+SE/6yJlN6B1G4QKFn/UuxO5S6nuKXSyJ1HDWsBDJ2Jl1b4c8B7Kac
wbZsc+yzlt9F/Hqx8pCufe3dInlw4xgosWcpVEgb7/gxsXYsyLK3OmMgy8xZ2U0e
M4UfjCBHL+R8hInZxjfq1eG6x+jBh4j1DHbe/W3WNwvxiMP1VU1Bz4rzTirvz9/r
ZF7QNTrGOxDMijLkjYOYuOkdOluJjRgR19mTisJNQ0WFWbEjLLsPljK92QA6d0C1
hF/Aor/MkrRc9yslluJbzac0lPhYS1QM5zi4tdYQ+vgjgejrMmFWwRdiGi6oJF/D
XSUBAzZOcYsEYJKgSyMmkQzEteJc8bEvQ1CtZuJr3zuLv44Ruj+DCXBscluIcLPz
k3YnVS3yfR3qGCrqWACuS3TY5/i7UE389wLLRuByTPsBBVXm56+QAnYg8FSg5GOM
C1A1a7rJcwd/nHxUta+K5Gykj2LukQT99hJjqxNErTdB+K6smc1GD1XqFw1D5/pt
ezlKh2LkC7k0t2tK/ejFNixwBr/+K0ERglL4clGkLN6Z/q6rifW5bT9VAWEps5Bz
QXDZUwEzPQKjjpC66F1ZsUrAZKn1RdhdpJMJZsm1Q43Sa/iMzNlH+dKnnd7t7NDk
jMRUFlv6QCRvXhWlnkUgrwef2mC/BluGFxl/VSOXpgU0nIY6W4C/1FDKYZX6H7s5
9CaFTl7ZaQ3xtdk9FS1VdaBmj/NP7PRbmTOg8P/stMA3Cy4OkscC20mhOexevCSi
JovGzkzdVci+cYuERw3TLgN0e5P3YXsf5gtSw2yJWVpy2JZKnR83yKCADVozmeGt
joB+4/gRa4VEkcZhYm62g0esGg+DZLuI2gllAsHfT0vsZcd9VUojHNTqztKO7Tjm
3c3X0HhehnKU8eZYHhqxhMu9nbLAk2AGiPfCHdkqxZ/pBQ45GTK7QE1+aFIdjwZ5
pRJ1SGk603a9fnZpu3n2NTyrqG5TtBCF5+agfvEw6+Hq+3k+anD8GvdzZBGrT7kA
HDvHWMTcmFT9r+qatXPb2XPLocgBsY/zAvwP4AiVxtcQmSAc7HeR1cFNQR/PPb4p
2dCc19BSX21b+bhMqSKg+eUmqk0rAYxK31aVPAlGkSSXHV7QqMmxvYP1BAl1/p3q
DthBdNr/DUfRzVbnaU+zP4+uPjZ7/bh4xnaHOaNQw1gDyTSDEYUk1YBP2R4DWeC6
h0vvlCZryZFSIhwsEn72l+fEsalIzlrlJruqHtamvF6XussTVIu0wQA2cd7SYjDw
qU3WprUJ+VFxSiA+7A506kfQQqZ9reqMt3VCkk+JjVO9SO930k2Bu6tUKA9J8rUp
s7F+gip8kze4XnxTrRHVHzT6WsnP4zna2UA3cgiAl4FgSlnxusXZ5lxLq52s07t8
PHXNhz2bZdWfGwFMeTD5Fdd1y4svI/86ghbPDcIUorPmz3fFXinNhGsHCE0kkXMV
VtPpVKOanVhPmoPRbFB6mopn5F43MyQIkM4hLSASxEpHTFPjdXYYS9U/KTrs95E7
3izzK+k4HUz9C20yPVN6oj7ifhULaqwU2sh4qGZmZ4kr/tpS++n9eLYQAsbIMfP1
O4jQ64lUabIuodQnBqbQlWWlyhwgch0UZ5BM62S6vfiKV4REMfozE5ZOlNCYNN1v
5/QMIQ71yIRF9ppB+gnMUxXWK7KYDpR67WlecbHLS0lPaQ18wJ9VvfwpVQO0g5IP
3W4rbMB8a+RTEiUbqkfvpJNHZJwZlt0Mnh4V7pZs5xY3W4NkWuHnUtGvG7i2sLvI
83WTiYYXGJwi9299QDDzWTZEG/ZtGrPVKz09AjMXl5SGpPDCgn0zuE4WHlNL0OUJ
10w5RsGohpeiLMSCnzZYPJpSv1ROspVn8zV3N+r71uuk54nsZdblC6/ojEvtrgvJ
Cn+8nZ5vZvEDD6f1oRvvQbBZZM9xruDdXo1W7ujIHKbmYpjGQfGsKxGTiJfYxs/E
uJIQTCKWf1jbKXNUGjcfsV5LLb61VbyTqG8AV/geKAJDLqQcCIQfo0JJmDyq7Gax
9KvUjflADDpScOq9mWUdWQ6O0V/AId0AArXohwoOsbxvJVqoRFYr/HeOu3WILx7y
KBtj/CyjcB4NK4unqr7PK6Hj7Ht2U4npDKYpxKiMghrLjjPJXBF2hDbH8Pq7OyKZ
3XhvY9R2U09wGciivEhqv24WiO0WDpnfdtTWoyYxceyKiLosKbTGppLrCGQ3Mw4m
u84L1EnfKwUI7i+dWih1Zu24eTyTwgYxLM5VriAZZIQKxrQ0hpzo8l/eEz1vIMGx
yr43nhU/KJwWTNXJ1AvVajlXwXzi8R3Qlqa3/BOTo7pdVMKMXFHwnJjqaVoKI38R
LKweKYuh8vRsHPnqJm1GO0/GN3NL5/IiTii+yqmPRorOMRfzCt+zVf3DVvleR/4a
4gtKaBJL8iyJ+E//ZgRIxGhSY9e+KPmGNSIS/SWNYY2div8UQxC0EWOZYHB5NPvk
0inIlbAGZKvgOo8d76jQ0qnTXf+ARRQjhuZG1xG409wdJGqIIaJek1TDNHTRz+x9
rSYk7AnimnPzORhwtJrHmxtRfKOKN+JixrIXFuvW
=c5vB
-----END PGP MESSAGE-----
